(G-CODE GENERATED BY FLATCAM v8.993 - www.flatcam.org - Version Date: 2020/06/05)

(Name: all_drills_V2)
(Type: G-code from Excellon)
(Units: MM)

(Created on Monday, 10 November 2025 at 19:43)

(This preprocessor is used with a motion controller loaded with GRBL firmware.)
(It is configured to be compatible with almost any version of GRBL firmware.)


(TOOLS DIAMETER: )
(Tool: 1 -> Dia: 0.8)
(Tool: 2 -> Dia: 1.0)
(Tool: 3 -> Dia: 1.2)
(Tool: 4 -> Dia: 1.4)

(FEEDRATE Z: )
(Tool: 1 -> Feedrate: 300)
(Tool: 2 -> Feedrate: 300)
(Tool: 3 -> Feedrate: 300)
(Tool: 4 -> Feedrate: 300)

(FEEDRATE RAPIDS: )
(Tool: 1 -> Feedrate Rapids: 1500)
(Tool: 2 -> Feedrate Rapids: 1500)
(Tool: 3 -> Feedrate Rapids: 1500)
(Tool: 4 -> Feedrate Rapids: 1500)

(Z_CUT: )
(Tool: 1 -> Z_Cut: -1.7)
(Tool: 2 -> Z_Cut: -1.7)
(Tool: 3 -> Z_Cut: -1.7)
(Tool: 4 -> Z_Cut: -1.7)

(Tools Offset: )
(Tool: 1 -> Offset Z: -0.0)
(Tool: 2 -> Offset Z: -0.0)
(Tool: 3 -> Offset Z: -0.0)
(Tool: 4 -> Offset Z: -0.0)

(Z_MOVE: )
(Tool: 1 -> Z_Move: 2)
(Tool: 2 -> Z_Move: 2)
(Tool: 3 -> Z_Move: 2)
(Tool: 4 -> Z_Move: 2)

(Z Start: None mm)
(Z End: 2.0 mm)
(Steps per circle: 64)
(Preprocessor Excellon: grbl_11)

(X range:    3.4200 ...   80.2500  mm)
(Y range:    4.3700 ...   53.5920  mm)

(Spindle Speed: 10000.0 RPM)
G21
G90
G17
G94




G00 Z2.0000

G01 F300.00
M03 S10000
G00 X3.8200 Y26.2500
G01 Z-1.7000
G01 Z0
G00 Z2.0000
G00 X4.0500 Y18.1600
G01 Z-1.7000
G01 Z0
G00 Z2.0000
G00 X14.2100 Y18.1600
G01 Z-1.7000
G01 Z0
G00 Z2.0000
G00 X21.3900 Y21.9950
G01 Z-1.7000
G01 Z0
G00 Z2.0000
G00 X23.9300 Y21.9950
G01 Z-1.7000
G01 Z0
G00 Z2.0000
G00 X26.4700 Y21.9950
G01 Z-1.7000
G01 Z0
G00 Z2.0000
G00 X29.0100 Y21.9950
G01 Z-1.7000
G01 Z0
G00 Z2.0000
G00 X36.5000 Y14.9300
G01 Z-1.7000
G01 Z0
G00 Z2.0000
G00 X36.5000 Y4.7700
G01 Z-1.7000
G01 Z0
G00 Z2.0000
G00 X59.1700 Y16.5000
G01 Z-1.7000
G01 Z0
G00 Z2.0000
G00 X69.3300 Y16.5000
G01 Z-1.7000
G01 Z0
G00 Z2.0000
G00 X66.8500 Y24.0500
G01 Z-1.7000
G01 Z0
G00 Z2.0000
G00 X66.8500 Y22.0500
G01 Z-1.7000
G01 Z0
G00 Z2.0000
G00 X60.8800 Y22.0300
G01 Z-1.7000
G01 Z0
G00 Z2.0000
G00 X58.3400 Y22.0300
G01 Z-1.7000
G01 Z0
G00 Z2.0000
G00 X55.8000 Y22.0300
G01 Z-1.7000
G01 Z0
G00 Z2.0000
G00 X53.2600 Y22.0300
G01 Z-1.7000
G01 Z0
G00 Z2.0000
G00 X49.1800 Y33.2000
G01 Z-1.7000
G01 Z0
G00 Z2.0000
G00 X53.2600 Y29.6500
G01 Z-1.7000
G01 Z0
G00 Z2.0000
G00 X55.8000 Y29.6500
G01 Z-1.7000
G01 Z0
G00 Z2.0000
G00 X58.3400 Y29.6500
G01 Z-1.7000
G01 Z0
G00 Z2.0000
G00 X60.8800 Y29.6500
G01 Z-1.7000
G01 Z0
G00 Z2.0000
G00 X72.3500 Y39.5500
G01 Z-1.7000
G01 Z0
G00 Z2.0000
G00 X74.3500 Y39.5500
G01 Z-1.7000
G01 Z0
G00 Z2.0000
G00 X74.4000 Y45.7000
G01 Z-1.7000
G01 Z0
G00 Z2.0000
G00 X72.4000 Y45.7000
G01 Z-1.7000
G01 Z0
G00 Z2.0000
G00 X66.3500 Y38.0500
G01 Z-1.7000
G01 Z0
G00 Z2.0000
G00 X63.8100 Y38.0500
G01 Z-1.7000
G01 Z0
G00 Z2.0000
G00 X61.2700 Y38.0500
G01 Z-1.7000
G01 Z0
G00 Z2.0000
G00 X58.7300 Y38.0500
G01 Z-1.7000
G01 Z0
G00 Z2.0000
G00 X56.1900 Y38.0500
G01 Z-1.7000
G01 Z0
G00 Z2.0000
G00 X53.6500 Y38.0500
G01 Z-1.7000
G01 Z0
G00 Z2.0000
G00 X53.6500 Y45.6700
G01 Z-1.7000
G01 Z0
G00 Z2.0000
G00 X56.1900 Y45.6700
G01 Z-1.7000
G01 Z0
G00 Z2.0000
G00 X58.7300 Y45.6700
G01 Z-1.7000
G01 Z0
G00 Z2.0000
G00 X61.2700 Y45.6700
G01 Z-1.7000
G01 Z0
G00 Z2.0000
G00 X63.8100 Y45.6700
G01 Z-1.7000
G01 Z0
G00 Z2.0000
G00 X66.3500 Y45.6700
G01 Z-1.7000
G01 Z0
G00 Z2.0000
G00 X66.8500 Y51.1920
G01 Z-1.7000
G01 Z0
G00 Z2.0000
G00 X66.8500 Y53.1920
G01 Z-1.7000
G01 Z0
G00 Z2.0000
G00 X58.6220 Y53.1760
G01 Z-1.7000
G01 Z0
G00 Z2.0000
G00 X58.6220 Y51.1760
G01 Z-1.7000
G01 Z0
G00 Z2.0000
G00 X50.9000 Y53.1000
G01 Z-1.7000
G01 Z0
G00 Z2.0000
G00 X50.9000 Y51.1000
G01 Z-1.7000
G01 Z0
G00 Z2.0000
G00 X48.4500 Y44.3500
G01 Z-1.7000
G01 Z0
G00 Z2.0000
G00 X46.4500 Y44.3500
G01 Z-1.7000
G01 Z0
G00 Z2.0000
G00 X40.2000 Y44.3500
G01 Z-1.7000
G01 Z0
G00 Z2.0000
G00 X38.2000 Y44.3500
G01 Z-1.7000
G01 Z0
G00 Z2.0000
G00 X35.2500 Y51.1500
G01 Z-1.7000
G01 Z0
G00 Z2.0000
G00 X35.2500 Y53.1500
G01 Z-1.7000
G01 Z0
G00 Z2.0000
G00 X32.6500 Y45.7600
G01 Z-1.7000
G01 Z0
G00 Z2.0000
G00 X30.1100 Y45.7600
G01 Z-1.7000
G01 Z0
G00 Z2.0000
G00 X27.5700 Y45.7600
G01 Z-1.7000
G01 Z0
G00 Z2.0000
G00 X25.0300 Y45.7600
G01 Z-1.7000
G01 Z0
G00 Z2.0000
G00 X22.4900 Y45.7600
G01 Z-1.7000
G01 Z0
G00 Z2.0000
G00 X19.9500 Y45.7600
G01 Z-1.7000
G01 Z0
G00 Z2.0000
G00 X26.5000 Y51.1000
G01 Z-1.7000
G01 Z0
G00 Z2.0000
G00 X26.5000 Y53.1000
G01 Z-1.7000
G01 Z0
G00 Z2.0000
G00 X17.6100 Y53.1000
G01 Z-1.7000
G01 Z0
G00 Z2.0000
G00 X17.6100 Y51.1000
G01 Z-1.7000
G01 Z0
G00 Z2.0000
G00 X11.1500 Y47.7500
G01 Z-1.7000
G01 Z0
G00 Z2.0000
G00 X9.1500 Y47.7500
G01 Z-1.7000
G01 Z0
G00 Z2.0000
G00 X9.2000 Y40.8500
G01 Z-1.7000
G01 Z0
G00 Z2.0000
G00 X11.2000 Y40.8500
G01 Z-1.7000
G01 Z0
G00 Z2.0000
G00 X19.9500 Y38.1400
G01 Z-1.7000
G01 Z0
G00 Z2.0000
G00 X22.4900 Y38.1400
G01 Z-1.7000
G01 Z0
G00 Z2.0000
G00 X25.0300 Y38.1400
G01 Z-1.7000
G01 Z0
G00 Z2.0000
G00 X27.5700 Y38.1400
G01 Z-1.7000
G01 Z0
G00 Z2.0000
G00 X30.1100 Y38.1400
G01 Z-1.7000
G01 Z0
G00 Z2.0000
G00 X32.6500 Y38.1400
G01 Z-1.7000
G01 Z0
G00 Z2.0000
G00 X39.0200 Y33.2000
G01 Z-1.7000
G01 Z0
G00 Z2.0000
G00 X29.0100 Y29.6150
G01 Z-1.7000
G01 Z0
G00 Z2.0000
G00 X26.4700 Y29.6150
G01 Z-1.7000
G01 Z0
G00 Z2.0000
G00 X23.9300 Y29.6150
G01 Z-1.7000
G01 Z0
G00 Z2.0000
G00 X21.3900 Y29.6150
G01 Z-1.7000
G01 Z0
G00 Z2.0000
G00 X13.9800 Y26.2500
G01 Z-1.7000
G01 Z0
G00 Z2.0000
G00 X12.4500 Y32.4500
G01 Z-1.7000
G01 Z0
G00 Z2.0000
G00 X10.4500 Y32.4500
G01 Z-1.7000
G01 Z0
G00 Z2.0000
G01 F300.00
M03 S10000
G00 X38.9000 Y28.3500
G01 Z-1.7000
G01 Z0
G00 Z2.0000
G00 X44.7100 Y28.6000
G01 Z-1.7000
G01 Z0
G00 Z2.0000
G00 X79.7500 Y39.7000
G01 Z-1.7000
G01 Z0
G00 Z2.0000
G00 X45.6500 Y37.4000
G01 Z-1.7000
G01 Z0
G00 Z2.0000
G00 X38.9000 Y37.3900
G01 Z-1.7000
G01 Z0
G00 Z2.0000
G01 F300.00
M03 S10000
G00 X18.7500 Y6.3000
G01 Z-1.7000
G01 Z0
G00 Z2.0000
G00 X23.7500 Y6.3000
G01 Z-1.7000
G01 Z0
G00 Z2.0000
G00 X28.7500 Y6.3000
G01 Z-1.7000
G01 Z0
G00 Z2.0000
G00 X50.9500 Y6.1000
G01 Z-1.7000
G01 Z0
G00 Z2.0000
G00 X55.9500 Y6.1000
G01 Z-1.7000
G01 Z0
G00 Z2.0000
G00 X60.9500 Y6.1000
G01 Z-1.7000
G01 Z0
G00 Z2.0000
G01 F300.00
M03 S10000
G00 X78.0430 Y25.8250
G01 Z-1.7000
G01 Z0
G00 Z2.0000
G00 X78.0430 Y30.8250
G01 Z-1.7000
G01 Z0
G00 Z2.0000
M05
G00 Z2.00
G00 X0.0 Y0.0

