(G-CODE GENERATED BY FLATCAM v8.993 - www.flatcam.org - Version Date: 2020/06/05)

(Name: bordes)
(Type: G-code from Geometry)
(Units: MM)

(Created on Sunday, 09 November 2025 at 01:25)

(This preprocessor is used with a motion controller loaded with GRBL firmware.)
(It is configured to be compatible with almost any version of GRBL firmware.)

(TOOL DIAMETER: 2.0 mm)
(Feedrate_XY: 120.0 mm/min)
(Feedrate_Z: 60.0 mm/min)
(Feedrate rapids 1500.0 mm/min)

(Z_Cut: -1.6 mm)
(Z_Move: 2.0 mm)
(Z Start: None mm)
(Z End: 15.0 mm)
(Steps per circle: 64)
(Preprocessor Geometry: grbl_11)

(X range:    0.0000 ...   83.7037  mm)
(Y range:    0.0000 ...   57.6500  mm)

(Spindle Speed: 10000 RPM)
G21
G90
G17
G94




G01 F120.00
G00 Z2.0000

M03 S10000
G00 X0.0000 Y54.6256
G01 F60.00
G01 Z-1.6000
G01 F120.00
G01 X0.0000 Y3.0238 F120.00
G01 X0.0147 Y2.7273 F120.00
G01 X0.0584 Y2.4337 F120.00
G01 X0.1299 Y2.1481 F120.00
G01 X0.2308 Y1.8663 F120.00
G01 X0.3578 Y1.5980 F120.00
G01 X0.5105 Y1.3434 F120.00
G01 X0.6874 Y1.1050 F120.00
G01 X0.8852 Y0.8869 F120.00
G01 X1.1069 Y0.6859 F120.00
G01 X1.3454 Y0.5091 F120.00
G01 X1.6001 Y0.3566 F120.00
G01 X1.8663 Y0.2308 F120.00
G01 X2.1481 Y0.1299 F120.00
G01 X2.4361 Y0.0579 F120.00
G01 X2.7273 Y0.0147 F120.00
G01 X3.0250 Y0.0000 F120.00
G01 X80.6787 Y0.0000 F120.00
G01 X80.9590 Y0.0130 F120.00
G01 X81.2357 Y0.0517 F120.00
G01 X81.5054 Y0.1152 F120.00
G01 X81.7725 Y0.2047 F120.00
G01 X82.0281 Y0.3177 F120.00
G01 X82.2721 Y0.4537 F120.00
G01 X82.5007 Y0.6103 F120.00
G01 X82.7175 Y0.7903 F120.00
G01 X82.9150 Y0.9879 F120.00
G01 X83.0934 Y1.2030 F120.00
G01 X83.2500 Y1.4316 F120.00
G01 X83.3871 Y1.6777 F120.00
G01 X83.4998 Y1.9333 F120.00
G01 X83.5879 Y2.1961 F120.00
G01 X83.6524 Y2.4703 F120.00
G01 X83.6909 Y2.7471 F120.00
G01 X83.7037 Y3.0239 F120.00
G01 X83.7037 Y54.6250 F120.00
G01 X83.6907 Y54.9053 F120.00
G01 X83.6520 Y55.1820 F120.00
G01 X83.5885 Y55.4517 F120.00
G01 X83.4990 Y55.7188 F120.00
G01 X83.3860 Y55.9744 F120.00
G01 X83.2500 Y56.2184 F120.00
G01 X83.0934 Y56.4470 F120.00
G01 X82.9134 Y56.6638 F120.00
G01 X82.7158 Y56.8613 F120.00
G01 X82.5007 Y57.0397 F120.00
G01 X82.2721 Y57.1963 F120.00
G01 X82.0260 Y57.3334 F120.00
G01 X81.7704 Y57.4461 F120.00
G01 X81.5076 Y57.5342 F120.00
G01 X81.2334 Y57.5987 F120.00
G01 X80.9567 Y57.6372 F120.00
G01 X80.6787 Y57.6500 F120.00
G01 X3.0238 Y57.6500 F120.00
G01 X2.7273 Y57.6353 F120.00
G01 X2.4337 Y57.5916 F120.00
G01 X2.1457 Y57.5194 F120.00
G01 X1.8663 Y57.4193 F120.00
G01 X1.5980 Y57.2922 F120.00
G01 X1.3434 Y57.1395 F120.00
G01 X1.1050 Y56.9626 F120.00
G01 X0.8852 Y56.7631 F120.00
G01 X0.6859 Y56.5431 F120.00
G01 X0.5091 Y56.3046 F120.00
G01 X0.3566 Y56.0499 F120.00
G01 X0.2298 Y55.7815 F120.00
G01 X0.1299 Y55.5019 F120.00
G01 X0.0579 Y55.2140 F120.00
G01 X0.0145 Y54.9203 F120.00
G01 X0.0000 Y54.6256 F120.00
G00 Z2.0000
M05
G00 Z2.0000
G00 Z15.00
G00 X0.0 Y0.0

