(G-CODE GENERATED BY FLATCAM v8.993 - www.flatcam.org - Version Date: 2020/06/05)

(Name: bordes_V2)
(Type: G-code from Geometry)
(Units: MM)

(Created on Monday, 10 November 2025 at 19:42)

(This preprocessor is used with a motion controller loaded with GRBL firmware.)
(It is configured to be compatible with almost any version of GRBL firmware.)

(TOOL DIAMETER: 2.0 mm)
(Feedrate_XY: 120.0 mm/min)
(Feedrate_Z: 60.0 mm/min)
(Feedrate rapids 1500.0 mm/min)

(Z_Cut: -1.8 mm)
(DepthPerCut: 0.6 mm <=>3 passes)
(Z_Move: 2.0 mm)
(Z Start: None mm)
(Z End: 15.0 mm)
(Steps per circle: 64)
(Preprocessor Geometry: grbl_11)

(X range:   -1.1000 ...   84.8037  mm)
(Y range:   -1.1000 ...   58.7500  mm)

(Spindle Speed: 10000 RPM)
G21
G90
G17
G94




G01 F120.00
G00 Z2.0000

M03 S10000
G00 X40.6019 Y-1.1000
G01 F60.00
G01 Z-0.6000
G01 F120.00
G01 X0.0000 Y-1.1000 F120.00
G01 X-0.1078 Y-1.0947 F120.00
G01 X-0.2146 Y-1.0789 F120.00
G01 X-0.3193 Y-1.0526 F120.00
G01 X-0.4210 Y-1.0163 F120.00
G01 X-0.5185 Y-0.9701 F120.00
G01 X-0.6111 Y-0.9146 F120.00
G01 X-0.6978 Y-0.8503 F120.00
G01 X-0.7778 Y-0.7778 F120.00
G01 X-0.8503 Y-0.6978 F120.00
G01 X-0.9146 Y-0.6111 F120.00
G01 X-0.9701 Y-0.5185 F120.00
G01 X-1.0163 Y-0.4210 F120.00
G01 X-1.0526 Y-0.3193 F120.00
G01 X-1.0789 Y-0.2146 F120.00
G01 X-1.0947 Y-0.1078 F120.00
G01 X-1.1000 Y0.0000 F120.00
G01 X-1.1000 Y57.6500 F120.00
G01 X-1.0947 Y57.7578 F120.00
G01 X-1.0789 Y57.8646 F120.00
G01 X-1.0526 Y57.9693 F120.00
G01 X-1.0163 Y58.0710 F120.00
G01 X-0.9701 Y58.1686 F120.00
G01 X-0.9146 Y58.2612 F120.00
G01 X-0.8503 Y58.3479 F120.00
G01 X-0.7778 Y58.4278 F120.00
G01 X-0.6978 Y58.5003 F120.00
G01 X-0.6111 Y58.5646 F120.00
G01 X-0.5185 Y58.6201 F120.00
G01 X-0.4210 Y58.6663 F120.00
G01 X-0.3193 Y58.7027 F120.00
G01 X-0.2146 Y58.7289 F120.00
G01 X-0.1078 Y58.7447 F120.00
G01 X0.0000 Y58.7500 F120.00
G01 X40.6019 Y58.7500 F120.00
G00 X40.6019 Y58.7500
G01 F60.00
G01 Z-1.2000
G01 F120.00
G01 X0.0000 Y58.7500 F120.00
G01 X-0.1078 Y58.7447 F120.00
G01 X-0.2146 Y58.7289 F120.00
G01 X-0.3193 Y58.7027 F120.00
G01 X-0.4210 Y58.6663 F120.00
G01 X-0.5185 Y58.6201 F120.00
G01 X-0.6111 Y58.5646 F120.00
G01 X-0.6978 Y58.5003 F120.00
G01 X-0.7778 Y58.4278 F120.00
G01 X-0.8503 Y58.3479 F120.00
G01 X-0.9146 Y58.2612 F120.00
G01 X-0.9701 Y58.1686 F120.00
G01 X-1.0163 Y58.0710 F120.00
G01 X-1.0526 Y57.9693 F120.00
G01 X-1.0789 Y57.8646 F120.00
G01 X-1.0947 Y57.7578 F120.00
G01 X-1.1000 Y57.6500 F120.00
G01 X-1.1000 Y0.0000 F120.00
G01 X-1.0947 Y-0.1078 F120.00
G01 X-1.0789 Y-0.2146 F120.00
G01 X-1.0526 Y-0.3193 F120.00
G01 X-1.0163 Y-0.4210 F120.00
G01 X-0.9701 Y-0.5185 F120.00
G01 X-0.9146 Y-0.6111 F120.00
G01 X-0.8503 Y-0.6978 F120.00
G01 X-0.7778 Y-0.7778 F120.00
G01 X-0.6978 Y-0.8503 F120.00
G01 X-0.6111 Y-0.9146 F120.00
G01 X-0.5185 Y-0.9701 F120.00
G01 X-0.4210 Y-1.0163 F120.00
G01 X-0.3193 Y-1.0526 F120.00
G01 X-0.2146 Y-1.0789 F120.00
G01 X-0.1078 Y-1.0947 F120.00
G01 X0.0000 Y-1.1000 F120.00
G01 X40.6019 Y-1.1000 F120.00
G00 X40.6019 Y-1.1000
G01 F60.00
G01 Z-1.8000
G01 F120.00
G01 X0.0000 Y-1.1000 F120.00
G01 X-0.1078 Y-1.0947 F120.00
G01 X-0.2146 Y-1.0789 F120.00
G01 X-0.3193 Y-1.0526 F120.00
G01 X-0.4210 Y-1.0163 F120.00
G01 X-0.5185 Y-0.9701 F120.00
G01 X-0.6111 Y-0.9146 F120.00
G01 X-0.6978 Y-0.8503 F120.00
G01 X-0.7778 Y-0.7778 F120.00
G01 X-0.8503 Y-0.6978 F120.00
G01 X-0.9146 Y-0.6111 F120.00
G01 X-0.9701 Y-0.5185 F120.00
G01 X-1.0163 Y-0.4210 F120.00
G01 X-1.0526 Y-0.3193 F120.00
G01 X-1.0789 Y-0.2146 F120.00
G01 X-1.0947 Y-0.1078 F120.00
G01 X-1.1000 Y0.0000 F120.00
G01 X-1.1000 Y57.6500 F120.00
G01 X-1.0947 Y57.7578 F120.00
G01 X-1.0789 Y57.8646 F120.00
G01 X-1.0526 Y57.9693 F120.00
G01 X-1.0163 Y58.0710 F120.00
G01 X-0.9701 Y58.1686 F120.00
G01 X-0.9146 Y58.2612 F120.00
G01 X-0.8503 Y58.3479 F120.00
G01 X-0.7778 Y58.4278 F120.00
G01 X-0.6978 Y58.5003 F120.00
G01 X-0.6111 Y58.5646 F120.00
G01 X-0.5185 Y58.6201 F120.00
G01 X-0.4210 Y58.6663 F120.00
G01 X-0.3193 Y58.7027 F120.00
G01 X-0.2146 Y58.7289 F120.00
G01 X-0.1078 Y58.7447 F120.00
G01 X0.0000 Y58.7500 F120.00
G01 X40.6019 Y58.7500 F120.00
G00 Z2.0000
G00 X43.3019 Y58.7500
G01 F60.00
G01 Z-0.6000
G01 F120.00
G01 X83.7037 Y58.7500 F120.00
G01 X83.8115 Y58.7447 F120.00
G01 X83.9183 Y58.7289 F120.00
G01 X84.0230 Y58.7027 F120.00
G01 X84.1247 Y58.6663 F120.00
G01 X84.2222 Y58.6201 F120.00
G01 X84.3148 Y58.5646 F120.00
G01 X84.4015 Y58.5003 F120.00
G01 X84.4815 Y58.4278 F120.00
G01 X84.5540 Y58.3479 F120.00
G01 X84.6183 Y58.2612 F120.00
G01 X84.6738 Y58.1686 F120.00
G01 X84.7200 Y58.0710 F120.00
G01 X84.7563 Y57.9693 F120.00
G01 X84.7826 Y57.8646 F120.00
G01 X84.7984 Y57.7578 F120.00
G01 X84.8037 Y57.6500 F120.00
G01 X84.8037 Y0.0000 F120.00
G01 X84.7984 Y-0.1078 F120.00
G01 X84.7826 Y-0.2146 F120.00
G01 X84.7563 Y-0.3193 F120.00
G01 X84.7200 Y-0.4210 F120.00
G01 X84.6738 Y-0.5185 F120.00
G01 X84.6183 Y-0.6111 F120.00
G01 X84.5540 Y-0.6978 F120.00
G01 X84.4815 Y-0.7778 F120.00
G01 X84.4015 Y-0.8503 F120.00
G01 X84.3148 Y-0.9146 F120.00
G01 X84.2222 Y-0.9701 F120.00
G01 X84.1247 Y-1.0163 F120.00
G01 X84.0230 Y-1.0526 F120.00
G01 X83.9183 Y-1.0789 F120.00
G01 X83.8115 Y-1.0947 F120.00
G01 X83.7037 Y-1.1000 F120.00
G00 X83.7037 Y-1.1000
G01 F60.00
G01 Z-1.2000
G01 F120.00
G01 X83.8115 Y-1.0947 F120.00
G01 X83.9183 Y-1.0789 F120.00
G01 X84.0230 Y-1.0526 F120.00
G01 X84.1247 Y-1.0163 F120.00
G01 X84.2222 Y-0.9701 F120.00
G01 X84.3148 Y-0.9146 F120.00
G01 X84.4015 Y-0.8503 F120.00
G01 X84.4815 Y-0.7778 F120.00
G01 X84.5540 Y-0.6978 F120.00
G01 X84.6183 Y-0.6111 F120.00
G01 X84.6738 Y-0.5185 F120.00
G01 X84.7200 Y-0.4210 F120.00
G01 X84.7563 Y-0.3193 F120.00
G01 X84.7826 Y-0.2146 F120.00
G01 X84.7984 Y-0.1078 F120.00
G01 X84.8037 Y0.0000 F120.00
G01 X84.8037 Y57.6500 F120.00
G01 X84.7984 Y57.7578 F120.00
G01 X84.7826 Y57.8646 F120.00
G01 X84.7563 Y57.9693 F120.00
G01 X84.7200 Y58.0710 F120.00
G01 X84.6738 Y58.1686 F120.00
G01 X84.6183 Y58.2612 F120.00
G01 X84.5540 Y58.3479 F120.00
G01 X84.4815 Y58.4278 F120.00
G01 X84.4015 Y58.5003 F120.00
G01 X84.3148 Y58.5646 F120.00
G01 X84.2222 Y58.6201 F120.00
G01 X84.1247 Y58.6663 F120.00
G01 X84.0230 Y58.7027 F120.00
G01 X83.9183 Y58.7289 F120.00
G01 X83.8115 Y58.7447 F120.00
G01 X83.7037 Y58.7500 F120.00
G01 X43.3019 Y58.7500 F120.00
G00 X43.3019 Y58.7500
G01 F60.00
G01 Z-1.8000
G01 F120.00
G01 X83.7037 Y58.7500 F120.00
G01 X83.8115 Y58.7447 F120.00
G01 X83.9183 Y58.7289 F120.00
G01 X84.0230 Y58.7027 F120.00
G01 X84.1247 Y58.6663 F120.00
G01 X84.2222 Y58.6201 F120.00
G01 X84.3148 Y58.5646 F120.00
G01 X84.4015 Y58.5003 F120.00
G01 X84.4815 Y58.4278 F120.00
G01 X84.5540 Y58.3479 F120.00
G01 X84.6183 Y58.2612 F120.00
G01 X84.6738 Y58.1686 F120.00
G01 X84.7200 Y58.0710 F120.00
G01 X84.7563 Y57.9693 F120.00
G01 X84.7826 Y57.8646 F120.00
G01 X84.7984 Y57.7578 F120.00
G01 X84.8037 Y57.6500 F120.00
G01 X84.8037 Y0.0000 F120.00
G01 X84.7984 Y-0.1078 F120.00
G01 X84.7826 Y-0.2146 F120.00
G01 X84.7563 Y-0.3193 F120.00
G01 X84.7200 Y-0.4210 F120.00
G01 X84.6738 Y-0.5185 F120.00
G01 X84.6183 Y-0.6111 F120.00
G01 X84.5540 Y-0.6978 F120.00
G01 X84.4815 Y-0.7778 F120.00
G01 X84.4015 Y-0.8503 F120.00
G01 X84.3148 Y-0.9146 F120.00
G01 X84.2222 Y-0.9701 F120.00
G01 X84.1247 Y-1.0163 F120.00
G01 X84.0230 Y-1.0526 F120.00
G01 X83.9183 Y-1.0789 F120.00
G01 X83.8115 Y-1.0947 F120.00
G01 X83.7037 Y-1.1000 F120.00
G00 Z2.0000
G00 X83.7037 Y-1.1000
G01 F60.00
G01 Z-0.6000
G01 F120.00
G01 X43.3019 Y-1.1000 F120.00
G00 X43.3019 Y-1.1000
G01 F60.00
G01 Z-1.2000
G01 F120.00
G01 X83.7037 Y-1.1000 F120.00
G00 X83.7037 Y-1.1000
G01 F60.00
G01 Z-1.8000
G01 F120.00
G01 X43.3019 Y-1.1000 F120.00
G00 Z2.0000
M05
G00 Z2.0000
G00 Z15.00
G00 X0.0 Y0.0

