(G-CODE GENERATED BY FLATCAM v8.993 - www.flatcam.org - Version Date: 2020/06/05)

(Name: drills_gruesos)
(Type: G-code from Excellon)
(Units: MM)

(Created on Sunday, 09 November 2025 at 14:36)

(This preprocessor is used with a motion controller loaded with GRBL firmware.)
(It is configured to be compatible with almost any version of GRBL firmware.)


(TOOLS DIAMETER: )
(Tool: 1 -> Dia: 0.8)
(Tool: 2 -> Dia: 1.0)
(Tool: 3 -> Dia: 1.2)
(Tool: 4 -> Dia: 1.4)

(FEEDRATE Z: )
(Tool: 1 -> Feedrate: 300)
(Tool: 2 -> Feedrate: 300)
(Tool: 3 -> Feedrate: 300)
(Tool: 4 -> Feedrate: 300)

(FEEDRATE RAPIDS: )
(Tool: 1 -> Feedrate Rapids: 1500)
(Tool: 2 -> Feedrate Rapids: 1500)
(Tool: 3 -> Feedrate Rapids: 1500)
(Tool: 4 -> Feedrate Rapids: 1500)

(Z_CUT: )
(Tool: 1 -> Z_Cut: -1.65)
(Tool: 2 -> Z_Cut: -1.65)
(Tool: 3 -> Z_Cut: -1.65)
(Tool: 4 -> Z_Cut: -1.65)

(Tools Offset: )
(Tool: 3 -> Offset Z: -0.0)
(Tool: 4 -> Offset Z: -0.0)

(Z_MOVE: )
(Tool: 1 -> Z_Move: 2)
(Tool: 2 -> Z_Move: 2)
(Tool: 3 -> Z_Move: 2)
(Tool: 4 -> Z_Move: 2)

(Z Start: None mm)
(Z End: 2.0 mm)
(Steps per circle: 64)
(Preprocessor Excellon: grbl_11)

(X range:    3.4200 ...   80.2500  mm)
(Y range:    4.3700 ...   53.5920  mm)

(Spindle Speed: 10000.0 RPM)
G21
G90
G17
G94




G00 Z2.0000

G01 F300.00
M03 S10000
G00 X18.7500 Y6.3000
G01 Z-1.6500
G01 Z0
G00 Z2.0000
G00 X23.7500 Y6.3000
G01 Z-1.6500
G01 Z0
G00 Z2.0000
G00 X28.7500 Y6.3000
G01 Z-1.6500
G01 Z0
G00 Z2.0000
G00 X50.9500 Y6.1000
G01 Z-1.6500
G01 Z0
G00 Z2.0000
G00 X55.9500 Y6.1000
G01 Z-1.6500
G01 Z0
G00 Z2.0000
G00 X60.9500 Y6.1000
G01 Z-1.6500
G01 Z0
G00 Z2.0000
G01 F300.00
M03 S10000
G00 X78.0430 Y25.8250
G01 Z-1.6500
G01 Z0
G00 Z2.0000
G00 X78.0430 Y30.8250
G01 Z-1.6500
G01 Z0
G00 Z2.0000
M05
G00 Z2.00
G00 X0.0 Y0.0

