(G-CODE GENERATED BY FLATCAM v8.993 - www.flatcam.org - Version Date: 2020/06/05)

(Name: pistas)
(Type: G-code from Geometry)
(Units: MM)

(Created on Sunday, 09 November 2025 at 01:17)

(This preprocessor is used with a motion controller loaded with GRBL firmware.)
(It is configured to be compatible with almost any version of GRBL firmware.)

(TOOL DIAMETER: 0.1 mm)
(Feedrate_XY: 150.0 mm/min)
(Feedrate_Z: 80.0 mm/min)
(Feedrate rapids 1500.0 mm/min)

(Z_Cut: -0.04 mm)
(Z_Move: 2.0 mm)
(Z Start: None mm)
(Z End: 15.0 mm)
(Steps per circle: 64)
(Preprocessor Geometry: grbl_11)

(X range:    0.3905 ...   83.3132  mm)
(Y range:    0.3905 ...   57.2595  mm)

(Spindle Speed: 10000 RPM)
G21
G90
G17
G94




G01 F150.00
G00 Z2.0000

M03 S10000
G00 X0.3905 Y3.0295
G01 F80.00
G01 Z-0.0400
G01 F150.00
G01 X0.3910 Y3.0124 F150.00
G01 X0.4092 Y2.7164 F150.00
G01 X0.4126 Y2.6905 F150.00
G01 X0.4637 Y2.4114 F150.00
G01 X0.4719 Y2.3781 F150.00
G01 X0.5564 Y2.1071 F150.00
G01 X0.5654 Y2.0826 F150.00
G01 X0.6886 Y1.8089 F150.00
G01 X0.7009 Y1.7859 F150.00
G01 X0.8478 Y1.5430 F150.00
G01 X0.8672 Y1.5148 F150.00
G01 X1.0423 Y1.2914 F150.00
G01 X1.0650 Y1.2657 F150.00
G01 X1.2657 Y1.0650 F150.00
G01 X1.2851 Y1.0475 F150.00
G01 X1.5148 Y0.8672 F150.00
G01 X1.5361 Y0.8522 F150.00
G01 X1.7930 Y0.6969 F150.00
G01 X1.8162 Y0.6850 F150.00
G01 X2.0751 Y0.5685 F150.00
G01 X2.1071 Y0.5564 F150.00
G01 X2.3781 Y0.4719 F150.00
G01 X2.4114 Y0.4637 F150.00
G01 X2.6905 Y0.4126 F150.00
G01 X2.7164 Y0.4092 F150.00
G01 X3.0124 Y0.3910 F150.00
G01 X3.0295 Y0.3905 F150.00
G01 X40.6858 Y0.3905 F150.00
G01 X40.7018 Y0.3915 F150.00
G01 X40.7145 Y0.3936 F150.00
G01 X40.8017 Y0.4170 F150.00
G01 X40.8112 Y0.4204 F150.00
G01 X40.8173 Y0.4231 F150.00
G01 X40.8292 Y0.4294 F150.00
G01 X40.8404 Y0.4369 F150.00
G01 X40.8509 Y0.4454 F150.00
G01 X40.9149 Y0.5094 F150.00
G01 X40.9214 Y0.5172 F150.00
G01 X40.9254 Y0.5226 F150.00
G01 X40.9326 Y0.5340 F150.00
G01 X40.9386 Y0.5460 F150.00
G01 X40.9411 Y0.5523 F150.00
G01 X40.9443 Y0.5618 F150.00
G01 X40.9652 Y0.6396 F150.00
G01 X40.9674 Y0.6494 F150.00
G01 X40.9693 Y0.6627 F150.00
G01 X40.9698 Y0.6762 F150.00
G01 X40.9693 Y0.6863 F150.00
G01 X40.9674 Y0.6996 F150.00
G01 X40.9652 Y0.7095 F150.00
G01 X40.9443 Y0.7872 F150.00
G01 X40.9411 Y0.7968 F150.00
G01 X40.9372 Y0.8061 F150.00
G01 X40.9326 Y0.8150 F150.00
G01 X40.9273 Y0.8237 F150.00
G01 X40.9234 Y0.8292 F150.00
G01 X40.9171 Y0.8371 F150.00
G01 X40.9103 Y0.8445 F150.00
G01 X40.8533 Y0.9014 F150.00
G01 X40.8430 Y0.9102 F150.00
G01 X40.8319 Y0.9180 F150.00
G01 X40.8230 Y0.9231 F150.00
G01 X40.8025 Y0.9332 F150.00
G01 X40.7945 Y0.9369 F150.00
G01 X40.6987 Y0.9766 F150.00
G01 X40.5063 Y1.0876 F150.00
G01 X40.3300 Y1.2229 F150.00
G01 X39.5529 Y2.0000 F150.00
G01 X39.4176 Y2.1763 F150.00
G01 X39.3066 Y2.3687 F150.00
G01 X39.2215 Y2.5740 F150.00
G01 X39.1640 Y2.7886 F150.00
G01 X39.1350 Y3.0089 F150.00
G01 X39.1350 Y12.9542 F150.00
G01 X39.1336 Y12.9702 F150.00
G01 X39.1312 Y12.9828 F150.00
G01 X39.1095 Y13.0637 F150.00
G01 X39.1063 Y13.0733 F150.00
G01 X39.1024 Y13.0826 F150.00
G01 X39.0978 Y13.0915 F150.00
G01 X39.0925 Y13.1002 F150.00
G01 X39.0845 Y13.1110 F150.00
G01 X39.0779 Y13.1186 F150.00
G01 X39.0210 Y13.1755 F150.00
G01 X39.0110 Y13.1845 F150.00
G01 X39.0002 Y13.1925 F150.00
G01 X38.9886 Y13.1994 F150.00
G01 X38.9826 Y13.2024 F150.00
G01 X38.9733 Y13.2063 F150.00
G01 X38.9605 Y13.2105 F150.00
G01 X38.8797 Y13.2319 F150.00
G01 X38.8670 Y13.2341 F150.00
G01 X38.8510 Y13.2350 F150.00
G01 X11.5589 Y13.2350 F150.00
G01 X11.3386 Y13.2640 F150.00
G01 X11.1240 Y13.3215 F150.00
G01 X10.9187 Y13.4066 F150.00
G01 X10.7263 Y13.5176 F150.00
G01 X10.5500 Y13.6529 F150.00
G01 X9.4229 Y14.7800 F150.00
G01 X9.2876 Y14.9563 F150.00
G01 X9.1766 Y15.1487 F150.00
G01 X9.0915 Y15.3540 F150.00
G01 X9.0340 Y15.5686 F150.00
G01 X9.0050 Y15.7889 F150.00
G01 X9.0050 Y21.0109 F150.00
G01 X9.0047 Y21.0205 F150.00
G01 X9.0036 Y21.0301 F150.00
G01 X9.0012 Y21.0427 F150.00
G01 X8.9805 Y21.1203 F150.00
G01 X8.9763 Y21.1332 F150.00
G01 X8.9738 Y21.1394 F150.00
G01 X8.9694 Y21.1485 F150.00
G01 X8.9661 Y21.1544 F150.00
G01 X8.9606 Y21.1628 F150.00
G01 X8.9545 Y21.1709 F150.00
G01 X8.9501 Y21.1760 F150.00
G01 X8.8861 Y21.2400 F150.00
G01 X8.8810 Y21.2444 F150.00
G01 X8.8729 Y21.2505 F150.00
G01 X8.8615 Y21.2577 F150.00
G01 X8.8526 Y21.2623 F150.00
G01 X8.8464 Y21.2650 F150.00
G01 X8.8337 Y21.2694 F150.00
G01 X8.7560 Y21.2903 F150.00
G01 X8.7461 Y21.2925 F150.00
G01 X8.7361 Y21.2941 F150.00
G01 X8.7261 Y21.2948 F150.00
G01 X8.7160 Y21.2948 F150.00
G01 X8.7092 Y21.2944 F150.00
G01 X8.6992 Y21.2931 F150.00
G01 X8.6893 Y21.2911 F150.00
G01 X8.6052 Y21.2685 F150.00
G01 X8.5959 Y21.2651 F150.00
G01 X8.5839 Y21.2595 F150.00
G01 X8.5752 Y21.2546 F150.00
G01 X8.5643 Y21.2470 F150.00
G01 X8.5307 Y21.2212 F150.00
G01 X8.5227 Y21.2142 F150.00
G01 X8.2837 Y20.9752 F150.00
G01 X8.2730 Y20.9632 F150.00
G01 X8.2639 Y20.9500 F150.00
G01 X8.2237 Y20.8805 F150.00
G01 X8.2163 Y20.8656 F150.00
G01 X8.2108 Y20.8500 F150.00
G01 X8.2078 Y20.8371 F150.00
G01 X8.2017 Y20.7920 F150.00
G01 X8.2007 Y20.7815 F150.00
G01 X8.2005 Y11.7856 F150.00
G01 X8.2015 Y11.7696 F150.00
G01 X8.2043 Y11.7538 F150.00
G01 X8.2251 Y11.6762 F150.00
G01 X8.2291 Y11.6636 F150.00
G01 X8.2359 Y11.6485 F150.00
G01 X8.2426 Y11.6370 F150.00
G01 X8.2484 Y11.6289 F150.00
G01 X8.2721 Y11.5981 F150.00
G01 X8.2765 Y11.5926 F150.00
G01 X8.2837 Y11.5848 F150.00
G01 X12.2348 Y7.6337 F150.00
G01 X12.2468 Y7.6230 F150.00
G01 X12.2600 Y7.6139 F150.00
G01 X12.3296 Y7.5737 F150.00
G01 X12.3383 Y7.5690 F150.00
G01 X12.3474 Y7.5650 F150.00
G01 X12.3568 Y7.5617 F150.00
G01 X12.3729 Y7.5578 F150.00
G01 X12.4215 Y7.5513 F150.00
G01 X12.4356 Y7.5505 F150.00
G01 X16.9030 Y7.5505 F150.00
G01 X16.9190 Y7.5515 F150.00
G01 X16.9285 Y7.5530 F150.00
G01 X16.9379 Y7.5551 F150.00
G01 X17.0124 Y7.5751 F150.00
G01 X17.0217 Y7.5779 F150.00
G01 X17.0338 Y7.5828 F150.00
G01 X17.0425 Y7.5872 F150.00
G01 X17.0536 Y7.5940 F150.00
G01 X17.0615 Y7.5998 F150.00
G01 X17.1102 Y7.6423 F150.00
G01 X17.1174 Y7.6491 F150.00
G01 X17.1262 Y7.6590 F150.00
G01 X17.1561 Y7.6979 F150.00
G01 X17.3522 Y7.8939 F150.00
G01 X17.5722 Y8.0628 F150.00
G01 X17.8123 Y8.2014 F150.00
G01 X18.0685 Y8.3075 F150.00
G01 X18.3364 Y8.3793 F150.00
G01 X18.6113 Y8.4155 F150.00
G01 X18.8887 Y8.4155 F150.00
G01 X19.1636 Y8.3793 F150.00
G01 X19.4315 Y8.3075 F150.00
G01 X19.6877 Y8.2014 F150.00
G01 X19.9278 Y8.0628 F150.00
G01 X20.1479 Y7.8939 F150.00
G01 X20.3439 Y7.6979 F150.00
G01 X20.5128 Y7.4778 F150.00
G01 X20.6514 Y7.2377 F150.00
G01 X20.7575 Y6.9815 F150.00
G01 X20.8293 Y6.7136 F150.00
G01 X20.8655 Y6.4387 F150.00
G01 X20.8655 Y6.1614 F150.00
G01 X20.8293 Y5.8864 F150.00
G01 X20.7575 Y5.6185 F150.00
G01 X20.6514 Y5.3623 F150.00
G01 X20.5128 Y5.1222 F150.00
G01 X20.3439 Y4.9022 F150.00
G01 X20.1479 Y4.7061 F150.00
G01 X19.9278 Y4.5373 F150.00
G01 X19.6877 Y4.3986 F150.00
G01 X19.4315 Y4.2925 F150.00
G01 X19.1636 Y4.2207 F150.00
G01 X18.8887 Y4.1845 F150.00
G01 X18.6113 Y4.1845 F150.00
G01 X18.3364 Y4.2207 F150.00
G01 X18.0686 Y4.2925 F150.00
G01 X17.8123 Y4.3986 F150.00
G01 X17.5722 Y4.5373 F150.00
G01 X17.3522 Y4.7061 F150.00
G01 X17.1561 Y4.9022 F150.00
G01 X17.1263 Y4.9409 F150.00
G01 X17.1155 Y4.9528 F150.00
G01 X17.1034 Y4.9633 F150.00
G01 X17.0396 Y5.0122 F150.00
G01 X17.0315 Y5.0177 F150.00
G01 X17.0201 Y5.0240 F150.00
G01 X17.0082 Y5.0293 F150.00
G01 X16.9990 Y5.0324 F150.00
G01 X16.9863 Y5.0356 F150.00
G01 X16.9293 Y5.0469 F150.00
G01 X16.9195 Y5.0485 F150.00
G01 X16.9030 Y5.0495 F150.00
G01 X11.7016 Y5.0495 F150.00
G01 X11.5072 Y5.0803 F150.00
G01 X11.3200 Y5.1411 F150.00
G01 X11.1446 Y5.2305 F150.00
G01 X10.9854 Y5.3462 F150.00
G01 X5.9962 Y10.3354 F150.00
G01 X5.8805 Y10.4946 F150.00
G01 X5.7911 Y10.6700 F150.00
G01 X5.7303 Y10.8572 F150.00
G01 X5.6995 Y11.0516 F150.00
G01 X5.6995 Y21.5084 F150.00
G01 X5.7303 Y21.7028 F150.00
G01 X5.7911 Y21.8900 F150.00
G01 X5.8805 Y22.0654 F150.00
G01 X5.9962 Y22.2247 F150.00
G01 X10.9754 Y27.2038 F150.00
G01 X11.1346 Y27.3195 F150.00
G01 X11.3100 Y27.4089 F150.00
G01 X11.4972 Y27.4697 F150.00
G01 X11.6916 Y27.5005 F150.00
G01 X13.2482 Y27.5005 F150.00
G01 X13.2609 Y27.5011 F150.00
G01 X13.2703 Y27.5023 F150.00
G01 X13.2797 Y27.5042 F150.00
G01 X13.3473 Y27.5205 F150.00
G01 X13.3588 Y27.5238 F150.00
G01 X13.3741 Y27.5300 F150.00
G01 X13.4366 Y27.5618 F150.00
G01 X13.6485 Y27.6307 F150.00
G01 X13.8686 Y27.6655 F150.00
G01 X14.0914 Y27.6655 F150.00
G01 X14.3115 Y27.6307 F150.00
G01 X14.5234 Y27.5618 F150.00
G01 X14.7219 Y27.4607 F150.00
G01 X14.7698 Y27.4259 F150.00
G01 X14.7779 Y27.4207 F150.00
G01 X14.7893 Y27.4147 F150.00
G01 X14.7982 Y27.4109 F150.00
G01 X14.8702 Y27.3833 F150.00
G01 X14.8794 Y27.3801 F150.00
G01 X14.8921 Y27.3769 F150.00
G01 X14.9017 Y27.3754 F150.00
G01 X14.9115 Y27.3745 F150.00
G01 X14.9306 Y27.3736 F150.00
G01 X22.7734 Y27.3737 F150.00
G01 X22.7862 Y27.3749 F150.00
G01 X22.7988 Y27.3773 F150.00
G01 X22.8796 Y27.3990 F150.00
G01 X22.8952 Y27.4046 F150.00
G01 X22.9071 Y27.4105 F150.00
G01 X22.9183 Y27.4175 F150.00
G01 X22.9545 Y27.4451 F150.00
G01 X22.9653 Y27.4542 F150.00
G01 X23.3936 Y27.8824 F150.00
G01 X23.4001 Y27.8895 F150.00
G01 X23.4062 Y27.8970 F150.00
G01 X23.4134 Y27.9076 F150.00
G01 X23.4536 Y27.9772 F150.00
G01 X23.4583 Y27.9861 F150.00
G01 X23.4635 Y27.9985 F150.00
G01 X23.4666 Y28.0081 F150.00
G01 X23.4683 Y28.0147 F150.00
G01 X23.4706 Y28.0279 F150.00
G01 X23.4716 Y28.0413 F150.00
G01 X23.4715 Y28.1286 F150.00
G01 X23.4706 Y28.1386 F150.00
G01 X23.4690 Y28.1486 F150.00
G01 X23.4675 Y28.1551 F150.00
G01 X23.4647 Y28.1648 F150.00
G01 X23.4611 Y28.1743 F150.00
G01 X23.4552 Y28.1864 F150.00
G01 X23.4133 Y28.2590 F150.00
G01 X23.4078 Y28.2673 F150.00
G01 X23.4017 Y28.2752 F150.00
G01 X23.3903 Y28.2873 F150.00
G01 X23.3775 Y28.2978 F150.00
G01 X23.3398 Y28.3252 F150.00
G01 X23.3279 Y28.3329 F150.00
G01 X23.1881 Y28.4044 F150.00
G01 X23.0079 Y28.5353 F150.00
G01 X22.9292 Y28.6139 F150.00
G01 X22.9220 Y28.6203 F150.00
G01 X22.9117 Y28.6280 F150.00
G01 X22.9036 Y28.6331 F150.00
G01 X22.8368 Y28.6717 F150.00
G01 X22.8279 Y28.6764 F150.00
G01 X22.8186 Y28.6804 F150.00
G01 X22.8058 Y28.6847 F150.00
G01 X22.7960 Y28.6871 F150.00
G01 X22.7827 Y28.6891 F150.00
G01 X22.7693 Y28.6898 F150.00
G01 X22.6922 Y28.6898 F150.00
G01 X22.6787 Y28.6891 F150.00
G01 X22.6654 Y28.6871 F150.00
G01 X22.6524 Y28.6838 F150.00
G01 X22.6397 Y28.6792 F150.00
G01 X22.6276 Y28.6733 F150.00
G01 X22.5568 Y28.6325 F150.00
G01 X22.5482 Y28.6270 F150.00
G01 X22.5400 Y28.6208 F150.00
G01 X22.5299 Y28.6117 F150.00
G01 X22.3773 Y28.4591 F150.00
G01 X22.1843 Y28.3188 F150.00
G01 X21.9718 Y28.2105 F150.00
G01 X21.7449 Y28.1368 F150.00
G01 X21.5093 Y28.0995 F150.00
G01 X21.2707 Y28.0995 F150.00
G01 X21.0351 Y28.1368 F150.00
G01 X20.8083 Y28.2105 F150.00
G01 X20.5957 Y28.3188 F150.00
G01 X20.4027 Y28.4591 F150.00
G01 X20.2341 Y28.6277 F150.00
G01 X20.0938 Y28.8207 F150.00
G01 X19.9855 Y29.0333 F150.00
G01 X19.9704 Y29.0798 F150.00
G01 X19.9669 Y29.0887 F150.00
G01 X19.9628 Y29.0973 F150.00
G01 X19.9581 Y29.1056 F150.00
G01 X19.9201 Y29.1676 F150.00
G01 X19.9127 Y29.1779 F150.00
G01 X19.9044 Y29.1875 F150.00
G01 X18.1003 Y30.9916 F150.00
G01 X18.0881 Y31.0019 F150.00
G01 X18.0747 Y31.0108 F150.00
G01 X18.0050 Y31.0510 F150.00
G01 X17.9930 Y31.0567 F150.00
G01 X17.9806 Y31.0613 F150.00
G01 X17.9678 Y31.0646 F150.00
G01 X17.9580 Y31.0663 F150.00
G01 X17.9159 Y31.0718 F150.00
G01 X17.9018 Y31.0725 F150.00
G01 X13.1497 Y31.0725 F150.00
G01 X13.1370 Y31.0716 F150.00
G01 X13.1245 Y31.0695 F150.00
G01 X13.0686 Y31.0561 F150.00
G01 X13.0594 Y31.0544 F150.00
G01 X13.0498 Y31.0519 F150.00
G01 X13.0353 Y31.0467 F150.00
G01 X12.8049 Y30.9718 F150.00
G01 X12.5693 Y30.9345 F150.00
G01 X12.3307 Y30.9345 F150.00
G01 X12.0951 Y30.9718 F150.00
G01 X11.8683 Y31.0455 F150.00
G01 X11.6557 Y31.1538 F150.00
G01 X11.4627 Y31.2941 F150.00
G01 X11.2941 Y31.4627 F150.00
G01 X11.1538 Y31.6557 F150.00
G01 X11.0940 Y31.7731 F150.00
G01 X11.1135 Y31.7912 F150.00
G01 X11.1706 Y31.8543 F150.00
G01 X11.1769 Y31.8621 F150.00
G01 X11.2256 Y31.9278 F150.00
G01 X11.2310 Y31.9362 F150.00
G01 X11.2746 Y32.0093 F150.00
G01 X11.3125 Y32.0892 F150.00
G01 X11.3162 Y32.0984 F150.00
G01 X11.3448 Y32.1786 F150.00
G01 X11.3670 Y32.2676 F150.00
G01 X11.3805 Y32.3584 F150.00
G01 X11.3850 Y32.4500 F150.00
G01 X11.3805 Y32.5417 F150.00
G01 X11.3670 Y32.6324 F150.00
G01 X11.3448 Y32.7214 F150.00
G01 X11.3162 Y32.8016 F150.00
G01 X11.3125 Y32.8109 F150.00
G01 X11.2746 Y32.8908 F150.00
G01 X11.2310 Y32.9639 F150.00
G01 X11.2256 Y32.9722 F150.00
G01 X11.1769 Y33.0379 F150.00
G01 X11.1706 Y33.0457 F150.00
G01 X11.1135 Y33.1088 F150.00
G01 X11.0940 Y33.1269 F150.00
G01 X11.1538 Y33.2443 F150.00
G01 X11.2941 Y33.4373 F150.00
G01 X11.4627 Y33.6060 F150.00
G01 X11.6557 Y33.7462 F150.00
G01 X11.8683 Y33.8545 F150.00
G01 X12.0951 Y33.9282 F150.00
G01 X12.3307 Y33.9655 F150.00
G01 X12.5693 Y33.9655 F150.00
G01 X12.8049 Y33.9282 F150.00
G01 X13.0352 Y33.8534 F150.00
G01 X13.0517 Y33.8476 F150.00
G01 X13.1257 Y33.8303 F150.00
G01 X13.1392 Y33.8282 F150.00
G01 X13.1495 Y33.8276 F150.00
G01 X18.6984 Y33.8275 F150.00
G01 X18.9126 Y33.7936 F150.00
G01 X19.1188 Y33.7266 F150.00
G01 X19.3120 Y33.6282 F150.00
G01 X19.4874 Y33.5007 F150.00
G01 X21.9387 Y31.0497 F150.00
G01 X21.9497 Y31.0408 F150.00
G01 X21.9874 Y31.0134 F150.00
G01 X21.9932 Y31.0094 F150.00
G01 X22.0023 Y31.0040 F150.00
G01 X22.1425 Y30.9325 F150.00
G01 X22.1543 Y30.9275 F150.00
G01 X22.1697 Y30.9229 F150.00
G01 X22.2549 Y30.9049 F150.00
G01 X22.2682 Y30.9035 F150.00
G01 X22.2750 Y30.9032 F150.00
G01 X22.2851 Y30.9035 F150.00
G01 X22.2951 Y30.9045 F150.00
G01 X22.3017 Y30.9056 F150.00
G01 X22.3148 Y30.9088 F150.00
G01 X22.3914 Y30.9337 F150.00
G01 X22.4009 Y30.9371 F150.00
G01 X22.4130 Y30.9429 F150.00
G01 X22.4218 Y30.9479 F150.00
G01 X22.4328 Y30.9557 F150.00
G01 X22.4430 Y30.9645 F150.00
G01 X22.4500 Y30.9717 F150.00
G01 X22.5038 Y31.0316 F150.00
G01 X22.5101 Y31.0395 F150.00
G01 X22.5157 Y31.0478 F150.00
G01 X22.5207 Y31.0565 F150.00
G01 X22.5251 Y31.0656 F150.00
G01 X22.5288 Y31.0750 F150.00
G01 X22.5317 Y31.0846 F150.00
G01 X22.5495 Y31.1586 F150.00
G01 X22.5512 Y31.1680 F150.00
G01 X22.5524 Y31.1807 F150.00
G01 X22.5525 Y34.8884 F150.00
G01 X22.5864 Y35.1026 F150.00
G01 X22.6534 Y35.3088 F150.00
G01 X22.7519 Y35.5020 F150.00
G01 X22.8793 Y35.6774 F150.00
G01 X23.3916 Y36.1897 F150.00
G01 X23.3982 Y36.1967 F150.00
G01 X23.4061 Y36.2068 F150.00
G01 X23.4131 Y36.2177 F150.00
G01 X23.4516 Y36.2844 F150.00
G01 X23.4549 Y36.2904 F150.00
G01 X23.4591 Y36.2995 F150.00
G01 X23.4637 Y36.3122 F150.00
G01 X23.4663 Y36.3219 F150.00
G01 X23.4682 Y36.3318 F150.00
G01 X23.4693 Y36.3419 F150.00
G01 X23.4697 Y36.3519 F150.00
G01 X23.4697 Y36.4324 F150.00
G01 X23.4687 Y36.4459 F150.00
G01 X23.4663 Y36.4591 F150.00
G01 X23.4627 Y36.4721 F150.00
G01 X23.4604 Y36.4784 F150.00
G01 X23.4564 Y36.4877 F150.00
G01 X23.4516 Y36.4966 F150.00
G01 X23.4113 Y36.5663 F150.00
G01 X23.4038 Y36.5774 F150.00
G01 X23.3974 Y36.5852 F150.00
G01 X23.3928 Y36.5901 F150.00
G01 X23.3880 Y36.5948 F150.00
G01 X23.3803 Y36.6014 F150.00
G01 X23.3694 Y36.6093 F150.00
G01 X23.2969 Y36.6513 F150.00
G01 X23.2881 Y36.6560 F150.00
G01 X23.2728 Y36.6623 F150.00
G01 X23.2632 Y36.6651 F150.00
G01 X23.2535 Y36.6673 F150.00
G01 X23.2049 Y36.6738 F150.00
G01 X23.1908 Y36.6745 F150.00
G01 X20.6747 Y36.6745 F150.00
G01 X20.6618 Y36.6739 F150.00
G01 X20.6460 Y36.6714 F150.00
G01 X20.5620 Y36.6491 F150.00
G01 X20.5526 Y36.6459 F150.00
G01 X20.5435 Y36.6421 F150.00
G01 X20.5346 Y36.6376 F150.00
G01 X20.5261 Y36.6324 F150.00
G01 X20.5180 Y36.6267 F150.00
G01 X20.4871 Y36.6030 F150.00
G01 X20.4764 Y36.5938 F150.00
G01 X19.5147 Y35.6322 F150.00
G01 X19.3281 Y35.4966 F150.00
G01 X19.1226 Y35.3919 F150.00
G01 X18.9032 Y35.3206 F150.00
G01 X18.6753 Y35.2845 F150.00
G01 X8.0747 Y35.2845 F150.00
G01 X8.0650 Y35.2842 F150.00
G01 X8.0555 Y35.2831 F150.00
G01 X8.0397 Y35.2799 F150.00
G01 X7.9652 Y35.2600 F150.00
G01 X7.9557 Y35.2570 F150.00
G01 X7.9435 Y35.2521 F150.00
G01 X7.9317 Y35.2459 F150.00
G01 X7.9206 Y35.2386 F150.00
G01 X7.8844 Y35.2108 F150.00
G01 X7.8739 Y35.2013 F150.00
G01 X5.3687 Y32.6962 F150.00
G01 X5.3580 Y32.6842 F150.00
G01 X5.3524 Y32.6764 F150.00
G01 X5.3472 Y32.6682 F150.00
G01 X5.3071 Y32.5985 F150.00
G01 X5.3000 Y32.5835 F150.00
G01 X5.2958 Y32.5710 F150.00
G01 X5.2934 Y32.5613 F150.00
G01 X5.2917 Y32.5515 F150.00
G01 X5.2863 Y32.5095 F150.00
G01 X5.2855 Y32.4953 F150.00
G01 X5.2855 Y26.6889 F150.00
G01 X5.2859 Y26.6783 F150.00
G01 X5.2872 Y26.6678 F150.00
G01 X5.2951 Y26.6183 F150.00
G01 X5.2981 Y26.6054 F150.00
G01 X5.3355 Y26.3693 F150.00
G01 X5.3355 Y26.1307 F150.00
G01 X5.2982 Y25.8951 F150.00
G01 X5.2245 Y25.6683 F150.00
G01 X5.1162 Y25.4557 F150.00
G01 X4.9760 Y25.2627 F150.00
G01 X4.8073 Y25.0941 F150.00
G01 X4.6143 Y24.9538 F150.00
G01 X4.4018 Y24.8455 F150.00
G01 X4.1749 Y24.7718 F150.00
G01 X3.9393 Y24.7345 F150.00
G01 X3.7007 Y24.7345 F150.00
G01 X3.4651 Y24.7718 F150.00
G01 X3.2383 Y24.8455 F150.00
G01 X3.0257 Y24.9538 F150.00
G01 X2.8327 Y25.0941 F150.00
G01 X2.6641 Y25.2627 F150.00
G01 X2.5238 Y25.4557 F150.00
G01 X2.4155 Y25.6683 F150.00
G01 X2.3418 Y25.8951 F150.00
G01 X2.3045 Y26.1307 F150.00
G01 X2.3045 Y26.3693 F150.00
G01 X2.3419 Y26.6054 F150.00
G01 X2.3450 Y26.6183 F150.00
G01 X2.3529 Y26.6678 F150.00
G01 X2.3541 Y26.6783 F150.00
G01 X2.3545 Y26.6889 F150.00
G01 X2.3545 Y33.3353 F150.00
G01 X2.3906 Y33.5632 F150.00
G01 X2.4619 Y33.7826 F150.00
G01 X2.5405 Y33.9369 F150.00
G01 X2.5666 Y33.9881 F150.00
G01 X2.7022 Y34.1747 F150.00
G01 X6.3953 Y37.8678 F150.00
G01 X6.5819 Y38.0034 F150.00
G01 X6.7875 Y38.1081 F150.00
G01 X7.0068 Y38.1794 F150.00
G01 X7.2347 Y38.2155 F150.00
G01 X17.8353 Y38.2155 F150.00
G01 X17.8514 Y38.2165 F150.00
G01 X17.8672 Y38.2193 F150.00
G01 X17.9448 Y38.2401 F150.00
G01 X17.9543 Y38.2430 F150.00
G01 X17.9635 Y38.2466 F150.00
G01 X17.9754 Y38.2525 F150.00
G01 X17.9867 Y38.2595 F150.00
G01 X18.0229 Y38.2871 F150.00
G01 X18.0336 Y38.2962 F150.00
G01 X18.6059 Y38.8685 F150.00
G01 X18.6129 Y38.8764 F150.00
G01 X18.6172 Y38.8820 F150.00
G01 X18.6466 Y38.9226 F150.00
G01 X18.6535 Y38.9339 F150.00
G01 X18.7941 Y39.1273 F150.00
G01 X18.9627 Y39.2960 F150.00
G01 X19.1557 Y39.4362 F150.00
G01 X19.3683 Y39.5445 F150.00
G01 X19.5951 Y39.6182 F150.00
G01 X19.8307 Y39.6555 F150.00
G01 X20.0693 Y39.6555 F150.00
G01 X20.3054 Y39.6181 F150.00
G01 X20.3183 Y39.6151 F150.00
G01 X20.3678 Y39.6072 F150.00
G01 X20.3783 Y39.6059 F150.00
G01 X20.3889 Y39.6055 F150.00
G01 X38.6753 Y39.6055 F150.00
G01 X38.9032 Y39.5694 F150.00
G01 X39.1226 Y39.4981 F150.00
G01 X39.3281 Y39.3934 F150.00
G01 X39.5147 Y39.2578 F150.00
G01 X39.8630 Y38.9095 F150.00
G01 X39.8754 Y38.8985 F150.00
G01 X39.8835 Y38.8927 F150.00
G01 X39.9318 Y38.8604 F150.00
G01 X39.9432 Y38.8536 F150.00
G01 X39.9552 Y38.8479 F150.00
G01 X40.0661 Y38.8020 F150.00
G01 X40.2495 Y38.6961 F150.00
G01 X40.4175 Y38.5672 F150.00
G01 X40.5672 Y38.4175 F150.00
G01 X40.6961 Y38.2495 F150.00
G01 X40.8020 Y38.0661 F150.00
G01 X40.8831 Y37.8704 F150.00
G01 X40.9379 Y37.6659 F150.00
G01 X40.9655 Y37.4559 F150.00
G01 X40.9655 Y37.2441 F150.00
G01 X40.9379 Y37.0342 F150.00
G01 X40.8831 Y36.8296 F150.00
G01 X40.8020 Y36.6340 F150.00
G01 X40.6961 Y36.4506 F150.00
G01 X40.5672 Y36.2826 F150.00
G01 X40.4175 Y36.1328 F150.00
G01 X40.2495 Y36.0039 F150.00
G01 X40.0661 Y35.8980 F150.00
G01 X39.8704 Y35.8170 F150.00
G01 X39.6659 Y35.7622 F150.00
G01 X39.4559 Y35.7345 F150.00
G01 X39.2441 Y35.7345 F150.00
G01 X39.0342 Y35.7622 F150.00
G01 X38.8296 Y35.8170 F150.00
G01 X38.6340 Y35.8980 F150.00
G01 X38.4506 Y36.0039 F150.00
G01 X38.2826 Y36.1328 F150.00
G01 X38.1328 Y36.2826 F150.00
G01 X38.0039 Y36.4506 F150.00
G01 X37.9559 Y36.5336 F150.00
G01 X37.9504 Y36.5422 F150.00
G01 X37.9464 Y36.5477 F150.00
G01 X37.9398 Y36.5555 F150.00
G01 X37.9351 Y36.5605 F150.00
G01 X37.8782 Y36.6174 F150.00
G01 X37.8680 Y36.6261 F150.00
G01 X37.8570 Y36.6339 F150.00
G01 X37.8452 Y36.6404 F150.00
G01 X37.8391 Y36.6433 F150.00
G01 X37.8297 Y36.6470 F150.00
G01 X37.8201 Y36.6500 F150.00
G01 X37.7425 Y36.6707 F150.00
G01 X37.7298 Y36.6731 F150.00
G01 X37.7203 Y36.6742 F150.00
G01 X37.7106 Y36.6745 F150.00
G01 X31.2869 Y36.6745 F150.00
G01 X31.2709 Y36.6731 F150.00
G01 X31.2583 Y36.6707 F150.00
G01 X31.1807 Y36.6500 F150.00
G01 X31.1710 Y36.6470 F150.00
G01 X31.1647 Y36.6446 F150.00
G01 X31.1555 Y36.6404 F150.00
G01 X31.1496 Y36.6373 F150.00
G01 X31.1410 Y36.6320 F150.00
G01 X31.1355 Y36.6282 F150.00
G01 X31.1276 Y36.6219 F150.00
G01 X31.1202 Y36.6150 F150.00
G01 X31.0633 Y36.5581 F150.00
G01 X31.0545 Y36.5479 F150.00
G01 X31.0468 Y36.5368 F150.00
G01 X31.0417 Y36.5281 F150.00
G01 X31.0374 Y36.5190 F150.00
G01 X31.0337 Y36.5096 F150.00
G01 X31.0307 Y36.5000 F150.00
G01 X31.0092 Y36.4189 F150.00
G01 X31.0079 Y36.4123 F150.00
G01 X31.0066 Y36.4023 F150.00
G01 X31.0061 Y36.3922 F150.00
G01 X31.0062 Y36.3855 F150.00
G01 X31.0074 Y36.3721 F150.00
G01 X31.0099 Y36.3588 F150.00
G01 X31.0307 Y36.2811 F150.00
G01 X31.0337 Y36.2714 F150.00
G01 X31.0387 Y36.2590 F150.00
G01 X31.0450 Y36.2471 F150.00
G01 X31.0525 Y36.2358 F150.00
G01 X31.0610 Y36.2254 F150.00
G01 X31.1249 Y36.1615 F150.00
G01 X31.1351 Y36.1531 F150.00
G01 X31.1490 Y36.1441 F150.00
G01 X31.1607 Y36.1381 F150.00
G01 X31.1892 Y36.1255 F150.00
G01 X31.1990 Y36.1215 F150.00
G01 X31.3988 Y36.0566 F150.00
G01 X31.5920 Y35.9582 F150.00
G01 X31.7674 Y35.8307 F150.00
G01 X33.8007 Y33.7974 F150.00
G01 X33.9282 Y33.6220 F150.00
G01 X34.0266 Y33.4288 F150.00
G01 X34.0936 Y33.2226 F150.00
G01 X34.1275 Y33.0084 F150.00
G01 X34.1275 Y26.5416 F150.00
G01 X34.0936 Y26.3274 F150.00
G01 X34.0266 Y26.1212 F150.00
G01 X33.9282 Y25.9280 F150.00
G01 X33.8007 Y25.7526 F150.00
G01 X31.6474 Y23.5993 F150.00
G01 X31.4720 Y23.4719 F150.00
G01 X31.2788 Y23.3734 F150.00
G01 X31.0726 Y23.3064 F150.00
G01 X30.8584 Y23.2725 F150.00
G01 X28.8382 Y23.2725 F150.00
G01 X28.8254 Y23.2719 F150.00
G01 X28.8127 Y23.2701 F150.00
G01 X28.8033 Y23.2679 F150.00
G01 X28.7288 Y23.2480 F150.00
G01 X28.7193 Y23.2450 F150.00
G01 X28.7100 Y23.2414 F150.00
G01 X28.7011 Y23.2371 F150.00
G01 X28.6924 Y23.2322 F150.00
G01 X28.6842 Y23.2266 F150.00
G01 X28.6507 Y23.2010 F150.00
G01 X28.6399 Y23.1918 F150.00
G01 X28.3662 Y22.9181 F150.00
G01 X28.3451 Y22.9124 F150.00
G01 X28.3158 Y22.9019 F150.00
G01 X28.3066 Y22.8980 F150.00
G01 X28.2815 Y22.8861 F150.00
G01 X28.2728 Y22.8813 F150.00
G01 X28.2461 Y22.8651 F150.00
G01 X28.2158 Y22.8426 F150.00
G01 X28.1878 Y22.8172 F150.00
G01 X28.1667 Y22.7943 F150.00
G01 X28.1583 Y22.7840 F150.00
G01 X28.1437 Y22.7643 F150.00
G01 X28.1381 Y22.7561 F150.00
G01 X28.1205 Y22.7265 F150.00
G01 X28.1056 Y22.6954 F150.00
G01 X28.1019 Y22.6862 F150.00
G01 X28.0926 Y22.6599 F150.00
G01 X28.0869 Y22.6389 F150.00
G01 X27.9426 Y22.4945 F150.00
G01 X27.9339 Y22.4850 F150.00
G01 X27.9281 Y22.4773 F150.00
G01 X27.9211 Y22.4665 F150.00
G01 X27.8809 Y22.3968 F150.00
G01 X27.8738 Y22.3817 F150.00
G01 X27.8705 Y22.3722 F150.00
G01 X27.8679 Y22.3625 F150.00
G01 X27.8652 Y22.3460 F150.00
G01 X27.8614 Y22.2774 F150.00
G01 X27.8612 Y22.2680 F150.00
G01 X27.8617 Y22.2586 F150.00
G01 X27.8629 Y22.2492 F150.00
G01 X27.8855 Y22.1064 F150.00
G01 X27.8855 Y21.8836 F150.00
G01 X27.8507 Y21.6635 F150.00
G01 X27.7818 Y21.4516 F150.00
G01 X27.6807 Y21.2531 F150.00
G01 X27.5497 Y21.0729 F150.00
G01 X27.4622 Y20.9853 F150.00
G01 X27.4556 Y20.9783 F150.00
G01 X27.4495 Y20.9708 F150.00
G01 X27.4407 Y20.9574 F150.00
G01 X27.4021 Y20.8906 F150.00
G01 X27.3974 Y20.8817 F150.00
G01 X27.3922 Y20.8692 F150.00
G01 X27.3882 Y20.8564 F150.00
G01 X27.3856 Y20.8432 F150.00
G01 X27.3842 Y20.8298 F150.00
G01 X27.3841 Y20.7426 F150.00
G01 X27.3844 Y20.7359 F150.00
G01 X27.3856 Y20.7258 F150.00
G01 X27.3882 Y20.7126 F150.00
G01 X27.3900 Y20.7062 F150.00
G01 X27.3934 Y20.6966 F150.00
G01 X27.3989 Y20.6844 F150.00
G01 X27.4424 Y20.6088 F150.00
G01 X27.4500 Y20.5976 F150.00
G01 X27.4564 Y20.5898 F150.00
G01 X27.4658 Y20.5802 F150.00
G01 X27.4734 Y20.5736 F150.00
G01 X27.4816 Y20.5676 F150.00
G01 X27.4901 Y20.5622 F150.00
G01 X27.5598 Y20.5221 F150.00
G01 X27.5748 Y20.5150 F150.00
G01 X27.5873 Y20.5108 F150.00
G01 X27.6002 Y20.5078 F150.00
G01 X27.6453 Y20.5017 F150.00
G01 X27.6594 Y20.5006 F150.00
G01 X38.9385 Y20.5005 F150.00
G01 X38.9545 Y20.5015 F150.00
G01 X38.9672 Y20.5036 F150.00
G01 X39.0512 Y20.5260 F150.00
G01 X39.0639 Y20.5304 F150.00
G01 X39.0761 Y20.5361 F150.00
G01 X39.0877 Y20.5430 F150.00
G01 X39.0959 Y20.5489 F150.00
G01 X39.1036 Y20.5554 F150.00
G01 X39.1085 Y20.5600 F150.00
G01 X39.1654 Y20.6170 F150.00
G01 X39.1699 Y20.6220 F150.00
G01 X39.1762 Y20.6298 F150.00
G01 X39.1800 Y20.6354 F150.00
G01 X39.1853 Y20.6440 F150.00
G01 X39.1884 Y20.6499 F150.00
G01 X39.1926 Y20.6591 F150.00
G01 X39.1970 Y20.6718 F150.00
G01 X39.2187 Y20.7527 F150.00
G01 X39.2211 Y20.7653 F150.00
G01 X39.2222 Y20.7749 F150.00
G01 X39.2225 Y20.7845 F150.00
G01 X39.2225 Y22.5118 F150.00
G01 X39.2216 Y22.5278 F150.00
G01 X39.2187 Y22.5436 F150.00
G01 X39.1971 Y22.6244 F150.00
G01 X39.1939 Y22.6338 F150.00
G01 X39.1901 Y22.6430 F150.00
G01 X39.1839 Y22.6548 F150.00
G01 X39.1766 Y22.6658 F150.00
G01 X39.1510 Y22.6993 F150.00
G01 X39.1418 Y22.7101 F150.00
G01 X37.8493 Y24.0026 F150.00
G01 X37.7219 Y24.1780 F150.00
G01 X37.6234 Y24.3712 F150.00
G01 X37.5564 Y24.5774 F150.00
G01 X37.5225 Y24.7916 F150.00
G01 X37.5225 Y27.4288 F150.00
G01 X37.5219 Y27.4416 F150.00
G01 X37.5201 Y27.4544 F150.00
G01 X37.5179 Y27.4638 F150.00
G01 X37.4977 Y27.5392 F150.00
G01 X37.4934 Y27.5522 F150.00
G01 X37.4907 Y27.5586 F150.00
G01 X37.4861 Y27.5678 F150.00
G01 X37.4480 Y27.6340 F150.00
G01 X37.3670 Y27.8296 F150.00
G01 X37.3122 Y28.0342 F150.00
G01 X37.2845 Y28.2441 F150.00
G01 X37.2845 Y28.4559 F150.00
G01 X37.3122 Y28.6658 F150.00
G01 X37.3670 Y28.8704 F150.00
G01 X37.4480 Y29.0661 F150.00
G01 X37.5539 Y29.2495 F150.00
G01 X37.6828 Y29.4175 F150.00
G01 X37.8326 Y29.5672 F150.00
G01 X38.0006 Y29.6961 F150.00
G01 X38.1840 Y29.8020 F150.00
G01 X38.3796 Y29.8831 F150.00
G01 X38.5842 Y29.9379 F150.00
G01 X38.7941 Y29.9655 F150.00
G01 X39.0059 Y29.9655 F150.00
G01 X39.2158 Y29.9379 F150.00
G01 X39.4204 Y29.8831 F150.00
G01 X39.6161 Y29.8020 F150.00
G01 X39.7995 Y29.6961 F150.00
G01 X39.9675 Y29.5672 F150.00
G01 X40.1172 Y29.4175 F150.00
G01 X40.2461 Y29.2495 F150.00
G01 X40.3520 Y29.0661 F150.00
G01 X40.4331 Y28.8704 F150.00
G01 X40.4879 Y28.6659 F150.00
G01 X40.5155 Y28.4559 F150.00
G01 X40.5155 Y28.2441 F150.00
G01 X40.4879 Y28.0342 F150.00
G01 X40.4331 Y27.8296 F150.00
G01 X40.3520 Y27.6340 F150.00
G01 X40.3140 Y27.5680 F150.00
G01 X40.3071 Y27.5535 F150.00
G01 X40.3021 Y27.5383 F150.00
G01 X40.2821 Y27.4638 F150.00
G01 X40.2794 Y27.4512 F150.00
G01 X40.2781 Y27.4416 F150.00
G01 X40.2775 Y27.4288 F150.00
G01 X40.2775 Y25.5882 F150.00
G01 X40.2781 Y25.5754 F150.00
G01 X40.2800 Y25.5627 F150.00
G01 X40.2821 Y25.5533 F150.00
G01 X40.3030 Y25.4756 F150.00
G01 X40.3061 Y25.4662 F150.00
G01 X40.3100 Y25.4570 F150.00
G01 X40.3161 Y25.4453 F150.00
G01 X40.3234 Y25.4342 F150.00
G01 X40.3490 Y25.4007 F150.00
G01 X40.3582 Y25.3899 F150.00
G01 X41.6507 Y24.0974 F150.00
G01 X41.7782 Y23.9220 F150.00
G01 X41.8766 Y23.7288 F150.00
G01 X41.9436 Y23.5226 F150.00
G01 X41.9775 Y23.3084 F150.00
G01 X41.9776 Y20.7813 F150.00
G01 X41.9789 Y20.7653 F150.00
G01 X41.9821 Y20.7496 F150.00
G01 X42.0030 Y20.6718 F150.00
G01 X42.0074 Y20.6591 F150.00
G01 X42.0131 Y20.6469 F150.00
G01 X42.0164 Y20.6411 F150.00
G01 X42.0219 Y20.6326 F150.00
G01 X42.0280 Y20.6245 F150.00
G01 X42.0347 Y20.6170 F150.00
G01 X42.0940 Y20.5577 F150.00
G01 X42.1042 Y20.5489 F150.00
G01 X42.1152 Y20.5412 F150.00
G01 X42.1239 Y20.5361 F150.00
G01 X42.1330 Y20.5317 F150.00
G01 X42.1393 Y20.5292 F150.00
G01 X42.1488 Y20.5260 F150.00
G01 X42.2297 Y20.5043 F150.00
G01 X42.2391 Y20.5024 F150.00
G01 X42.2519 Y20.5009 F150.00
G01 X42.2615 Y20.5005 F150.00
G01 X43.9176 Y20.5006 F150.00
G01 X43.9304 Y20.5015 F150.00
G01 X43.9462 Y20.5043 F150.00
G01 X44.0238 Y20.5251 F150.00
G01 X44.0395 Y20.5303 F150.00
G01 X44.0545 Y20.5375 F150.00
G01 X44.0657 Y20.5445 F150.00
G01 X44.1019 Y20.5721 F150.00
G01 X44.1127 Y20.5812 F150.00
G01 X46.1163 Y22.5848 F150.00
G01 X46.1250 Y22.5943 F150.00
G01 X46.1308 Y22.6020 F150.00
G01 X46.1378 Y22.6128 F150.00
G01 X46.1763 Y22.6796 F150.00
G01 X46.1824 Y22.6913 F150.00
G01 X46.1862 Y22.7005 F150.00
G01 X46.1901 Y22.7132 F150.00
G01 X46.1928 Y22.7262 F150.00
G01 X46.1984 Y22.7680 F150.00
G01 X46.1995 Y22.7821 F150.00
G01 X46.1995 Y24.4484 F150.00
G01 X46.2303 Y24.6428 F150.00
G01 X46.2911 Y24.8300 F150.00
G01 X46.3805 Y25.0054 F150.00
G01 X46.4962 Y25.1647 F150.00
G01 X48.8854 Y27.5538 F150.00
G01 X49.0446 Y27.6695 F150.00
G01 X49.2200 Y27.7589 F150.00
G01 X49.4072 Y27.8197 F150.00
G01 X49.6016 Y27.8505 F150.00
G01 X53.1644 Y27.8505 F150.00
G01 X53.1804 Y27.8515 F150.00
G01 X53.1900 Y27.8530 F150.00
G01 X53.1993 Y27.8551 F150.00
G01 X53.2770 Y27.8760 F150.00
G01 X53.2895 Y27.8803 F150.00
G01 X53.3016 Y27.8859 F150.00
G01 X53.3102 Y27.8908 F150.00
G01 X53.3211 Y27.8984 F150.00
G01 X53.3547 Y27.9242 F150.00
G01 X53.3652 Y27.9337 F150.00
G01 X54.2980 Y28.8665 F150.00
G01 X54.3087 Y28.8785 F150.00
G01 X54.3179 Y28.8917 F150.00
G01 X54.3581 Y28.9613 F150.00
G01 X54.3628 Y28.9702 F150.00
G01 X54.3680 Y28.9826 F150.00
G01 X54.3720 Y28.9955 F150.00
G01 X54.3746 Y29.0087 F150.00
G01 X54.3758 Y29.0187 F150.00
G01 X54.3762 Y29.0288 F150.00
G01 X54.3762 Y29.1059 F150.00
G01 X54.3758 Y29.1156 F150.00
G01 X54.3748 Y29.1253 F150.00
G01 X54.3723 Y29.1380 F150.00
G01 X54.3673 Y29.1551 F150.00
G01 X54.3218 Y29.2951 F150.00
G01 X54.2845 Y29.5307 F150.00
G01 X54.2845 Y29.7693 F150.00
G01 X54.3218 Y30.0049 F150.00
G01 X54.3955 Y30.2318 F150.00
G01 X54.5038 Y30.4443 F150.00
G01 X54.6441 Y30.6373 F150.00
G01 X54.8127 Y30.8060 F150.00
G01 X55.0057 Y30.9462 F150.00
G01 X55.2183 Y31.0545 F150.00
G01 X55.4451 Y31.1282 F150.00
G01 X55.6807 Y31.1655 F150.00
G01 X55.9193 Y31.1655 F150.00
G01 X56.0383 Y31.1467 F150.00
G01 X56.0479 Y31.1455 F150.00
G01 X56.0575 Y31.1450 F150.00
G01 X56.0736 Y31.1457 F150.00
G01 X56.1503 Y31.1538 F150.00
G01 X56.1603 Y31.1552 F150.00
G01 X56.1701 Y31.1574 F150.00
G01 X56.1830 Y31.1614 F150.00
G01 X56.1923 Y31.1653 F150.00
G01 X56.2013 Y31.1698 F150.00
G01 X56.2100 Y31.1750 F150.00
G01 X56.2806 Y31.2262 F150.00
G01 X56.2909 Y31.2349 F150.00
G01 X56.2980 Y31.2421 F150.00
G01 X56.3045 Y31.2497 F150.00
G01 X56.3105 Y31.2579 F150.00
G01 X56.3158 Y31.2665 F150.00
G01 X56.3190 Y31.2724 F150.00
G01 X56.3532 Y31.3489 F150.00
G01 X56.3581 Y31.3615 F150.00
G01 X56.3617 Y31.3745 F150.00
G01 X56.3635 Y31.3844 F150.00
G01 X56.3648 Y31.3978 F150.00
G01 X56.3649 Y31.4079 F150.00
G01 X56.3642 Y31.4180 F150.00
G01 X56.3561 Y31.4947 F150.00
G01 X56.3547 Y31.5046 F150.00
G01 X56.3525 Y31.5144 F150.00
G01 X56.3497 Y31.5240 F150.00
G01 X56.3461 Y31.5334 F150.00
G01 X56.3386 Y31.5484 F150.00
G01 X56.3007 Y31.6070 F150.00
G01 X56.2968 Y31.6126 F150.00
G01 X56.2905 Y31.6205 F150.00
G01 X56.2836 Y31.6280 F150.00
G01 X56.0452 Y31.8663 F150.00
G01 X56.0382 Y31.8729 F150.00
G01 X56.0307 Y31.8789 F150.00
G01 X56.0173 Y31.8878 F150.00
G01 X55.9505 Y31.9263 F150.00
G01 X55.9417 Y31.9310 F150.00
G01 X55.9326 Y31.9350 F150.00
G01 X55.9200 Y31.9392 F150.00
G01 X55.9071 Y31.9423 F150.00
G01 X55.8550 Y31.9491 F150.00
G01 X55.8444 Y31.9495 F150.00
G01 X50.3005 Y31.9495 F150.00
G01 X50.2845 Y31.9486 F150.00
G01 X50.2687 Y31.9457 F150.00
G01 X50.1903 Y31.9247 F150.00
G01 X50.1745 Y31.9193 F150.00
G01 X50.1654 Y31.9152 F150.00
G01 X50.1566 Y31.9104 F150.00
G01 X50.1324 Y31.8943 F150.00
G01 X50.0795 Y31.8539 F150.00
G01 X49.8961 Y31.7480 F150.00
G01 X49.7004 Y31.6670 F150.00
G01 X49.4959 Y31.6122 F150.00
G01 X49.4325 Y31.6038 F150.00
G01 X49.4199 Y31.6012 F150.00
G01 X49.4107 Y31.5985 F150.00
G01 X49.4017 Y31.5951 F150.00
G01 X49.3241 Y31.5628 F150.00
G01 X49.3180 Y31.5597 F150.00
G01 X49.3093 Y31.5546 F150.00
G01 X49.3009 Y31.5488 F150.00
G01 X49.2956 Y31.5446 F150.00
G01 X49.2720 Y31.5235 F150.00
G01 X47.3994 Y29.6509 F150.00
G01 X47.3907 Y29.6414 F150.00
G01 X47.3812 Y29.6284 F150.00
G01 X47.3361 Y29.5502 F150.00
G01 X47.3332 Y29.5442 F150.00
G01 X47.3294 Y29.5348 F150.00
G01 X47.3263 Y29.5252 F150.00
G01 X47.3246 Y29.5187 F150.00
G01 X47.3233 Y29.5121 F150.00
G01 X47.3219 Y29.5021 F150.00
G01 X47.3213 Y29.4886 F150.00
G01 X47.3213 Y29.4082 F150.00
G01 X47.3222 Y29.3953 F150.00
G01 X47.3238 Y29.3856 F150.00
G01 X47.3269 Y29.3730 F150.00
G01 X47.3324 Y29.3577 F150.00
G01 X47.3637 Y29.2943 F150.00
G01 X47.3689 Y29.2855 F150.00
G01 X47.3728 Y29.2799 F150.00
G01 X47.3961 Y29.2495 F150.00
G01 X47.5020 Y29.0661 F150.00
G01 X47.5831 Y28.8704 F150.00
G01 X47.6379 Y28.6659 F150.00
G01 X47.6655 Y28.4559 F150.00
G01 X47.6655 Y28.2441 F150.00
G01 X47.6379 Y28.0342 F150.00
G01 X47.5831 Y27.8296 F150.00
G01 X47.5020 Y27.6340 F150.00
G01 X47.3961 Y27.4506 F150.00
G01 X47.2672 Y27.2826 F150.00
G01 X47.1175 Y27.1328 F150.00
G01 X46.9495 Y27.0039 F150.00
G01 X46.7661 Y26.8980 F150.00
G01 X46.5704 Y26.8170 F150.00
G01 X46.3659 Y26.7622 F150.00
G01 X46.1559 Y26.7345 F150.00
G01 X45.9441 Y26.7345 F150.00
G01 X45.7342 Y26.7622 F150.00
G01 X45.5296 Y26.8170 F150.00
G01 X45.3340 Y26.8980 F150.00
G01 X45.1506 Y27.0039 F150.00
G01 X44.9826 Y27.1328 F150.00
G01 X44.8328 Y27.2826 F150.00
G01 X44.7039 Y27.4506 F150.00
G01 X44.5980 Y27.6340 F150.00
G01 X44.5170 Y27.8296 F150.00
G01 X44.4622 Y28.0342 F150.00
G01 X44.4345 Y28.2441 F150.00
G01 X44.4345 Y28.4559 F150.00
G01 X44.4622 Y28.6658 F150.00
G01 X44.5170 Y28.8704 F150.00
G01 X44.5980 Y29.0661 F150.00
G01 X44.7039 Y29.2495 F150.00
G01 X44.7427 Y29.3002 F150.00
G01 X44.7514 Y29.3137 F150.00
G01 X44.7584 Y29.3281 F150.00
G01 X44.7892 Y29.4025 F150.00
G01 X44.7925 Y29.4122 F150.00
G01 X44.7958 Y29.4254 F150.00
G01 X44.7977 Y29.4388 F150.00
G01 X44.7995 Y29.4705 F150.00
G01 X44.7995 Y30.1684 F150.00
G01 X44.8303 Y30.3628 F150.00
G01 X44.8911 Y30.5500 F150.00
G01 X44.9805 Y30.7254 F150.00
G01 X45.0962 Y30.8847 F150.00
G01 X47.5035 Y33.2920 F150.00
G01 X47.5121 Y33.3015 F150.00
G01 X47.5180 Y33.3091 F150.00
G01 X47.5233 Y33.3172 F150.00
G01 X47.5635 Y33.3867 F150.00
G01 X47.5683 Y33.3957 F150.00
G01 X47.5735 Y33.4083 F150.00
G01 X47.5757 Y33.4147 F150.00
G01 X47.5783 Y33.4245 F150.00
G01 X47.5833 Y33.4499 F150.00
G01 X47.5922 Y33.5159 F150.00
G01 X47.6470 Y33.7204 F150.00
G01 X47.7280 Y33.9161 F150.00
G01 X47.8339 Y34.0995 F150.00
G01 X47.9628 Y34.2675 F150.00
G01 X48.1126 Y34.4172 F150.00
G01 X48.2806 Y34.5461 F150.00
G01 X48.4640 Y34.6520 F150.00
G01 X48.6596 Y34.7331 F150.00
G01 X48.8642 Y34.7879 F150.00
G01 X49.0741 Y34.8155 F150.00
G01 X49.2859 Y34.8155 F150.00
G01 X49.4958 Y34.7879 F150.00
G01 X49.7004 Y34.7331 F150.00
G01 X49.8961 Y34.6520 F150.00
G01 X50.0795 Y34.5461 F150.00
G01 X50.1302 Y34.5073 F150.00
G01 X50.1381 Y34.5019 F150.00
G01 X50.1494 Y34.4956 F150.00
G01 X50.1581 Y34.4916 F150.00
G01 X50.2294 Y34.4621 F150.00
G01 X50.2389 Y34.4585 F150.00
G01 X50.2520 Y34.4549 F150.00
G01 X50.2621 Y34.4531 F150.00
G01 X50.2688 Y34.4523 F150.00
G01 X50.2917 Y34.4508 F150.00
G01 X50.3005 Y34.4505 F150.00
G01 X56.5784 Y34.4505 F150.00
G01 X56.7728 Y34.4197 F150.00
G01 X56.9600 Y34.3589 F150.00
G01 X57.1354 Y34.2695 F150.00
G01 X57.2947 Y34.1538 F150.00
G01 X59.2938 Y32.1547 F150.00
G01 X59.4095 Y31.9954 F150.00
G01 X59.4989 Y31.8200 F150.00
G01 X59.5597 Y31.6328 F150.00
G01 X59.5905 Y31.4384 F150.00
G01 X59.5905 Y31.1438 F150.00
G01 X59.5915 Y31.1278 F150.00
G01 X59.5943 Y31.1120 F150.00
G01 X59.6170 Y31.0279 F150.00
G01 X59.6217 Y31.0153 F150.00
G01 X59.6261 Y31.0062 F150.00
G01 X59.6294 Y31.0003 F150.00
G01 X59.6369 Y30.9891 F150.00
G01 X59.6431 Y30.9812 F150.00
G01 X59.6477 Y30.9762 F150.00
G01 X59.7046 Y30.9193 F150.00
G01 X59.7094 Y30.9146 F150.00
G01 X59.7172 Y30.9082 F150.00
G01 X59.7254 Y30.9023 F150.00
G01 X59.7369 Y30.8954 F150.00
G01 X59.7460 Y30.8910 F150.00
G01 X59.7554 Y30.8873 F150.00
G01 X59.7651 Y30.8843 F150.00
G01 X59.8428 Y30.8635 F150.00
G01 X59.8494 Y30.8621 F150.00
G01 X59.8594 Y30.8606 F150.00
G01 X59.8728 Y30.8598 F150.00
G01 X59.8796 Y30.8599 F150.00
G01 X59.8896 Y30.8606 F150.00
G01 X59.8996 Y30.8621 F150.00
G01 X59.9062 Y30.8635 F150.00
G01 X59.9876 Y30.8854 F150.00
G01 X59.9967 Y30.8885 F150.00
G01 X60.0085 Y30.8936 F150.00
G01 X60.0198 Y30.8998 F150.00
G01 X60.0386 Y30.9120 F150.00
G01 X60.0857 Y30.9462 F150.00
G01 X60.2983 Y31.0545 F150.00
G01 X60.5251 Y31.1282 F150.00
G01 X60.7607 Y31.1655 F150.00
G01 X60.9993 Y31.1655 F150.00
G01 X61.2349 Y31.1282 F150.00
G01 X61.4618 Y31.0545 F150.00
G01 X61.6743 Y30.9462 F150.00
G01 X61.8673 Y30.8060 F150.00
G01 X62.0360 Y30.6373 F150.00
G01 X62.1762 Y30.4443 F150.00
G01 X62.2845 Y30.2318 F150.00
G01 X62.3582 Y30.0049 F150.00
G01 X62.3955 Y29.7693 F150.00
G01 X62.3955 Y29.5307 F150.00
G01 X62.3582 Y29.2951 F150.00
G01 X62.2845 Y29.0683 F150.00
G01 X62.2244 Y28.9502 F150.00
G01 X62.2126 Y28.9222 F150.00
G01 X62.2089 Y28.9122 F150.00
G01 X62.1566 Y28.7512 F150.00
G01 X62.0582 Y28.5580 F150.00
G01 X61.9307 Y28.3826 F150.00
G01 X60.7834 Y27.2353 F150.00
G01 X60.7728 Y27.2233 F150.00
G01 X60.7636 Y27.2101 F150.00
G01 X60.7202 Y27.1347 F150.00
G01 X60.7173 Y27.1286 F150.00
G01 X60.7134 Y27.1192 F150.00
G01 X60.7104 Y27.1096 F150.00
G01 X60.7080 Y27.0998 F150.00
G01 X60.7064 Y27.0899 F150.00
G01 X60.7053 Y27.0764 F150.00
G01 X60.7053 Y26.9926 F150.00
G01 X60.7060 Y26.9825 F150.00
G01 X60.7068 Y26.9758 F150.00
G01 X60.7087 Y26.9659 F150.00
G01 X60.7113 Y26.9562 F150.00
G01 X60.7159 Y26.9435 F150.00
G01 X60.7217 Y26.9314 F150.00
G01 X60.7620 Y26.8617 F150.00
G01 X60.7673 Y26.8531 F150.00
G01 X60.7713 Y26.8476 F150.00
G01 X60.7776 Y26.8398 F150.00
G01 X60.7822 Y26.8349 F150.00
G01 X60.7870 Y26.8302 F150.00
G01 X60.7947 Y26.8236 F150.00
G01 X60.8001 Y26.8195 F150.00
G01 X60.8085 Y26.8140 F150.00
G01 X60.8811 Y26.7721 F150.00
G01 X60.8930 Y26.7663 F150.00
G01 X60.9023 Y26.7628 F150.00
G01 X60.9118 Y26.7599 F150.00
G01 X60.9248 Y26.7572 F150.00
G01 X60.9701 Y26.7513 F150.00
G01 X60.9842 Y26.7505 F150.00
G01 X62.9144 Y26.7505 F150.00
G01 X62.9304 Y26.7515 F150.00
G01 X62.9400 Y26.7530 F150.00
G01 X62.9493 Y26.7551 F150.00
G01 X63.0270 Y26.7760 F150.00
G01 X63.0395 Y26.7803 F150.00
G01 X63.0516 Y26.7859 F150.00
G01 X63.0602 Y26.7908 F150.00
G01 X63.0711 Y26.7984 F150.00
G01 X63.1047 Y26.8242 F150.00
G01 X63.1152 Y26.8337 F150.00
G01 X65.1186 Y28.8371 F150.00
G01 X65.1270 Y28.8468 F150.00
G01 X65.1361 Y28.8600 F150.00
G01 X65.1763 Y28.9296 F150.00
G01 X65.1837 Y28.9444 F150.00
G01 X65.1883 Y28.9568 F150.00
G01 X65.1923 Y28.9729 F150.00
G01 X65.1984 Y29.0180 F150.00
G01 X65.1995 Y29.0321 F150.00
G01 X65.1995 Y31.6187 F150.00
G01 X65.1986 Y31.6315 F150.00
G01 X65.1957 Y31.6473 F150.00
G01 X65.1740 Y31.7282 F150.00
G01 X65.1708 Y31.7378 F150.00
G01 X65.1669 Y31.7471 F150.00
G01 X65.1623 Y31.7560 F150.00
G01 X65.1551 Y31.7674 F150.00
G01 X65.1490 Y31.7755 F150.00
G01 X65.1424 Y31.7831 F150.00
G01 X65.0831 Y31.8424 F150.00
G01 X65.0781 Y31.8469 F150.00
G01 X65.0702 Y31.8532 F150.00
G01 X65.0618 Y31.8589 F150.00
G01 X65.0560 Y31.8623 F150.00
G01 X65.0501 Y31.8654 F150.00
G01 X65.0409 Y31.8696 F150.00
G01 X65.0314 Y31.8730 F150.00
G01 X65.0250 Y31.8750 F150.00
G01 X64.9473 Y31.8957 F150.00
G01 X64.9347 Y31.8981 F150.00
G01 X64.9219 Y31.8994 F150.00
G01 X62.5516 Y31.8995 F150.00
G01 X62.3572 Y31.9303 F150.00
G01 X62.1700 Y31.9911 F150.00
G01 X61.9946 Y32.0805 F150.00
G01 X61.8354 Y32.1962 F150.00
G01 X60.3162 Y33.7154 F150.00
G01 X60.2005 Y33.8746 F150.00
G01 X60.1111 Y34.0500 F150.00
G01 X60.0503 Y34.2372 F150.00
G01 X60.0195 Y34.4316 F150.00
G01 X60.0195 Y36.3885 F150.00
G01 X60.0189 Y36.4013 F150.00
G01 X60.0176 Y36.4109 F150.00
G01 X60.0157 Y36.4203 F150.00
G01 X59.9940 Y36.5012 F150.00
G01 X59.9920 Y36.5076 F150.00
G01 X59.9883 Y36.5170 F150.00
G01 X59.9839 Y36.5261 F150.00
G01 X59.9789 Y36.5348 F150.00
G01 X59.9711 Y36.5459 F150.00
G01 X59.9624 Y36.5561 F150.00
G01 X59.9031 Y36.6154 F150.00
G01 X59.8955 Y36.6220 F150.00
G01 X59.8847 Y36.6300 F150.00
G01 X59.8760 Y36.6353 F150.00
G01 X59.8671 Y36.6399 F150.00
G01 X59.8578 Y36.6438 F150.00
G01 X59.8482 Y36.6470 F150.00
G01 X59.7673 Y36.6687 F150.00
G01 X59.7515 Y36.6716 F150.00
G01 X59.7355 Y36.6725 F150.00
G01 X47.2594 Y36.6725 F150.00
G01 X47.2497 Y36.6722 F150.00
G01 X47.2402 Y36.6711 F150.00
G01 X47.2275 Y36.6687 F150.00
G01 X47.1435 Y36.6460 F150.00
G01 X47.1309 Y36.6413 F150.00
G01 X47.1188 Y36.6353 F150.00
G01 X47.1074 Y36.6281 F150.00
G01 X47.0994 Y36.6220 F150.00
G01 X47.0894 Y36.6130 F150.00
G01 X47.0349 Y36.5585 F150.00
G01 X47.0242 Y36.5465 F150.00
G01 X47.0151 Y36.5333 F150.00
G01 X46.9961 Y36.5006 F150.00
G01 X46.8672 Y36.3326 F150.00
G01 X46.7175 Y36.1828 F150.00
G01 X46.5495 Y36.0539 F150.00
G01 X46.3661 Y35.9480 F150.00
G01 X46.1704 Y35.8670 F150.00
G01 X45.9659 Y35.8122 F150.00
G01 X45.7559 Y35.7845 F150.00
G01 X45.5441 Y35.7845 F150.00
G01 X45.3342 Y35.8122 F150.00
G01 X45.1296 Y35.8670 F150.00
G01 X44.9340 Y35.9480 F150.00
G01 X44.7506 Y36.0539 F150.00
G01 X44.5826 Y36.1828 F150.00
G01 X44.4328 Y36.3326 F150.00
G01 X44.3039 Y36.5006 F150.00
G01 X44.1980 Y36.6840 F150.00
G01 X44.1170 Y36.8796 F150.00
G01 X44.0622 Y37.0842 F150.00
G01 X44.0345 Y37.2941 F150.00
G01 X44.0345 Y37.5059 F150.00
G01 X44.0622 Y37.7158 F150.00
G01 X44.1170 Y37.9204 F150.00
G01 X44.1980 Y38.1161 F150.00
G01 X44.3039 Y38.2995 F150.00
G01 X44.4328 Y38.4675 F150.00
G01 X44.5826 Y38.6172 F150.00
G01 X44.7506 Y38.7461 F150.00
G01 X44.9340 Y38.8520 F150.00
G01 X45.1296 Y38.9331 F150.00
G01 X45.2010 Y38.9522 F150.00
G01 X45.2108 Y38.9553 F150.00
G01 X45.2172 Y38.9578 F150.00
G01 X45.2235 Y38.9606 F150.00
G01 X45.2326 Y38.9654 F150.00
G01 X45.3022 Y39.0056 F150.00
G01 X45.3128 Y39.0128 F150.00
G01 X45.3251 Y39.0232 F150.00
G01 X45.4026 Y39.1007 F150.00
G01 X45.5780 Y39.2282 F150.00
G01 X45.7712 Y39.3266 F150.00
G01 X45.9774 Y39.3936 F150.00
G01 X46.1916 Y39.4275 F150.00
G01 X65.6472 Y39.4275 F150.00
G01 X65.6599 Y39.4281 F150.00
G01 X65.6724 Y39.4299 F150.00
G01 X65.7314 Y39.4439 F150.00
G01 X65.7470 Y39.4472 F150.00
G01 X65.7648 Y39.4533 F150.00
G01 X65.9951 Y39.5282 F150.00
G01 X66.2307 Y39.5655 F150.00
G01 X66.4693 Y39.5655 F150.00
G01 X66.7049 Y39.5282 F150.00
G01 X66.9318 Y39.4545 F150.00
G01 X67.1443 Y39.3462 F150.00
G01 X67.3373 Y39.2060 F150.00
G01 X67.5060 Y39.0373 F150.00
G01 X67.6462 Y38.8443 F150.00
G01 X67.7545 Y38.6318 F150.00
G01 X67.8282 Y38.4049 F150.00
G01 X67.8655 Y38.1693 F150.00
G01 X67.8655 Y37.9307 F150.00
G01 X67.8282 Y37.6951 F150.00
G01 X67.7545 Y37.4683 F150.00
G01 X67.6462 Y37.2557 F150.00
G01 X67.5060 Y37.0627 F150.00
G01 X67.3373 Y36.8941 F150.00
G01 X67.1443 Y36.7538 F150.00
G01 X66.9318 Y36.6455 F150.00
G01 X66.7049 Y36.5718 F150.00
G01 X66.4693 Y36.5345 F150.00
G01 X66.2307 Y36.5345 F150.00
G01 X65.9951 Y36.5718 F150.00
G01 X65.7648 Y36.6467 F150.00
G01 X65.7483 Y36.6524 F150.00
G01 X65.6744 Y36.6697 F150.00
G01 X65.6642 Y36.6714 F150.00
G01 X65.6506 Y36.6725 F150.00
G01 X62.8045 Y36.6725 F150.00
G01 X62.7885 Y36.6716 F150.00
G01 X62.7727 Y36.6687 F150.00
G01 X62.6951 Y36.6480 F150.00
G01 X62.6823 Y36.6438 F150.00
G01 X62.6699 Y36.6384 F150.00
G01 X62.6611 Y36.6336 F150.00
G01 X62.6498 Y36.6262 F150.00
G01 X62.6394 Y36.6176 F150.00
G01 X62.5777 Y36.5561 F150.00
G01 X62.5689 Y36.5459 F150.00
G01 X62.5630 Y36.5377 F150.00
G01 X62.5594 Y36.5320 F150.00
G01 X62.5546 Y36.5231 F150.00
G01 X62.5504 Y36.5139 F150.00
G01 X62.5470 Y36.5044 F150.00
G01 X62.5251 Y36.4235 F150.00
G01 X62.5230 Y36.4141 F150.00
G01 X62.5215 Y36.4045 F150.00
G01 X62.5205 Y36.3885 F150.00
G01 X62.5205 Y35.1656 F150.00
G01 X62.5211 Y35.1528 F150.00
G01 X62.5230 Y35.1401 F150.00
G01 X62.5251 Y35.1307 F150.00
G01 X62.5460 Y35.0530 F150.00
G01 X62.5516 Y35.0374 F150.00
G01 X62.5575 Y35.0255 F150.00
G01 X62.5645 Y35.0143 F150.00
G01 X62.5921 Y34.9781 F150.00
G01 X62.6012 Y34.9673 F150.00
G01 X63.0895 Y34.4793 F150.00
G01 X63.0994 Y34.4711 F150.00
G01 X63.1100 Y34.4639 F150.00
G01 X63.1796 Y34.4237 F150.00
G01 X63.1944 Y34.4163 F150.00
G01 X63.2100 Y34.4108 F150.00
G01 X63.2196 Y34.4084 F150.00
G01 X63.2294 Y34.4067 F150.00
G01 X63.2715 Y34.4013 F150.00
G01 X63.2856 Y34.4005 F150.00
G01 X66.4484 Y34.4005 F150.00
G01 X66.6428 Y34.3697 F150.00
G01 X66.8300 Y34.3089 F150.00
G01 X67.0054 Y34.2195 F150.00
G01 X67.1647 Y34.1038 F150.00
G01 X67.4038 Y33.8647 F150.00
G01 X67.5195 Y33.7054 F150.00
G01 X67.6089 Y33.5300 F150.00
G01 X67.6697 Y33.3428 F150.00
G01 X67.7005 Y33.1484 F150.00
G01 X67.7005 Y28.3016 F150.00
G01 X67.6697 Y28.1072 F150.00
G01 X67.6089 Y27.9200 F150.00
G01 X67.5195 Y27.7446 F150.00
G01 X67.4038 Y27.5854 F150.00
G01 X64.3647 Y24.5462 F150.00
G01 X64.2054 Y24.4305 F150.00
G01 X64.0300 Y24.3411 F150.00
G01 X63.8428 Y24.2803 F150.00
G01 X63.6484 Y24.2495 F150.00
G01 X60.9356 Y24.2495 F150.00
G01 X60.9196 Y24.2486 F150.00
G01 X60.9101 Y24.2471 F150.00
G01 X60.8989 Y24.2444 F150.00
G01 X60.8870 Y24.2441 F150.00
G01 X60.8736 Y24.2424 F150.00
G01 X60.8637 Y24.2403 F150.00
G01 X60.8509 Y24.2363 F150.00
G01 X60.8385 Y24.2311 F150.00
G01 X60.8280 Y24.2254 F150.00
G01 X60.8136 Y24.2209 F150.00
G01 X60.7985 Y24.2141 F150.00
G01 X60.7898 Y24.2092 F150.00
G01 X60.7816 Y24.2036 F150.00
G01 X60.7453 Y24.1758 F150.00
G01 X60.7348 Y24.1663 F150.00
G01 X60.5988 Y24.0303 F150.00
G01 X60.5922 Y24.0233 F150.00
G01 X60.5862 Y24.0158 F150.00
G01 X60.5774 Y24.0024 F150.00
G01 X60.5371 Y23.9326 F150.00
G01 X60.5313 Y23.9205 F150.00
G01 X60.5288 Y23.9142 F150.00
G01 X60.5257 Y23.9046 F150.00
G01 X60.5241 Y23.8981 F150.00
G01 X60.5222 Y23.8882 F150.00
G01 X60.5214 Y23.8815 F150.00
G01 X60.5207 Y23.8714 F150.00
G01 X60.5207 Y23.7909 F150.00
G01 X60.5214 Y23.7775 F150.00
G01 X60.5234 Y23.7642 F150.00
G01 X60.5257 Y23.7544 F150.00
G01 X60.5300 Y23.7416 F150.00
G01 X60.5356 Y23.7294 F150.00
G01 X60.5791 Y23.6538 F150.00
G01 X60.5847 Y23.6453 F150.00
G01 X60.5930 Y23.6348 F150.00
G01 X60.6000 Y23.6275 F150.00
G01 X60.6075 Y23.6207 F150.00
G01 X60.6155 Y23.6145 F150.00
G01 X60.6239 Y23.6090 F150.00
G01 X60.6964 Y23.5671 F150.00
G01 X60.7084 Y23.5613 F150.00
G01 X60.7177 Y23.5578 F150.00
G01 X60.7272 Y23.5549 F150.00
G01 X60.7402 Y23.5522 F150.00
G01 X60.7820 Y23.5467 F150.00
G01 X60.7926 Y23.5457 F150.00
G01 X60.9993 Y23.5455 F150.00
G01 X61.2349 Y23.5082 F150.00
G01 X61.4652 Y23.4334 F150.00
G01 X61.4817 Y23.4276 F150.00
G01 X61.5557 Y23.4103 F150.00
G01 X61.5624 Y23.4091 F150.00
G01 X61.5726 Y23.4079 F150.00
G01 X61.5829 Y23.4075 F150.00
G01 X66.1717 Y23.4075 F150.00
G01 X66.1912 Y23.3866 F150.00
G01 X66.2543 Y23.3294 F150.00
G01 X66.2621 Y23.3232 F150.00
G01 X66.3278 Y23.2745 F150.00
G01 X66.3362 Y23.2690 F150.00
G01 X66.4093 Y23.2254 F150.00
G01 X66.4892 Y23.1875 F150.00
G01 X66.4984 Y23.1838 F150.00
G01 X66.5786 Y23.1553 F150.00
G01 X66.6676 Y23.1330 F150.00
G01 X66.7584 Y23.1195 F150.00
G01 X66.8467 Y23.1151 F150.00
G01 X66.8566 Y23.1152 F150.00
G01 X66.9417 Y23.1195 F150.00
G01 X67.0324 Y23.1330 F150.00
G01 X67.1218 Y23.1554 F150.00
G01 X67.2016 Y23.1838 F150.00
G01 X67.2139 Y23.1889 F150.00
G01 X67.2908 Y23.2254 F150.00
G01 X67.3639 Y23.2690 F150.00
G01 X67.3749 Y23.2764 F150.00
G01 X67.4379 Y23.3232 F150.00
G01 X67.4498 Y23.3331 F150.00
G01 X67.5919 Y23.2607 F150.00
G01 X67.7721 Y23.1297 F150.00
G01 X67.9297 Y22.9721 F150.00
G01 X68.0607 Y22.7919 F150.00
G01 X68.1618 Y22.5934 F150.00
G01 X68.2307 Y22.3815 F150.00
G01 X68.2655 Y22.1614 F150.00
G01 X68.2655 Y21.9386 F150.00
G01 X68.2307 Y21.7185 F150.00
G01 X68.1618 Y21.5066 F150.00
G01 X68.0607 Y21.3081 F150.00
G01 X67.9297 Y21.1279 F150.00
G01 X67.7721 Y20.9703 F150.00
G01 X67.5919 Y20.8394 F150.00
G01 X67.3934 Y20.7382 F150.00
G01 X67.1815 Y20.6694 F150.00
G01 X66.9614 Y20.6345 F150.00
G01 X66.7386 Y20.6345 F150.00
G01 X66.6435 Y20.6495 F150.00
G01 X66.6132 Y20.6521 F150.00
G01 X66.6026 Y20.6525 F150.00
G01 X61.5797 Y20.6525 F150.00
G01 X61.5670 Y20.6516 F150.00
G01 X61.5545 Y20.6495 F150.00
G01 X61.4986 Y20.6361 F150.00
G01 X61.4894 Y20.6344 F150.00
G01 X61.4798 Y20.6319 F150.00
G01 X61.4653 Y20.6267 F150.00
G01 X61.2349 Y20.5518 F150.00
G01 X60.9993 Y20.5145 F150.00
G01 X60.7607 Y20.5145 F150.00
G01 X60.5251 Y20.5518 F150.00
G01 X60.2983 Y20.6255 F150.00
G01 X60.0857 Y20.7338 F150.00
G01 X59.8927 Y20.8741 F150.00
G01 X59.8085 Y20.9582 F150.00
G01 X59.7988 Y20.9666 F150.00
G01 X59.7884 Y20.9741 F150.00
G01 X59.7161 Y21.0160 F150.00
G01 X59.7072 Y21.0207 F150.00
G01 X59.7010 Y21.0235 F150.00
G01 X59.6884 Y21.0281 F150.00
G01 X59.6753 Y21.0314 F150.00
G01 X59.6620 Y21.0334 F150.00
G01 X59.6486 Y21.0341 F150.00
G01 X59.5714 Y21.0341 F150.00
G01 X59.5614 Y21.0337 F150.00
G01 X59.5547 Y21.0330 F150.00
G01 X59.5414 Y21.0307 F150.00
G01 X59.5285 Y21.0270 F150.00
G01 X59.5159 Y21.0221 F150.00
G01 X59.5039 Y21.0160 F150.00
G01 X59.4360 Y20.9768 F150.00
G01 X59.4303 Y20.9732 F150.00
G01 X59.4220 Y20.9672 F150.00
G01 X59.4141 Y20.9606 F150.00
G01 X59.4092 Y20.9560 F150.00
G01 X59.3273 Y20.8741 F150.00
G01 X59.1343 Y20.7338 F150.00
G01 X58.9218 Y20.6255 F150.00
G01 X58.6949 Y20.5518 F150.00
G01 X58.4593 Y20.5145 F150.00
G01 X58.2207 Y20.5145 F150.00
G01 X57.9851 Y20.5518 F150.00
G01 X57.7583 Y20.6255 F150.00
G01 X57.5904 Y20.7110 F150.00
G01 X57.5757 Y20.7175 F150.00
G01 X57.5666 Y20.7205 F150.00
G01 X57.5572 Y20.7228 F150.00
G01 X57.4752 Y20.7401 F150.00
G01 X57.4651 Y20.7413 F150.00
G01 X57.4517 Y20.7418 F150.00
G01 X57.4383 Y20.7409 F150.00
G01 X57.4250 Y20.7387 F150.00
G01 X57.4120 Y20.7352 F150.00
G01 X57.3386 Y20.7114 F150.00
G01 X57.3292 Y20.7079 F150.00
G01 X57.3170 Y20.7022 F150.00
G01 X57.3054 Y20.6953 F150.00
G01 X57.2946 Y20.6872 F150.00
G01 X57.2871 Y20.6805 F150.00
G01 X57.2800 Y20.6733 F150.00
G01 X57.2262 Y20.6135 F150.00
G01 X57.2200 Y20.6056 F150.00
G01 X57.2143 Y20.5972 F150.00
G01 X57.2093 Y20.5885 F150.00
G01 X57.2049 Y20.5794 F150.00
G01 X57.2013 Y20.5700 F150.00
G01 X57.1983 Y20.5604 F150.00
G01 X57.1805 Y20.4864 F150.00
G01 X57.1784 Y20.4739 F150.00
G01 X57.1775 Y20.4612 F150.00
G01 X57.1775 Y17.0651 F150.00
G01 X57.1785 Y17.0491 F150.00
G01 X57.1813 Y17.0333 F150.00
G01 X57.2021 Y16.9557 F150.00
G01 X57.2051 Y16.9460 F150.00
G01 X57.2074 Y16.9397 F150.00
G01 X57.2116 Y16.9305 F150.00
G01 X57.2164 Y16.9216 F150.00
G01 X57.2239 Y16.9104 F150.00
G01 X57.2301 Y16.9025 F150.00
G01 X57.2370 Y16.8951 F150.00
G01 X57.2940 Y16.8382 F150.00
G01 X57.3015 Y16.8316 F150.00
G01 X57.3068 Y16.8274 F150.00
G01 X57.3124 Y16.8236 F150.00
G01 X57.3210 Y16.8183 F150.00
G01 X57.3300 Y16.8137 F150.00
G01 X57.3361 Y16.8110 F150.00
G01 X57.3488 Y16.8066 F150.00
G01 X57.4331 Y16.7841 F150.00
G01 X57.4397 Y16.7829 F150.00
G01 X57.4497 Y16.7816 F150.00
G01 X57.4598 Y16.7811 F150.00
G01 X57.4699 Y16.7814 F150.00
G01 X57.4800 Y16.7824 F150.00
G01 X57.4932 Y16.7849 F150.00
G01 X57.5742 Y16.8066 F150.00
G01 X57.5838 Y16.8098 F150.00
G01 X57.5900 Y16.8123 F150.00
G01 X57.5991 Y16.8167 F150.00
G01 X57.6050 Y16.8200 F150.00
G01 X57.6162 Y16.8274 F150.00
G01 X57.6266 Y16.8360 F150.00
G01 X57.6860 Y16.8951 F150.00
G01 X57.6969 Y16.9075 F150.00
G01 X57.7027 Y16.9155 F150.00
G01 X57.7079 Y16.9239 F150.00
G01 X57.7139 Y16.9357 F150.00
G01 X57.7265 Y16.9641 F150.00
G01 X57.7305 Y16.9740 F150.00
G01 X57.7655 Y17.0818 F150.00
G01 X57.8738 Y17.2943 F150.00
G01 X58.0141 Y17.4873 F150.00
G01 X58.1827 Y17.6560 F150.00
G01 X58.3757 Y17.7962 F150.00
G01 X58.5883 Y17.9045 F150.00
G01 X58.8151 Y17.9782 F150.00
G01 X59.0507 Y18.0155 F150.00
G01 X59.2893 Y18.0155 F150.00
G01 X59.5249 Y17.9782 F150.00
G01 X59.7518 Y17.9045 F150.00
G01 X59.9643 Y17.7962 F150.00
G01 X60.1573 Y17.6560 F150.00
G01 X60.3260 Y17.4873 F150.00
G01 X60.4662 Y17.2943 F150.00
G01 X60.5745 Y17.0818 F150.00
G01 X60.6482 Y16.8549 F150.00
G01 X60.6855 Y16.6193 F150.00
G01 X60.6855 Y16.3807 F150.00
G01 X60.6482 Y16.1451 F150.00
G01 X60.5734 Y15.9148 F150.00
G01 X60.5676 Y15.8983 F150.00
G01 X60.5503 Y15.8243 F150.00
G01 X60.5486 Y15.8142 F150.00
G01 X60.5477 Y15.8040 F150.00
G01 X60.5475 Y13.3182 F150.00
G01 X60.5481 Y13.3054 F150.00
G01 X60.5500 Y13.2927 F150.00
G01 X60.5521 Y13.2833 F150.00
G01 X60.5730 Y13.2056 F150.00
G01 X60.5761 Y13.1962 F150.00
G01 X60.5800 Y13.1870 F150.00
G01 X60.5861 Y13.1753 F150.00
G01 X60.5934 Y13.1642 F150.00
G01 X60.6190 Y13.1307 F150.00
G01 X60.6282 Y13.1199 F150.00
G01 X62.0007 Y11.7474 F150.00
G01 X62.1282 Y11.5720 F150.00
G01 X62.2266 Y11.3788 F150.00
G01 X62.2936 Y11.1726 F150.00
G01 X62.3275 Y10.9584 F150.00
G01 X62.3275 Y8.4889 F150.00
G01 X62.3285 Y8.4729 F150.00
G01 X62.3306 Y8.4602 F150.00
G01 X62.3540 Y8.3730 F150.00
G01 X62.3587 Y8.3604 F150.00
G01 X62.3631 Y8.3513 F150.00
G01 X62.3664 Y8.3454 F150.00
G01 X62.3700 Y8.3397 F150.00
G01 X62.3759 Y8.3315 F150.00
G01 X62.3847 Y8.3213 F150.00
G01 X62.4416 Y8.2644 F150.00
G01 X62.4464 Y8.2598 F150.00
G01 X62.4541 Y8.2533 F150.00
G01 X62.4623 Y8.2474 F150.00
G01 X62.4739 Y8.2405 F150.00
G01 X62.4829 Y8.2362 F150.00
G01 X62.4923 Y8.2325 F150.00
G01 X62.5579 Y8.2113 F150.00
G01 X62.5727 Y8.2078 F150.00
G01 X62.7119 Y8.1616 F150.00
G01 X62.8344 Y8.0861 F150.00
G01 X62.9361 Y7.9844 F150.00
G01 X63.0116 Y7.8619 F150.00
G01 X63.0572 Y7.7244 F150.00
G01 X63.0655 Y7.6431 F150.00
G01 X63.0655 Y4.5569 F150.00
G01 X63.0602 Y4.5047 F150.00
G01 X63.0598 Y4.4918 F150.00
G01 X63.0611 Y4.4758 F150.00
G01 X63.0744 Y4.3932 F150.00
G01 X63.0758 Y4.3866 F150.00
G01 X63.0785 Y4.3769 F150.00
G01 X63.0832 Y4.3643 F150.00
G01 X63.0892 Y4.3522 F150.00
G01 X63.0945 Y4.3436 F150.00
G01 X63.0983 Y4.3381 F150.00
G01 X63.1511 Y4.2729 F150.00
G01 X63.1578 Y4.2654 F150.00
G01 X63.1650 Y4.2583 F150.00
G01 X63.1727 Y4.2518 F150.00
G01 X63.1809 Y4.2459 F150.00
G01 X63.1925 Y4.2390 F150.00
G01 X63.2047 Y4.2333 F150.00
G01 X63.2860 Y4.2024 F150.00
G01 X63.2985 Y4.1990 F150.00
G01 X63.3081 Y4.1972 F150.00
G01 X63.3178 Y4.1962 F150.00
G01 X63.3362 Y4.1952 F150.00
G01 X66.0335 Y4.1951 F150.00
G01 X66.0463 Y4.1960 F150.00
G01 X66.0621 Y4.1988 F150.00
G01 X66.1429 Y4.2205 F150.00
G01 X66.1523 Y4.2236 F150.00
G01 X66.1645 Y4.2289 F150.00
G01 X66.1732 Y4.2336 F150.00
G01 X66.1816 Y4.2390 F150.00
G01 X66.2206 Y4.2687 F150.00
G01 X66.2311 Y4.2782 F150.00
G01 X74.5043 Y12.5514 F150.00
G01 X74.5150 Y12.5634 F150.00
G01 X74.5224 Y12.5739 F150.00
G01 X74.5643 Y12.6462 F150.00
G01 X74.5690 Y12.6550 F150.00
G01 X74.5730 Y12.6641 F150.00
G01 X74.5781 Y12.6798 F150.00
G01 X74.5808 Y12.6928 F150.00
G01 X74.5864 Y12.7346 F150.00
G01 X74.5871 Y12.7416 F150.00
G01 X74.5875 Y12.7522 F150.00
G01 X74.5875 Y13.3210 F150.00
G01 X74.5866 Y13.3370 F150.00
G01 X74.5851 Y13.3466 F150.00
G01 X74.5829 Y13.3560 F150.00
G01 X74.5610 Y13.4369 F150.00
G01 X74.5563 Y13.4495 F150.00
G01 X74.5519 Y13.4586 F150.00
G01 X74.5486 Y13.4645 F150.00
G01 X74.5412 Y13.4757 F150.00
G01 X74.5326 Y13.4861 F150.00
G01 X74.4735 Y13.5455 F150.00
G01 X74.4635 Y13.5545 F150.00
G01 X74.4527 Y13.5625 F150.00
G01 X74.4411 Y13.5694 F150.00
G01 X74.4289 Y13.5751 F150.00
G01 X74.4194 Y13.5785 F150.00
G01 X74.4130 Y13.5805 F150.00
G01 X74.3322 Y13.6019 F150.00
G01 X74.3163 Y13.6044 F150.00
G01 X74.3035 Y13.6050 F150.00
G01 X70.4189 Y13.6050 F150.00
G01 X70.1986 Y13.6340 F150.00
G01 X70.1583 Y13.6448 F150.00
G01 X69.9840 Y13.6915 F150.00
G01 X69.7787 Y13.7766 F150.00
G01 X69.5863 Y13.8876 F150.00
G01 X69.4100 Y14.0229 F150.00
G01 X68.0529 Y15.3800 F150.00
G01 X67.9176 Y15.5563 F150.00
G01 X67.8066 Y15.7487 F150.00
G01 X67.7215 Y15.9540 F150.00
G01 X67.6640 Y16.1686 F150.00
G01 X67.6350 Y16.3889 F150.00
G01 X67.6350 Y16.6111 F150.00
G01 X67.6640 Y16.8314 F150.00
G01 X67.7215 Y17.0460 F150.00
G01 X67.8066 Y17.2513 F150.00
G01 X67.9176 Y17.4437 F150.00
G01 X68.0529 Y17.6200 F150.00
G01 X68.2100 Y17.7771 F150.00
G01 X68.3863 Y17.9124 F150.00
G01 X68.5787 Y18.0235 F150.00
G01 X68.7840 Y18.1085 F150.00
G01 X68.9986 Y18.1660 F150.00
G01 X69.2189 Y18.1950 F150.00
G01 X69.4411 Y18.1950 F150.00
G01 X69.6614 Y18.1660 F150.00
G01 X69.8760 Y18.1085 F150.00
G01 X70.0813 Y18.0235 F150.00
G01 X70.2737 Y17.9124 F150.00
G01 X70.4500 Y17.7771 F150.00
G01 X71.1536 Y17.0738 F150.00
G01 X71.1635 Y17.0656 F150.00
G01 X71.1741 Y17.0584 F150.00
G01 X71.2466 Y17.0166 F150.00
G01 X71.2555 Y17.0121 F150.00
G01 X71.2678 Y17.0073 F150.00
G01 X71.2773 Y17.0044 F150.00
G01 X71.2870 Y17.0023 F150.00
G01 X71.3356 Y16.9958 F150.00
G01 X71.3497 Y16.9950 F150.00
G01 X74.2128 Y16.9950 F150.00
G01 X74.2224 Y16.9954 F150.00
G01 X74.2352 Y16.9969 F150.00
G01 X74.2495 Y17.0001 F150.00
G01 X74.2614 Y17.0005 F150.00
G01 X74.2748 Y17.0021 F150.00
G01 X74.2879 Y17.0051 F150.00
G01 X74.3007 Y17.0094 F150.00
G01 X74.3099 Y17.0135 F150.00
G01 X74.3204 Y17.0191 F150.00
G01 X74.3317 Y17.0225 F150.00
G01 X74.3410 Y17.0261 F150.00
G01 X74.3557 Y17.0336 F150.00
G01 X74.3668 Y17.0409 F150.00
G01 X74.4031 Y17.0687 F150.00
G01 X74.4136 Y17.0782 F150.00
G01 X74.4566 Y17.1212 F150.00
G01 X74.4630 Y17.1284 F150.00
G01 X74.4688 Y17.1361 F150.00
G01 X74.4758 Y17.1469 F150.00
G01 X74.5143 Y17.2137 F150.00
G01 X74.5204 Y17.2255 F150.00
G01 X74.5242 Y17.2347 F150.00
G01 X74.5281 Y17.2473 F150.00
G01 X74.5308 Y17.2603 F150.00
G01 X74.5364 Y17.3021 F150.00
G01 X74.5375 Y17.3162 F150.00
G01 X74.5374 Y17.6042 F150.00
G01 X74.5361 Y17.6170 F150.00
G01 X74.5337 Y17.6296 F150.00
G01 X74.5121 Y17.7104 F150.00
G01 X74.5089 Y17.7198 F150.00
G01 X74.5051 Y17.7290 F150.00
G01 X74.4989 Y17.7407 F150.00
G01 X74.4936 Y17.7491 F150.00
G01 X74.4638 Y17.7881 F150.00
G01 X74.4543 Y17.7986 F150.00
G01 X72.9229 Y19.3300 F150.00
G01 X72.7876 Y19.5063 F150.00
G01 X72.6766 Y19.6987 F150.00
G01 X72.5915 Y19.9040 F150.00
G01 X72.5340 Y20.1186 F150.00
G01 X72.5050 Y20.3389 F150.00
G01 X72.5050 Y29.3861 F150.00
G01 X72.5340 Y29.6064 F150.00
G01 X72.5915 Y29.8210 F150.00
G01 X72.6766 Y30.0263 F150.00
G01 X72.7876 Y30.2187 F150.00
G01 X72.9229 Y30.3950 F150.00
G01 X74.6300 Y32.1021 F150.00
G01 X74.8063 Y32.2374 F150.00
G01 X74.9987 Y32.3485 F150.00
G01 X75.2040 Y32.4335 F150.00
G01 X75.4186 Y32.4910 F150.00
G01 X75.6389 Y32.5200 F150.00
G01 X76.0902 Y32.5200 F150.00
G01 X76.1062 Y32.5210 F150.00
G01 X76.1220 Y32.5238 F150.00
G01 X76.2060 Y32.5464 F150.00
G01 X76.2183 Y32.5511 F150.00
G01 X76.2330 Y32.5585 F150.00
G01 X76.2414 Y32.5638 F150.00
G01 X76.2668 Y32.5817 F150.00
G01 X76.4138 Y32.7014 F150.00
G01 X76.5698 Y32.7829 F150.00
G01 X76.7399 Y32.8316 F150.00
G01 X76.8405 Y32.8405 F150.00
G01 X79.2446 Y32.8405 F150.00
G01 X79.3452 Y32.8316 F150.00
G01 X79.5152 Y32.7829 F150.00
G01 X79.6712 Y32.7014 F150.00
G01 X79.8077 Y32.5902 F150.00
G01 X79.9189 Y32.4537 F150.00
G01 X80.0004 Y32.2977 F150.00
G01 X80.0491 Y32.1277 F150.00
G01 X80.0580 Y32.0271 F150.00
G01 X80.0580 Y29.6230 F150.00
G01 X80.0491 Y29.5224 F150.00
G01 X80.0004 Y29.3523 F150.00
G01 X79.9189 Y29.1963 F150.00
G01 X79.8077 Y29.0599 F150.00
G01 X79.6713 Y28.9486 F150.00
G01 X79.5152 Y28.8671 F150.00
G01 X79.3452 Y28.8185 F150.00
G01 X79.2446 Y28.8095 F150.00
G01 X76.8405 Y28.8095 F150.00
G01 X76.7399 Y28.8185 F150.00
G01 X76.5698 Y28.8671 F150.00
G01 X76.4989 Y28.9040 F150.00
G01 X76.4870 Y28.9088 F150.00
G01 X76.4756 Y28.9123 F150.00
G01 X76.4672 Y28.9164 F150.00
G01 X76.4579 Y28.9202 F150.00
G01 X76.4450 Y28.9242 F150.00
G01 X76.4352 Y28.9263 F150.00
G01 X76.4252 Y28.9277 F150.00
G01 X76.4151 Y28.9283 F150.00
G01 X76.4039 Y28.9283 F150.00
G01 X76.3897 Y28.9314 F150.00
G01 X76.3763 Y28.9330 F150.00
G01 X76.3628 Y28.9332 F150.00
G01 X76.3561 Y28.9329 F150.00
G01 X76.3461 Y28.9317 F150.00
G01 X76.3304 Y28.9283 F150.00
G01 X76.3178 Y28.9273 F150.00
G01 X76.3078 Y28.9257 F150.00
G01 X76.2980 Y28.9233 F150.00
G01 X76.2884 Y28.9202 F150.00
G01 X76.2760 Y28.9150 F150.00
G01 X76.2603 Y28.9064 F150.00
G01 X76.2465 Y28.9019 F150.00
G01 X76.2342 Y28.8966 F150.00
G01 X76.2225 Y28.8902 F150.00
G01 X76.2115 Y28.8826 F150.00
G01 X76.1834 Y28.8601 F150.00
G01 X76.1750 Y28.8528 F150.00
G01 X75.9759 Y28.6538 F150.00
G01 X75.9675 Y28.6441 F150.00
G01 X75.9584 Y28.6309 F150.00
G01 X75.9182 Y28.5613 F150.00
G01 X75.9108 Y28.5465 F150.00
G01 X75.9053 Y28.5309 F150.00
G01 X75.9023 Y28.5180 F150.00
G01 X75.8954 Y28.4659 F150.00
G01 X75.8950 Y28.4553 F150.00
G01 X75.8950 Y21.2697 F150.00
G01 X75.8956 Y21.2569 F150.00
G01 X75.8975 Y21.2442 F150.00
G01 X75.8996 Y21.2348 F150.00
G01 X75.9205 Y21.1571 F150.00
G01 X75.9236 Y21.1477 F150.00
G01 X75.9275 Y21.1385 F150.00
G01 X75.9336 Y21.1268 F150.00
G01 X75.9409 Y21.1157 F150.00
G01 X75.9666 Y21.0822 F150.00
G01 X75.9757 Y21.0715 F150.00
G01 X77.5096 Y19.5375 F150.00
G01 X77.6449 Y19.3612 F150.00
G01 X77.7560 Y19.1688 F150.00
G01 X77.8410 Y18.9635 F150.00
G01 X77.8985 Y18.7489 F150.00
G01 X77.9275 Y18.5286 F150.00
G01 X77.9276 Y16.8936 F150.00
G01 X77.9287 Y16.8795 F150.00
G01 X77.9349 Y16.8340 F150.00
G01 X77.9372 Y16.8237 F150.00
G01 X77.9485 Y16.7814 F150.00
G01 X77.9775 Y16.5611 F150.00
G01 X77.9775 Y11.8214 F150.00
G01 X77.9485 Y11.6011 F150.00
G01 X77.8910 Y11.3865 F150.00
G01 X77.8060 Y11.1812 F150.00
G01 X77.6949 Y10.9888 F150.00
G01 X77.5596 Y10.8125 F150.00
G01 X67.9700 Y1.2229 F150.00
G01 X67.7937 Y1.0876 F150.00
G01 X67.6013 Y0.9766 F150.00
G01 X67.5056 Y0.9369 F150.00
G01 X67.4969 Y0.9329 F150.00
G01 X67.4884 Y0.9283 F150.00
G01 X67.4750 Y0.9193 F150.00
G01 X67.4139 Y0.8723 F150.00
G01 X67.4086 Y0.8681 F150.00
G01 X67.4012 Y0.8613 F150.00
G01 X67.3943 Y0.8539 F150.00
G01 X67.3879 Y0.8461 F150.00
G01 X67.3804 Y0.8349 F150.00
G01 X67.3755 Y0.8261 F150.00
G01 X67.3713 Y0.8169 F150.00
G01 X67.3405 Y0.7425 F150.00
G01 X67.3383 Y0.7362 F150.00
G01 X67.3355 Y0.7265 F150.00
G01 X67.3329 Y0.7132 F150.00
G01 X67.3318 Y0.7032 F150.00
G01 X67.3315 Y0.6965 F150.00
G01 X67.3320 Y0.6830 F150.00
G01 X67.3438 Y0.5932 F150.00
G01 X67.3460 Y0.5834 F150.00
G01 X67.3478 Y0.5769 F150.00
G01 X67.3525 Y0.5643 F150.00
G01 X67.3553 Y0.5582 F150.00
G01 X67.3601 Y0.5493 F150.00
G01 X67.3675 Y0.5380 F150.00
G01 X67.4164 Y0.4741 F150.00
G01 X67.4252 Y0.4639 F150.00
G01 X67.4323 Y0.4568 F150.00
G01 X67.4427 Y0.4482 F150.00
G01 X67.4510 Y0.4424 F150.00
G01 X67.4597 Y0.4373 F150.00
G01 X67.4719 Y0.4316 F150.00
G01 X67.5463 Y0.4008 F150.00
G01 X67.5592 Y0.3966 F150.00
G01 X67.5725 Y0.3936 F150.00
G01 X67.5826 Y0.3923 F150.00
G01 X67.6113 Y0.3905 F150.00
G01 X80.6742 Y0.3905 F150.00
G01 X80.6913 Y0.3910 F150.00
G01 X80.9791 Y0.4084 F150.00
G01 X81.0051 Y0.4113 F150.00
G01 X81.2923 Y0.4637 F150.00
G01 X81.3256 Y0.4719 F150.00
G01 X81.6043 Y0.5590 F150.00
G01 X81.6287 Y0.5685 F150.00
G01 X81.8875 Y0.6850 F150.00
G01 X81.9178 Y0.7009 F150.00
G01 X82.1642 Y0.8499 F150.00
G01 X82.1889 Y0.8672 F150.00
G01 X82.4186 Y1.0475 F150.00
G01 X82.4380 Y1.0650 F150.00
G01 X82.6443 Y1.2716 F150.00
G01 X82.6614 Y1.2914 F150.00
G01 X82.8413 Y1.5213 F150.00
G01 X82.8560 Y1.5430 F150.00
G01 X83.0068 Y1.7930 F150.00
G01 X83.0187 Y1.8162 F150.00
G01 X83.1383 Y2.0826 F150.00
G01 X83.1474 Y2.1071 F150.00
G01 X83.2340 Y2.3859 F150.00
G01 X83.2400 Y2.4114 F150.00
G01 X83.2924 Y2.6986 F150.00
G01 X83.2953 Y2.7246 F150.00
G01 X83.3127 Y3.0120 F150.00
G01 X83.3132 Y3.0292 F150.00
G01 X83.3132 Y54.6205 F150.00
G01 X83.3127 Y54.6377 F150.00
G01 X83.2953 Y54.9254 F150.00
G01 X83.2924 Y54.9514 F150.00
G01 X83.2400 Y55.2386 F150.00
G01 X83.2318 Y55.2719 F150.00
G01 X83.1473 Y55.5429 F150.00
G01 X83.1383 Y55.5674 F150.00
G01 X83.0187 Y55.8338 F150.00
G01 X83.0028 Y55.8641 F150.00
G01 X82.8534 Y56.1111 F150.00
G01 X82.8364 Y56.1352 F150.00
G01 X82.6562 Y56.3649 F150.00
G01 X82.6387 Y56.3843 F150.00
G01 X82.4321 Y56.5906 F150.00
G01 X82.4123 Y56.6077 F150.00
G01 X82.1823 Y56.7876 F150.00
G01 X82.1607 Y56.8022 F150.00
G01 X81.9107 Y56.9531 F150.00
G01 X81.8875 Y56.9650 F150.00
G01 X81.6211 Y57.0846 F150.00
G01 X81.5966 Y57.0936 F150.00
G01 X81.3178 Y57.1803 F150.00
G01 X81.2923 Y57.1863 F150.00
G01 X81.0051 Y57.2387 F150.00
G01 X80.9791 Y57.2416 F150.00
G01 X80.6910 Y57.2590 F150.00
G01 X80.6739 Y57.2595 F150.00
G01 X3.0295 Y57.2595 F150.00
G01 X3.0126 Y57.2590 F150.00
G01 X2.7246 Y57.2416 F150.00
G01 X2.6986 Y57.2387 F150.00
G01 X2.4114 Y57.1863 F150.00
G01 X2.3781 Y57.1781 F150.00
G01 X2.1071 Y57.0937 F150.00
G01 X2.0826 Y57.0846 F150.00
G01 X1.8162 Y56.9650 F150.00
G01 X1.7859 Y56.9491 F150.00
G01 X1.5389 Y56.7997 F150.00
G01 X1.5148 Y56.7828 F150.00
G01 X1.2851 Y56.6025 F150.00
G01 X1.2657 Y56.5850 F150.00
G01 X1.0594 Y56.3784 F150.00
G01 X1.0423 Y56.3586 F150.00
G01 X0.8624 Y56.1287 F150.00
G01 X0.8478 Y56.1070 F150.00
G01 X0.6969 Y55.8570 F150.00
G01 X0.6850 Y55.8338 F150.00
G01 X0.5654 Y55.5674 F150.00
G01 X0.5564 Y55.5429 F150.00
G01 X0.4697 Y55.2641 F150.00
G01 X0.4637 Y55.2387 F150.00
G01 X0.4113 Y54.9514 F150.00
G01 X0.4084 Y54.9255 F150.00
G01 X0.3910 Y54.6377 F150.00
G01 X0.3906 Y54.6246 F150.00
G01 X0.3905 Y3.0295 F150.00
G00 Z2.0000
G00 X0.4755 Y3.0295
G01 F80.00
G01 Z-0.0400
G01 F150.00
G01 X0.4759 Y3.0175 F150.00
G01 X0.4936 Y2.7267 F150.00
G01 X0.4962 Y2.7059 F150.00
G01 X0.5473 Y2.4267 F150.00
G01 X0.5531 Y2.4034 F150.00
G01 X0.6375 Y2.1324 F150.00
G01 X0.6449 Y2.1127 F150.00
G01 X0.7639 Y1.8484 F150.00
G01 X0.7737 Y1.8299 F150.00
G01 X0.9205 Y1.5870 F150.00
G01 X0.9342 Y1.5672 F150.00
G01 X1.1092 Y1.3438 F150.00
G01 X1.1251 Y1.3258 F150.00
G01 X1.3258 Y1.1251 F150.00
G01 X1.3415 Y1.1111 F150.00
G01 X1.5672 Y0.9342 F150.00
G01 X1.5844 Y0.9222 F150.00
G01 X1.8325 Y0.7722 F150.00
G01 X1.8511 Y0.7625 F150.00
G01 X2.1100 Y0.6460 F150.00
G01 X2.1324 Y0.6375 F150.00
G01 X2.4034 Y0.5531 F150.00
G01 X2.4267 Y0.5473 F150.00
G01 X2.7059 Y0.4962 F150.00
G01 X2.7267 Y0.4936 F150.00
G01 X3.0175 Y0.4759 F150.00
G01 X3.0295 Y0.4755 F150.00
G01 X40.6858 Y0.4755 F150.00
G01 X40.6917 Y0.4759 F150.00
G01 X40.6976 Y0.4769 F150.00
G01 X40.7756 Y0.4979 F150.00
G01 X40.7803 Y0.4996 F150.00
G01 X40.7858 Y0.5025 F150.00
G01 X40.7900 Y0.5052 F150.00
G01 X40.7947 Y0.5092 F150.00
G01 X40.8510 Y0.5655 F150.00
G01 X40.8550 Y0.5703 F150.00
G01 X40.8584 Y0.5756 F150.00
G01 X40.8606 Y0.5800 F150.00
G01 X40.8628 Y0.5859 F150.00
G01 X40.8841 Y0.6664 F150.00
G01 X40.8847 Y0.6764 F150.00
G01 X40.8834 Y0.6862 F150.00
G01 X40.8628 Y0.7632 F150.00
G01 X40.8590 Y0.7724 F150.00
G01 X40.8558 Y0.7777 F150.00
G01 X40.8510 Y0.7835 F150.00
G01 X40.7938 Y0.8406 F150.00
G01 X40.7889 Y0.8446 F150.00
G01 X40.7846 Y0.8472 F150.00
G01 X40.7629 Y0.8579 F150.00
G01 X40.6610 Y0.9002 F150.00
G01 X40.4590 Y1.0168 F150.00
G01 X40.2739 Y1.1589 F150.00
G01 X39.4889 Y1.9439 F150.00
G01 X39.3468 Y2.1290 F150.00
G01 X39.2302 Y2.3310 F150.00
G01 X39.1409 Y2.5466 F150.00
G01 X39.0805 Y2.7720 F150.00
G01 X39.0500 Y3.0033 F150.00
G01 X39.0500 Y12.9522 F150.00
G01 X39.0497 Y12.9569 F150.00
G01 X39.0486 Y12.9628 F150.00
G01 X39.0283 Y13.0385 F150.00
G01 X39.0259 Y13.0455 F150.00
G01 X39.0224 Y13.0521 F150.00
G01 X39.0163 Y13.0600 F150.00
G01 X38.9591 Y13.1171 F150.00
G01 X38.9552 Y13.1203 F150.00
G01 X38.9500 Y13.1237 F150.00
G01 X38.9444 Y13.1264 F150.00
G01 X38.9385 Y13.1283 F150.00
G01 X38.8628 Y13.1486 F150.00
G01 X38.8569 Y13.1497 F150.00
G01 X38.8510 Y13.1500 F150.00
G01 X11.5533 Y13.1500 F150.00
G01 X11.3220 Y13.1805 F150.00
G01 X11.0966 Y13.2409 F150.00
G01 X10.8810 Y13.3302 F150.00
G01 X10.6790 Y13.4468 F150.00
G01 X10.4939 Y13.5889 F150.00
G01 X9.3589 Y14.7239 F150.00
G01 X9.2168 Y14.9090 F150.00
G01 X9.1002 Y15.1110 F150.00
G01 X9.0109 Y15.3266 F150.00
G01 X8.9505 Y15.5520 F150.00
G01 X8.9200 Y15.7833 F150.00
G01 X8.9200 Y21.0133 F150.00
G01 X8.9186 Y21.0227 F150.00
G01 X8.8983 Y21.0983 F150.00
G01 X8.8964 Y21.1042 F150.00
G01 X8.8937 Y21.1099 F150.00
G01 X8.8903 Y21.1151 F150.00
G01 X8.8863 Y21.1199 F150.00
G01 X8.8300 Y21.1762 F150.00
G01 X8.8252 Y21.1802 F150.00
G01 X8.8211 Y21.1829 F150.00
G01 X8.8155 Y21.1858 F150.00
G01 X8.8097 Y21.1879 F150.00
G01 X8.7327 Y21.2085 F150.00
G01 X8.7241 Y21.2098 F150.00
G01 X8.7167 Y21.2097 F150.00
G01 X8.7081 Y21.2082 F150.00
G01 X8.6336 Y21.1882 F150.00
G01 X8.6278 Y21.1863 F150.00
G01 X8.6222 Y21.1836 F150.00
G01 X8.6171 Y21.1803 F150.00
G01 X8.5842 Y21.1551 F150.00
G01 X8.5803 Y21.1516 F150.00
G01 X8.3438 Y20.9151 F150.00
G01 X8.3399 Y20.9107 F150.00
G01 X8.3365 Y20.9058 F150.00
G01 X8.2973 Y20.8380 F150.00
G01 X8.2946 Y20.8325 F150.00
G01 X8.2925 Y20.8267 F150.00
G01 X8.2912 Y20.8207 F150.00
G01 X8.2856 Y20.7770 F150.00
G01 X8.2855 Y11.7856 F150.00
G01 X8.2859 Y11.7797 F150.00
G01 X8.2869 Y11.7738 F150.00
G01 X8.3072 Y11.6982 F150.00
G01 X8.3091 Y11.6924 F150.00
G01 X8.3118 Y11.6868 F150.00
G01 X8.3151 Y11.6817 F150.00
G01 X8.3395 Y11.6498 F150.00
G01 X8.3438 Y11.6449 F150.00
G01 X12.2949 Y7.6938 F150.00
G01 X12.2994 Y7.6899 F150.00
G01 X12.3053 Y7.6859 F150.00
G01 X12.3731 Y7.6467 F150.00
G01 X12.3775 Y7.6446 F150.00
G01 X12.3833 Y7.6425 F150.00
G01 X12.3905 Y7.6410 F150.00
G01 X12.4291 Y7.6359 F150.00
G01 X12.4356 Y7.6355 F150.00
G01 X16.9077 Y7.6357 F150.00
G01 X16.9159 Y7.6372 F150.00
G01 X16.9916 Y7.6575 F150.00
G01 X17.0005 Y7.6611 F150.00
G01 X17.0086 Y7.6663 F150.00
G01 X17.0568 Y7.7087 F150.00
G01 X17.0608 Y7.7134 F150.00
G01 X17.0920 Y7.7540 F150.00
G01 X17.2960 Y7.9580 F150.00
G01 X17.5249 Y8.1336 F150.00
G01 X17.7747 Y8.2778 F150.00
G01 X18.0412 Y8.3882 F150.00
G01 X18.3198 Y8.4629 F150.00
G01 X18.6058 Y8.5005 F150.00
G01 X18.8942 Y8.5005 F150.00
G01 X19.1802 Y8.4629 F150.00
G01 X19.4589 Y8.3882 F150.00
G01 X19.7254 Y8.2778 F150.00
G01 X19.9752 Y8.1336 F150.00
G01 X20.2040 Y7.9580 F150.00
G01 X20.4080 Y7.7540 F150.00
G01 X20.5836 Y7.5252 F150.00
G01 X20.7278 Y7.2754 F150.00
G01 X20.8382 Y7.0089 F150.00
G01 X20.9129 Y6.7302 F150.00
G01 X20.9505 Y6.4442 F150.00
G01 X20.9505 Y6.1558 F150.00
G01 X20.9129 Y5.8698 F150.00
G01 X20.8382 Y5.5912 F150.00
G01 X20.7278 Y5.3247 F150.00
G01 X20.5836 Y5.0749 F150.00
G01 X20.4080 Y4.8460 F150.00
G01 X20.2040 Y4.6420 F150.00
G01 X19.9752 Y4.4664 F150.00
G01 X19.7254 Y4.3222 F150.00
G01 X19.4589 Y4.2118 F150.00
G01 X19.1802 Y4.1372 F150.00
G01 X18.8942 Y4.0995 F150.00
G01 X18.6058 Y4.0995 F150.00
G01 X18.3198 Y4.1372 F150.00
G01 X18.0412 Y4.2118 F150.00
G01 X17.7747 Y4.3222 F150.00
G01 X17.5249 Y4.4664 F150.00
G01 X17.2960 Y4.6420 F150.00
G01 X17.0920 Y4.8460 F150.00
G01 X17.0601 Y4.8876 F150.00
G01 X17.0570 Y4.8912 F150.00
G01 X17.0526 Y4.8952 F150.00
G01 X16.9895 Y4.9436 F150.00
G01 X16.9812 Y4.9485 F150.00
G01 X16.9756 Y4.9507 F150.00
G01 X16.9709 Y4.9520 F150.00
G01 X16.9091 Y4.9641 F150.00
G01 X16.9030 Y4.9645 F150.00
G01 X11.6949 Y4.9645 F150.00
G01 X11.4873 Y4.9974 F150.00
G01 X11.2874 Y5.0624 F150.00
G01 X11.1001 Y5.1578 F150.00
G01 X10.9300 Y5.2813 F150.00
G01 X5.9313 Y10.2800 F150.00
G01 X5.8078 Y10.4500 F150.00
G01 X5.7123 Y10.6375 F150.00
G01 X5.6474 Y10.8373 F150.00
G01 X5.6145 Y11.0449 F150.00
G01 X5.6145 Y21.5151 F150.00
G01 X5.6474 Y21.7227 F150.00
G01 X5.7124 Y21.9227 F150.00
G01 X5.8078 Y22.1100 F150.00
G01 X5.9313 Y22.2800 F150.00
G01 X10.9200 Y27.2687 F150.00
G01 X11.0900 Y27.3922 F150.00
G01 X11.2774 Y27.4877 F150.00
G01 X11.4773 Y27.5526 F150.00
G01 X11.6849 Y27.5855 F150.00
G01 X13.2529 Y27.5857 F150.00
G01 X13.2598 Y27.5869 F150.00
G01 X13.3317 Y27.6044 F150.00
G01 X13.3385 Y27.6072 F150.00
G01 X13.4040 Y27.6406 F150.00
G01 X13.6286 Y27.7136 F150.00
G01 X13.8619 Y27.7505 F150.00
G01 X14.0981 Y27.7505 F150.00
G01 X14.3314 Y27.7136 F150.00
G01 X14.5560 Y27.6406 F150.00
G01 X14.7664 Y27.5334 F150.00
G01 X14.8172 Y27.4965 F150.00
G01 X14.8243 Y27.4922 F150.00
G01 X14.9041 Y27.4615 F150.00
G01 X14.9135 Y27.4596 F150.00
G01 X14.9328 Y27.4585 F150.00
G01 X22.7694 Y27.4586 F150.00
G01 X22.7741 Y27.4590 F150.00
G01 X22.7799 Y27.4602 F150.00
G01 X22.8544 Y27.4802 F150.00
G01 X22.8603 Y27.4821 F150.00
G01 X22.8658 Y27.4848 F150.00
G01 X22.8710 Y27.4881 F150.00
G01 X22.9068 Y27.5159 F150.00
G01 X23.3351 Y27.9443 F150.00
G01 X23.3408 Y27.9519 F150.00
G01 X23.3812 Y28.0219 F150.00
G01 X23.3832 Y28.0264 F150.00
G01 X23.3851 Y28.0324 F150.00
G01 X23.3863 Y28.0385 F150.00
G01 X23.3867 Y28.0435 F150.00
G01 X23.3867 Y28.1231 F150.00
G01 X23.3861 Y28.1293 F150.00
G01 X23.3845 Y28.1366 F150.00
G01 X23.3806 Y28.1457 F150.00
G01 X23.3414 Y28.2136 F150.00
G01 X23.3373 Y28.2197 F150.00
G01 X23.3323 Y28.2252 F150.00
G01 X23.3275 Y28.2291 F150.00
G01 X23.2854 Y28.2593 F150.00
G01 X23.1436 Y28.3317 F150.00
G01 X22.9525 Y28.4705 F150.00
G01 X22.8714 Y28.5516 F150.00
G01 X22.8660 Y28.5562 F150.00
G01 X22.8611 Y28.5595 F150.00
G01 X22.7921 Y28.5993 F150.00
G01 X22.7828 Y28.6029 F150.00
G01 X22.7730 Y28.6046 F150.00
G01 X22.6909 Y28.6048 F150.00
G01 X22.6847 Y28.6042 F150.00
G01 X22.6798 Y28.6032 F150.00
G01 X22.6739 Y28.6013 F150.00
G01 X22.6682 Y28.5987 F150.00
G01 X22.5978 Y28.5579 F150.00
G01 X22.5938 Y28.5549 F150.00
G01 X22.5900 Y28.5516 F150.00
G01 X22.4327 Y28.3942 F150.00
G01 X22.2289 Y28.2461 F150.00
G01 X22.0044 Y28.1318 F150.00
G01 X21.7648 Y28.0539 F150.00
G01 X21.5160 Y28.0145 F150.00
G01 X21.2641 Y28.0145 F150.00
G01 X21.0152 Y28.0539 F150.00
G01 X20.7756 Y28.1318 F150.00
G01 X20.5512 Y28.2461 F150.00
G01 X20.3474 Y28.3942 F150.00
G01 X20.1692 Y28.5724 F150.00
G01 X20.0211 Y28.7762 F150.00
G01 X19.9068 Y29.0006 F150.00
G01 X19.8906 Y29.0505 F150.00
G01 X19.8874 Y29.0581 F150.00
G01 X19.8487 Y29.1215 F150.00
G01 X19.8428 Y29.1289 F150.00
G01 X18.0425 Y30.9292 F150.00
G01 X18.0371 Y30.9339 F150.00
G01 X18.0322 Y30.9372 F150.00
G01 X17.9643 Y30.9763 F150.00
G01 X17.9553 Y30.9802 F150.00
G01 X17.9469 Y30.9820 F150.00
G01 X17.9083 Y30.9871 F150.00
G01 X17.9018 Y30.9875 F150.00
G01 X13.1517 Y30.9875 F150.00
G01 X13.1424 Y30.9864 F150.00
G01 X13.0842 Y30.9724 F150.00
G01 X13.0745 Y30.9705 F150.00
G01 X13.0648 Y30.9669 F150.00
G01 X12.8248 Y30.8889 F150.00
G01 X12.5760 Y30.8495 F150.00
G01 X12.3241 Y30.8495 F150.00
G01 X12.0752 Y30.8889 F150.00
G01 X11.8356 Y30.9668 F150.00
G01 X11.6112 Y31.0811 F150.00
G01 X11.4074 Y31.2292 F150.00
G01 X11.2292 Y31.4074 F150.00
G01 X11.0811 Y31.6112 F150.00
G01 X10.9887 Y31.7925 F150.00
G01 X11.0511 Y31.8490 F150.00
G01 X11.1071 Y31.9108 F150.00
G01 X11.1568 Y31.9778 F150.00
G01 X11.2007 Y32.0515 F150.00
G01 X11.2362 Y32.1270 F150.00
G01 X11.2634 Y32.2033 F150.00
G01 X11.2831 Y32.2818 F150.00
G01 X11.2959 Y32.3667 F150.00
G01 X11.3000 Y32.4500 F150.00
G01 X11.2959 Y32.5333 F150.00
G01 X11.2831 Y32.6182 F150.00
G01 X11.2634 Y32.6968 F150.00
G01 X11.2362 Y32.7730 F150.00
G01 X11.2007 Y32.8485 F150.00
G01 X11.1568 Y32.9222 F150.00
G01 X11.1071 Y32.9892 F150.00
G01 X11.0511 Y33.0511 F150.00
G01 X10.9887 Y33.1075 F150.00
G01 X11.0811 Y33.2889 F150.00
G01 X11.2292 Y33.4927 F150.00
G01 X11.4074 Y33.6708 F150.00
G01 X11.6112 Y33.8189 F150.00
G01 X11.8356 Y33.9333 F150.00
G01 X12.0752 Y34.0111 F150.00
G01 X12.3241 Y34.0505 F150.00
G01 X12.5760 Y34.0505 F150.00
G01 X12.8248 Y34.0111 F150.00
G01 X13.0648 Y33.9331 F150.00
G01 X13.0743 Y33.9296 F150.00
G01 X13.1416 Y33.9138 F150.00
G01 X13.1466 Y33.9129 F150.00
G01 X13.1516 Y33.9125 F150.00
G01 X18.7051 Y33.9125 F150.00
G01 X18.9325 Y33.8765 F150.00
G01 X19.1514 Y33.8054 F150.00
G01 X19.3565 Y33.7009 F150.00
G01 X19.5428 Y33.5655 F150.00
G01 X21.9956 Y31.1128 F150.00
G01 X22.0373 Y31.0822 F150.00
G01 X22.0429 Y31.0787 F150.00
G01 X22.1782 Y31.0097 F150.00
G01 X22.1836 Y31.0073 F150.00
G01 X22.1882 Y31.0059 F150.00
G01 X22.2671 Y30.9891 F150.00
G01 X22.2733 Y30.9883 F150.00
G01 X22.2795 Y30.9883 F150.00
G01 X22.2857 Y30.9891 F150.00
G01 X22.2906 Y30.9903 F150.00
G01 X22.3675 Y31.0153 F150.00
G01 X22.3764 Y31.0198 F150.00
G01 X22.3814 Y31.0234 F150.00
G01 X22.3851 Y31.0268 F150.00
G01 X22.4384 Y31.0859 F150.00
G01 X22.4443 Y31.0939 F150.00
G01 X22.4476 Y31.1006 F150.00
G01 X22.4499 Y31.1077 F150.00
G01 X22.4664 Y31.1765 F150.00
G01 X22.4675 Y31.1858 F150.00
G01 X22.4675 Y34.8951 F150.00
G01 X22.5035 Y35.1225 F150.00
G01 X22.5747 Y35.3414 F150.00
G01 X22.6792 Y35.5465 F150.00
G01 X22.8145 Y35.7328 F150.00
G01 X23.3323 Y36.2506 F150.00
G01 X23.3362 Y36.2552 F150.00
G01 X23.3388 Y36.2591 F150.00
G01 X23.3792 Y36.3291 F150.00
G01 X23.3817 Y36.3348 F150.00
G01 X23.3835 Y36.3408 F150.00
G01 X23.3843 Y36.3457 F150.00
G01 X23.3847 Y36.3519 F150.00
G01 X23.3847 Y36.4316 F150.00
G01 X23.3832 Y36.4414 F150.00
G01 X23.3817 Y36.4462 F150.00
G01 X23.3792 Y36.4519 F150.00
G01 X23.3388 Y36.5219 F150.00
G01 X23.3352 Y36.5270 F150.00
G01 X23.3311 Y36.5317 F150.00
G01 X23.3273 Y36.5350 F150.00
G01 X23.3222 Y36.5385 F150.00
G01 X23.2500 Y36.5800 F150.00
G01 X23.2443 Y36.5822 F150.00
G01 X23.2371 Y36.5838 F150.00
G01 X23.1973 Y36.5891 F150.00
G01 X23.1908 Y36.5895 F150.00
G01 X20.6747 Y36.5895 F150.00
G01 X20.6687 Y36.5892 F150.00
G01 X20.6629 Y36.5881 F150.00
G01 X20.5861 Y36.5675 F150.00
G01 X20.5792 Y36.5649 F150.00
G01 X20.5717 Y36.5607 F150.00
G01 X20.5389 Y36.5355 F150.00
G01 X20.5340 Y36.5312 F150.00
G01 X19.5701 Y35.5674 F150.00
G01 X19.3727 Y35.4239 F150.00
G01 X19.1552 Y35.3131 F150.00
G01 X18.9231 Y35.2377 F150.00
G01 X18.6820 Y35.1995 F150.00
G01 X8.0747 Y35.1995 F150.00
G01 X8.0676 Y35.1990 F150.00
G01 X8.0617 Y35.1978 F150.00
G01 X7.9872 Y35.1778 F150.00
G01 X7.9803 Y35.1754 F150.00
G01 X7.9748 Y35.1726 F150.00
G01 X7.9707 Y35.1700 F150.00
G01 X7.9389 Y35.1455 F150.00
G01 X7.9340 Y35.1412 F150.00
G01 X5.4288 Y32.6361 F150.00
G01 X5.4249 Y32.6316 F150.00
G01 X5.4209 Y32.6257 F150.00
G01 X5.3817 Y32.5578 F150.00
G01 X5.3796 Y32.5534 F150.00
G01 X5.3775 Y32.5476 F150.00
G01 X5.3760 Y32.5404 F150.00
G01 X5.3709 Y32.5019 F150.00
G01 X5.3705 Y32.4953 F150.00
G01 X5.3705 Y26.6889 F150.00
G01 X5.3711 Y26.6811 F150.00
G01 X5.3784 Y26.6350 F150.00
G01 X5.3811 Y26.6248 F150.00
G01 X5.4205 Y26.3760 F150.00
G01 X5.4205 Y26.1241 F150.00
G01 X5.3811 Y25.8752 F150.00
G01 X5.3033 Y25.6356 F150.00
G01 X5.1889 Y25.4112 F150.00
G01 X5.0408 Y25.2074 F150.00
G01 X4.8627 Y25.0292 F150.00
G01 X4.6589 Y24.8811 F150.00
G01 X4.4344 Y24.7668 F150.00
G01 X4.1948 Y24.6889 F150.00
G01 X3.9460 Y24.6495 F150.00
G01 X3.6941 Y24.6495 F150.00
G01 X3.4452 Y24.6889 F150.00
G01 X3.2056 Y24.7668 F150.00
G01 X2.9812 Y24.8811 F150.00
G01 X2.7774 Y25.0292 F150.00
G01 X2.5992 Y25.2074 F150.00
G01 X2.4511 Y25.4112 F150.00
G01 X2.3368 Y25.6356 F150.00
G01 X2.2589 Y25.8752 F150.00
G01 X2.2195 Y26.1241 F150.00
G01 X2.2195 Y26.3760 F150.00
G01 X2.2589 Y26.6248 F150.00
G01 X2.2616 Y26.6350 F150.00
G01 X2.2689 Y26.6811 F150.00
G01 X2.2695 Y26.6889 F150.00
G01 X2.2695 Y33.3420 F150.00
G01 X2.3077 Y33.5831 F150.00
G01 X2.3831 Y33.8152 F150.00
G01 X2.4648 Y33.9755 F150.00
G01 X2.4939 Y34.0327 F150.00
G01 X2.6374 Y34.2301 F150.00
G01 X6.3399 Y37.9327 F150.00
G01 X6.5374 Y38.0761 F150.00
G01 X6.7548 Y38.1869 F150.00
G01 X6.9869 Y38.2623 F150.00
G01 X7.2280 Y38.3005 F150.00
G01 X17.8353 Y38.3005 F150.00
G01 X17.8413 Y38.3009 F150.00
G01 X17.8483 Y38.3022 F150.00
G01 X17.9228 Y38.3222 F150.00
G01 X17.9297 Y38.3246 F150.00
G01 X17.9341 Y38.3268 F150.00
G01 X17.9393 Y38.3301 F150.00
G01 X17.9751 Y38.3579 F150.00
G01 X18.5451 Y38.9279 F150.00
G01 X18.5758 Y38.9697 F150.00
G01 X18.5811 Y38.9789 F150.00
G01 X18.7292 Y39.1827 F150.00
G01 X18.9074 Y39.3608 F150.00
G01 X19.1112 Y39.5089 F150.00
G01 X19.3356 Y39.6233 F150.00
G01 X19.5752 Y39.7011 F150.00
G01 X19.8241 Y39.7405 F150.00
G01 X20.0760 Y39.7405 F150.00
G01 X20.3248 Y39.7011 F150.00
G01 X20.3350 Y39.6984 F150.00
G01 X20.3811 Y39.6911 F150.00
G01 X20.3889 Y39.6905 F150.00
G01 X38.6820 Y39.6905 F150.00
G01 X38.9231 Y39.6523 F150.00
G01 X39.1552 Y39.5769 F150.00
G01 X39.3727 Y39.4661 F150.00
G01 X39.5701 Y39.3227 F150.00
G01 X39.9231 Y38.9696 F150.00
G01 X39.9277 Y38.9656 F150.00
G01 X39.9791 Y38.9311 F150.00
G01 X39.9844 Y38.9280 F150.00
G01 X40.1037 Y38.8784 F150.00
G01 X40.2968 Y38.7670 F150.00
G01 X40.4736 Y38.6313 F150.00
G01 X40.6313 Y38.4736 F150.00
G01 X40.7670 Y38.2968 F150.00
G01 X40.8784 Y38.1037 F150.00
G01 X40.9637 Y37.8978 F150.00
G01 X41.0214 Y37.6825 F150.00
G01 X41.0505 Y37.4615 F150.00
G01 X41.0505 Y37.2386 F150.00
G01 X41.0214 Y37.0175 F150.00
G01 X40.9637 Y36.8022 F150.00
G01 X40.8784 Y36.5963 F150.00
G01 X40.7670 Y36.4032 F150.00
G01 X40.6313 Y36.2264 F150.00
G01 X40.4736 Y36.0688 F150.00
G01 X40.2968 Y35.9331 F150.00
G01 X40.1037 Y35.8216 F150.00
G01 X39.8978 Y35.7363 F150.00
G01 X39.6825 Y35.6786 F150.00
G01 X39.4615 Y35.6495 F150.00
G01 X39.2386 Y35.6495 F150.00
G01 X39.0176 Y35.6786 F150.00
G01 X38.8022 Y35.7363 F150.00
G01 X38.5963 Y35.8216 F150.00
G01 X38.4032 Y35.9331 F150.00
G01 X38.2264 Y36.0688 F150.00
G01 X38.0688 Y36.2264 F150.00
G01 X37.9331 Y36.4032 F150.00
G01 X37.8827 Y36.4904 F150.00
G01 X37.8792 Y36.4956 F150.00
G01 X37.8750 Y36.5004 F150.00
G01 X37.8196 Y36.5558 F150.00
G01 X37.8148 Y36.5598 F150.00
G01 X37.8096 Y36.5632 F150.00
G01 X37.8040 Y36.5659 F150.00
G01 X37.7981 Y36.5678 F150.00
G01 X37.7236 Y36.5878 F150.00
G01 X37.7154 Y36.5893 F150.00
G01 X31.2889 Y36.5895 F150.00
G01 X31.2830 Y36.5890 F150.00
G01 X31.2783 Y36.5881 F150.00
G01 X31.2027 Y36.5678 F150.00
G01 X31.1968 Y36.5659 F150.00
G01 X31.1912 Y36.5632 F150.00
G01 X31.1849 Y36.5590 F150.00
G01 X31.1803 Y36.5549 F150.00
G01 X31.1249 Y36.4995 F150.00
G01 X31.1188 Y36.4916 F150.00
G01 X31.1158 Y36.4861 F150.00
G01 X31.1131 Y36.4792 F150.00
G01 X31.0925 Y36.4022 F150.00
G01 X31.0914 Y36.3961 F150.00
G01 X31.0911 Y36.3899 F150.00
G01 X31.0914 Y36.3849 F150.00
G01 X31.0925 Y36.3788 F150.00
G01 X31.1131 Y36.3019 F150.00
G01 X31.1148 Y36.2972 F150.00
G01 X31.1175 Y36.2916 F150.00
G01 X31.1209 Y36.2863 F150.00
G01 X31.1249 Y36.2815 F150.00
G01 X31.1812 Y36.2253 F150.00
G01 X31.1868 Y36.2206 F150.00
G01 X31.1931 Y36.2168 F150.00
G01 X31.2274 Y36.2017 F150.00
G01 X31.4314 Y36.1354 F150.00
G01 X31.6365 Y36.0309 F150.00
G01 X31.8228 Y35.8955 F150.00
G01 X33.8655 Y33.8528 F150.00
G01 X34.0009 Y33.6665 F150.00
G01 X34.1054 Y33.4614 F150.00
G01 X34.1765 Y33.2425 F150.00
G01 X34.2125 Y33.0151 F150.00
G01 X34.2125 Y26.5349 F150.00
G01 X34.1765 Y26.3075 F150.00
G01 X34.1054 Y26.0886 F150.00
G01 X34.0009 Y25.8835 F150.00
G01 X33.8655 Y25.6973 F150.00
G01 X31.7028 Y23.5345 F150.00
G01 X31.5165 Y23.3992 F150.00
G01 X31.3114 Y23.2947 F150.00
G01 X31.0925 Y23.2235 F150.00
G01 X30.8651 Y23.1875 F150.00
G01 X28.8382 Y23.1875 F150.00
G01 X28.8288 Y23.1866 F150.00
G01 X28.7496 Y23.1655 F150.00
G01 X28.7416 Y23.1624 F150.00
G01 X28.7343 Y23.1580 F150.00
G01 X28.7024 Y23.1335 F150.00
G01 X28.6975 Y23.1292 F150.00
G01 X28.4087 Y22.8404 F150.00
G01 X28.4003 Y22.8390 F150.00
G01 X28.3741 Y22.8324 F150.00
G01 X28.3441 Y22.8217 F150.00
G01 X28.3186 Y22.8096 F150.00
G01 X28.2954 Y22.7958 F150.00
G01 X28.2697 Y22.7769 F150.00
G01 X28.2479 Y22.7571 F150.00
G01 X28.2281 Y22.7353 F150.00
G01 X28.2106 Y22.7117 F150.00
G01 X28.1960 Y22.6875 F150.00
G01 X28.1828 Y22.6598 F150.00
G01 X28.1737 Y22.6344 F150.00
G01 X28.1663 Y22.6059 F150.00
G01 X28.1647 Y22.5964 F150.00
G01 X28.0002 Y22.4318 F150.00
G01 X27.9947 Y22.4240 F150.00
G01 X27.9562 Y22.3572 F150.00
G01 X27.9529 Y22.3505 F150.00
G01 X27.9507 Y22.3434 F150.00
G01 X27.9496 Y22.3361 F150.00
G01 X27.9463 Y22.2683 F150.00
G01 X27.9468 Y22.2625 F150.00
G01 X27.9705 Y22.1131 F150.00
G01 X27.9705 Y21.8769 F150.00
G01 X27.9336 Y21.6436 F150.00
G01 X27.8606 Y21.4190 F150.00
G01 X27.7534 Y21.2086 F150.00
G01 X27.6145 Y21.0175 F150.00
G01 X27.5223 Y20.9252 F150.00
G01 X27.5183 Y20.9208 F150.00
G01 X27.5143 Y20.9149 F150.00
G01 X27.4746 Y20.8459 F150.00
G01 X27.4725 Y20.8413 F150.00
G01 X27.4706 Y20.8354 F150.00
G01 X27.4694 Y20.8293 F150.00
G01 X27.4691 Y20.8243 F150.00
G01 X27.4691 Y20.7447 F150.00
G01 X27.4694 Y20.7397 F150.00
G01 X27.4706 Y20.7336 F150.00
G01 X27.4725 Y20.7277 F150.00
G01 X27.4751 Y20.7220 F150.00
G01 X27.5149 Y20.6531 F150.00
G01 X27.5210 Y20.6451 F150.00
G01 X27.5274 Y20.6393 F150.00
G01 X27.5326 Y20.6359 F150.00
G01 X27.5994 Y20.5973 F150.00
G01 X27.6060 Y20.5941 F150.00
G01 X27.6119 Y20.5922 F150.00
G01 X27.6167 Y20.5912 F150.00
G01 X27.6564 Y20.5859 F150.00
G01 X27.6630 Y20.5855 F150.00
G01 X38.9385 Y20.5855 F150.00
G01 X38.9444 Y20.5859 F150.00
G01 X38.9503 Y20.5869 F150.00
G01 X39.0272 Y20.6075 F150.00
G01 X39.0364 Y20.6113 F150.00
G01 X39.0447 Y20.6168 F150.00
G01 X39.1038 Y20.6755 F150.00
G01 X39.1078 Y20.6803 F150.00
G01 X39.1112 Y20.6856 F150.00
G01 X39.1139 Y20.6912 F150.00
G01 X39.1158 Y20.6971 F150.00
G01 X39.1361 Y20.7727 F150.00
G01 X39.1370 Y20.7774 F150.00
G01 X39.1375 Y20.7833 F150.00
G01 X39.1375 Y22.5130 F150.00
G01 X39.1370 Y22.5189 F150.00
G01 X39.1358 Y22.5247 F150.00
G01 X39.1158 Y22.5992 F150.00
G01 X39.1139 Y22.6051 F150.00
G01 X39.1113 Y22.6106 F150.00
G01 X39.1080 Y22.6158 F150.00
G01 X39.0835 Y22.6476 F150.00
G01 X39.0792 Y22.6525 F150.00
G01 X37.7845 Y23.9473 F150.00
G01 X37.6492 Y24.1335 F150.00
G01 X37.5447 Y24.3386 F150.00
G01 X37.4735 Y24.5575 F150.00
G01 X37.4375 Y24.7849 F150.00
G01 X37.4374 Y27.4324 F150.00
G01 X37.4358 Y27.4418 F150.00
G01 X37.4158 Y27.5166 F150.00
G01 X37.4137 Y27.5226 F150.00
G01 X37.4109 Y27.5283 F150.00
G01 X37.3716 Y27.5963 F150.00
G01 X37.2863 Y27.8022 F150.00
G01 X37.2286 Y28.0176 F150.00
G01 X37.1995 Y28.2386 F150.00
G01 X37.1995 Y28.4615 F150.00
G01 X37.2286 Y28.6825 F150.00
G01 X37.2863 Y28.8978 F150.00
G01 X37.3716 Y29.1037 F150.00
G01 X37.4831 Y29.2968 F150.00
G01 X37.6188 Y29.4736 F150.00
G01 X37.7764 Y29.6313 F150.00
G01 X37.9532 Y29.7670 F150.00
G01 X38.1463 Y29.8784 F150.00
G01 X38.3522 Y29.9637 F150.00
G01 X38.5675 Y30.0214 F150.00
G01 X38.7886 Y30.0505 F150.00
G01 X39.0115 Y30.0505 F150.00
G01 X39.2325 Y30.0214 F150.00
G01 X39.4478 Y29.9637 F150.00
G01 X39.6537 Y29.8784 F150.00
G01 X39.8468 Y29.7670 F150.00
G01 X40.0236 Y29.6313 F150.00
G01 X40.1813 Y29.4736 F150.00
G01 X40.3170 Y29.2968 F150.00
G01 X40.4284 Y29.1037 F150.00
G01 X40.5137 Y28.8978 F150.00
G01 X40.5714 Y28.6825 F150.00
G01 X40.6005 Y28.4615 F150.00
G01 X40.6005 Y28.2386 F150.00
G01 X40.5714 Y28.0175 F150.00
G01 X40.5137 Y27.8022 F150.00
G01 X40.4284 Y27.5963 F150.00
G01 X40.3892 Y27.5283 F150.00
G01 X40.3861 Y27.5219 F150.00
G01 X40.3842 Y27.5163 F150.00
G01 X40.3642 Y27.4418 F150.00
G01 X40.3627 Y27.4336 F150.00
G01 X40.3625 Y25.5882 F150.00
G01 X40.3634 Y25.5788 F150.00
G01 X40.3842 Y25.5008 F150.00
G01 X40.3866 Y25.4938 F150.00
G01 X40.3888 Y25.4894 F150.00
G01 X40.3921 Y25.4843 F150.00
G01 X40.4199 Y25.4485 F150.00
G01 X41.7155 Y24.1528 F150.00
G01 X41.8509 Y23.9665 F150.00
G01 X41.9554 Y23.7614 F150.00
G01 X42.0265 Y23.5425 F150.00
G01 X42.0625 Y23.3151 F150.00
G01 X42.0625 Y20.7845 F150.00
G01 X42.0629 Y20.7786 F150.00
G01 X42.0642 Y20.7716 F150.00
G01 X42.0845 Y20.6959 F150.00
G01 X42.0883 Y20.6866 F150.00
G01 X42.0922 Y20.6803 F150.00
G01 X42.0971 Y20.6747 F150.00
G01 X42.1525 Y20.6192 F150.00
G01 X42.1563 Y20.6160 F150.00
G01 X42.1615 Y20.6125 F150.00
G01 X42.1682 Y20.6092 F150.00
G01 X42.1741 Y20.6072 F150.00
G01 X42.2497 Y20.5869 F150.00
G01 X42.2591 Y20.5856 F150.00
G01 X43.9156 Y20.5855 F150.00
G01 X43.9215 Y20.5860 F150.00
G01 X43.9273 Y20.5872 F150.00
G01 X44.0018 Y20.6072 F150.00
G01 X44.0077 Y20.6091 F150.00
G01 X44.0132 Y20.6118 F150.00
G01 X44.0184 Y20.6151 F150.00
G01 X44.0502 Y20.6395 F150.00
G01 X44.0551 Y20.6438 F150.00
G01 X46.0562 Y22.6449 F150.00
G01 X46.0602 Y22.6494 F150.00
G01 X46.0636 Y22.6542 F150.00
G01 X46.1033 Y22.7231 F150.00
G01 X46.1068 Y22.7310 F150.00
G01 X46.1086 Y22.7381 F150.00
G01 X46.1141 Y22.7791 F150.00
G01 X46.1145 Y22.7856 F150.00
G01 X46.1145 Y24.4551 F150.00
G01 X46.1474 Y24.6627 F150.00
G01 X46.2124 Y24.8627 F150.00
G01 X46.3078 Y25.0500 F150.00
G01 X46.4313 Y25.2200 F150.00
G01 X48.8300 Y27.6187 F150.00
G01 X49.0000 Y27.7422 F150.00
G01 X49.1874 Y27.8377 F150.00
G01 X49.3873 Y27.9026 F150.00
G01 X49.5949 Y27.9355 F150.00
G01 X53.1644 Y27.9355 F150.00
G01 X53.1703 Y27.9359 F150.00
G01 X53.1773 Y27.9372 F150.00
G01 X53.2518 Y27.9572 F150.00
G01 X53.2610 Y27.9606 F150.00
G01 X53.2693 Y27.9658 F150.00
G01 X53.3002 Y27.9895 F150.00
G01 X53.3051 Y27.9938 F150.00
G01 X54.2379 Y28.9266 F150.00
G01 X54.2419 Y28.9311 F150.00
G01 X54.2453 Y28.9360 F150.00
G01 X54.2862 Y29.0071 F150.00
G01 X54.2896 Y29.0164 F150.00
G01 X54.2911 Y29.0263 F150.00
G01 X54.2912 Y29.1059 F150.00
G01 X54.2904 Y29.1143 F150.00
G01 X54.2865 Y29.1288 F150.00
G01 X54.2389 Y29.2752 F150.00
G01 X54.1995 Y29.5241 F150.00
G01 X54.1995 Y29.7760 F150.00
G01 X54.2389 Y30.0248 F150.00
G01 X54.3168 Y30.2644 F150.00
G01 X54.4311 Y30.4889 F150.00
G01 X54.5792 Y30.6927 F150.00
G01 X54.7574 Y30.8708 F150.00
G01 X54.9612 Y31.0189 F150.00
G01 X55.1856 Y31.1333 F150.00
G01 X55.4252 Y31.2111 F150.00
G01 X55.6741 Y31.2505 F150.00
G01 X55.9260 Y31.2505 F150.00
G01 X56.0516 Y31.2306 F150.00
G01 X56.0587 Y31.2300 F150.00
G01 X56.0647 Y31.2303 F150.00
G01 X56.1414 Y31.2383 F150.00
G01 X56.1475 Y31.2394 F150.00
G01 X56.1569 Y31.2426 F150.00
G01 X56.1645 Y31.2469 F150.00
G01 X56.2289 Y31.2937 F150.00
G01 X56.2362 Y31.3005 F150.00
G01 X56.2407 Y31.3065 F150.00
G01 X56.2437 Y31.3119 F150.00
G01 X56.2774 Y31.3882 F150.00
G01 X56.2796 Y31.3979 F150.00
G01 X56.2798 Y31.4078 F150.00
G01 X56.2716 Y31.4858 F150.00
G01 X56.2699 Y31.4943 F150.00
G01 X56.2679 Y31.5001 F150.00
G01 X56.2644 Y31.5067 F150.00
G01 X56.2298 Y31.5601 F150.00
G01 X56.2252 Y31.5661 F150.00
G01 X55.9851 Y31.8062 F150.00
G01 X55.9807 Y31.8102 F150.00
G01 X55.9748 Y31.8142 F150.00
G01 X55.9080 Y31.8527 F150.00
G01 X55.9013 Y31.8559 F150.00
G01 X55.8955 Y31.8578 F150.00
G01 X55.8907 Y31.8588 F150.00
G01 X55.8483 Y31.8644 F150.00
G01 X50.3005 Y31.8645 F150.00
G01 X50.2945 Y31.8642 F150.00
G01 X50.2887 Y31.8631 F150.00
G01 X50.2128 Y31.8428 F150.00
G01 X50.2069 Y31.8408 F150.00
G01 X50.1992 Y31.8368 F150.00
G01 X50.1802 Y31.8240 F150.00
G01 X50.1268 Y31.7831 F150.00
G01 X49.9337 Y31.6716 F150.00
G01 X49.7278 Y31.5863 F150.00
G01 X49.5125 Y31.5286 F150.00
G01 X49.4468 Y31.5200 F150.00
G01 X49.4398 Y31.5185 F150.00
G01 X49.4342 Y31.5166 F150.00
G01 X49.3617 Y31.4865 F150.00
G01 X49.3551 Y31.4830 F150.00
G01 X49.3501 Y31.4793 F150.00
G01 X49.3321 Y31.4634 F150.00
G01 X47.4595 Y29.5908 F150.00
G01 X47.4555 Y29.5863 F150.00
G01 X47.4521 Y29.5814 F150.00
G01 X47.4123 Y29.5125 F150.00
G01 X47.4097 Y29.5069 F150.00
G01 X47.4078 Y29.5010 F150.00
G01 X47.4066 Y29.4948 F150.00
G01 X47.4063 Y29.4886 F150.00
G01 X47.4063 Y29.4103 F150.00
G01 X47.4074 Y29.4007 F150.00
G01 X47.4087 Y29.3961 F150.00
G01 X47.4109 Y29.3905 F150.00
G01 X47.4388 Y29.3342 F150.00
G01 X47.4423 Y29.3289 F150.00
G01 X47.4670 Y29.2968 F150.00
G01 X47.5784 Y29.1037 F150.00
G01 X47.6637 Y28.8978 F150.00
G01 X47.7214 Y28.6825 F150.00
G01 X47.7505 Y28.4615 F150.00
G01 X47.7505 Y28.2386 F150.00
G01 X47.7214 Y28.0175 F150.00
G01 X47.6637 Y27.8022 F150.00
G01 X47.5784 Y27.5963 F150.00
G01 X47.4670 Y27.4032 F150.00
G01 X47.3313 Y27.2264 F150.00
G01 X47.1736 Y27.0688 F150.00
G01 X46.9968 Y26.9331 F150.00
G01 X46.8037 Y26.8216 F150.00
G01 X46.5978 Y26.7363 F150.00
G01 X46.3825 Y26.6786 F150.00
G01 X46.1615 Y26.6495 F150.00
G01 X45.9386 Y26.6495 F150.00
G01 X45.7176 Y26.6786 F150.00
G01 X45.5022 Y26.7363 F150.00
G01 X45.2963 Y26.8216 F150.00
G01 X45.1032 Y26.9331 F150.00
G01 X44.9264 Y27.0688 F150.00
G01 X44.7688 Y27.2264 F150.00
G01 X44.6331 Y27.4032 F150.00
G01 X44.5216 Y27.5963 F150.00
G01 X44.4363 Y27.8022 F150.00
G01 X44.3786 Y28.0176 F150.00
G01 X44.3495 Y28.2386 F150.00
G01 X44.3495 Y28.4615 F150.00
G01 X44.3786 Y28.6825 F150.00
G01 X44.4363 Y28.8978 F150.00
G01 X44.5216 Y29.1037 F150.00
G01 X44.6331 Y29.2968 F150.00
G01 X44.6734 Y29.3493 F150.00
G01 X44.6773 Y29.3553 F150.00
G01 X44.6799 Y29.3606 F150.00
G01 X44.7094 Y29.4319 F150.00
G01 X44.7111 Y29.4366 F150.00
G01 X44.7123 Y29.4415 F150.00
G01 X44.7131 Y29.4478 F150.00
G01 X44.7145 Y29.4705 F150.00
G01 X44.7145 Y30.1751 F150.00
G01 X44.7474 Y30.3827 F150.00
G01 X44.8124 Y30.5827 F150.00
G01 X44.9078 Y30.7700 F150.00
G01 X45.0313 Y30.9400 F150.00
G01 X47.4466 Y33.3556 F150.00
G01 X47.4513 Y33.3624 F150.00
G01 X47.4899 Y33.4292 F150.00
G01 X47.4922 Y33.4337 F150.00
G01 X47.4940 Y33.4384 F150.00
G01 X47.4956 Y33.4445 F150.00
G01 X47.4998 Y33.4657 F150.00
G01 X47.5086 Y33.5325 F150.00
G01 X47.5663 Y33.7478 F150.00
G01 X47.6516 Y33.9537 F150.00
G01 X47.7631 Y34.1468 F150.00
G01 X47.8988 Y34.3236 F150.00
G01 X48.0564 Y34.4813 F150.00
G01 X48.2332 Y34.6170 F150.00
G01 X48.4263 Y34.7284 F150.00
G01 X48.6322 Y34.8137 F150.00
G01 X48.8475 Y34.8714 F150.00
G01 X49.0686 Y34.9005 F150.00
G01 X49.2915 Y34.9005 F150.00
G01 X49.5125 Y34.8714 F150.00
G01 X49.7278 Y34.8137 F150.00
G01 X49.9337 Y34.7284 F150.00
G01 X50.1268 Y34.6170 F150.00
G01 X50.1793 Y34.5766 F150.00
G01 X50.1863 Y34.5721 F150.00
G01 X50.2654 Y34.5393 F150.00
G01 X50.2703 Y34.5380 F150.00
G01 X50.2753 Y34.5371 F150.00
G01 X50.2972 Y34.5356 F150.00
G01 X56.5851 Y34.5355 F150.00
G01 X56.7927 Y34.5026 F150.00
G01 X56.9927 Y34.4377 F150.00
G01 X57.1800 Y34.3422 F150.00
G01 X57.3500 Y34.2187 F150.00
G01 X59.3587 Y32.2100 F150.00
G01 X59.4822 Y32.0400 F150.00
G01 X59.5777 Y31.8527 F150.00
G01 X59.6426 Y31.6527 F150.00
G01 X59.6755 Y31.4451 F150.00
G01 X59.6755 Y31.1438 F150.00
G01 X59.6757 Y31.1390 F150.00
G01 X59.6767 Y31.1332 F150.00
G01 X59.6975 Y31.0551 F150.00
G01 X59.6996 Y31.0493 F150.00
G01 X59.7025 Y31.0437 F150.00
G01 X59.7060 Y31.0386 F150.00
G01 X59.7101 Y31.0339 F150.00
G01 X59.7647 Y30.9794 F150.00
G01 X59.7693 Y30.9753 F150.00
G01 X59.7778 Y30.9700 F150.00
G01 X59.7859 Y30.9668 F150.00
G01 X59.8628 Y30.9462 F150.00
G01 X59.8726 Y30.9448 F150.00
G01 X59.8801 Y30.9451 F150.00
G01 X59.8862 Y30.9462 F150.00
G01 X59.9644 Y30.9672 F150.00
G01 X59.9689 Y30.9689 F150.00
G01 X59.9742 Y30.9716 F150.00
G01 X59.9904 Y30.9820 F150.00
G01 X60.0412 Y31.0189 F150.00
G01 X60.2656 Y31.1333 F150.00
G01 X60.5052 Y31.2111 F150.00
G01 X60.7541 Y31.2505 F150.00
G01 X61.0060 Y31.2505 F150.00
G01 X61.2548 Y31.2111 F150.00
G01 X61.4944 Y31.1333 F150.00
G01 X61.7189 Y31.0189 F150.00
G01 X61.9227 Y30.8708 F150.00
G01 X62.1008 Y30.6927 F150.00
G01 X62.2489 Y30.4889 F150.00
G01 X62.3633 Y30.2644 F150.00
G01 X62.4411 Y30.0248 F150.00
G01 X62.4805 Y29.7760 F150.00
G01 X62.4805 Y29.5241 F150.00
G01 X62.4411 Y29.2752 F150.00
G01 X62.3633 Y29.0356 F150.00
G01 X62.3017 Y28.9148 F150.00
G01 X62.2911 Y28.8896 F150.00
G01 X62.2354 Y28.7186 F150.00
G01 X62.1309 Y28.5135 F150.00
G01 X61.9955 Y28.3273 F150.00
G01 X60.8435 Y27.1752 F150.00
G01 X60.8381 Y27.1689 F150.00
G01 X60.7964 Y27.0970 F150.00
G01 X60.7938 Y27.0913 F150.00
G01 X60.7919 Y27.0854 F150.00
G01 X60.7907 Y27.0793 F150.00
G01 X60.7903 Y27.0743 F150.00
G01 X60.7903 Y26.9959 F150.00
G01 X60.7909 Y26.9885 F150.00
G01 X60.7922 Y26.9824 F150.00
G01 X60.7938 Y26.9777 F150.00
G01 X60.7964 Y26.9720 F150.00
G01 X60.8356 Y26.9042 F150.00
G01 X60.8390 Y26.8990 F150.00
G01 X60.8431 Y26.8942 F150.00
G01 X60.8477 Y26.8901 F150.00
G01 X60.8539 Y26.8859 F150.00
G01 X60.9207 Y26.8473 F150.00
G01 X60.9296 Y26.8432 F150.00
G01 X60.9391 Y26.8410 F150.00
G01 X60.9777 Y26.8359 F150.00
G01 X60.9842 Y26.8355 F150.00
G01 X62.9144 Y26.8355 F150.00
G01 X62.9215 Y26.8360 F150.00
G01 X62.9273 Y26.8372 F150.00
G01 X63.0030 Y26.8575 F150.00
G01 X63.0121 Y26.8612 F150.00
G01 X63.0193 Y26.8658 F150.00
G01 X63.0502 Y26.8895 F150.00
G01 X63.0551 Y26.8938 F150.00
G01 X65.0571 Y28.8958 F150.00
G01 X65.0609 Y28.9003 F150.00
G01 X65.0642 Y28.9053 F150.00
G01 X65.1027 Y28.9721 F150.00
G01 X65.1055 Y28.9775 F150.00
G01 X65.1075 Y28.9833 F150.00
G01 X65.1088 Y28.9893 F150.00
G01 X65.1145 Y29.0343 F150.00
G01 X65.1145 Y31.6155 F150.00
G01 X65.1142 Y31.6214 F150.00
G01 X65.1131 Y31.6273 F150.00
G01 X65.0928 Y31.7030 F150.00
G01 X65.0899 Y31.7111 F150.00
G01 X65.0855 Y31.7187 F150.00
G01 X65.0799 Y31.7254 F150.00
G01 X65.0254 Y31.7799 F150.00
G01 X65.0207 Y31.7840 F150.00
G01 X65.0145 Y31.7882 F150.00
G01 X65.0089 Y31.7909 F150.00
G01 X65.0030 Y31.7928 F150.00
G01 X64.9273 Y31.8131 F150.00
G01 X64.9179 Y31.8145 F150.00
G01 X62.5449 Y31.8145 F150.00
G01 X62.3373 Y31.8474 F150.00
G01 X62.1374 Y31.9124 F150.00
G01 X61.9501 Y32.0078 F150.00
G01 X61.7800 Y32.1313 F150.00
G01 X60.2513 Y33.6600 F150.00
G01 X60.1278 Y33.8300 F150.00
G01 X60.0324 Y34.0174 F150.00
G01 X59.9674 Y34.2173 F150.00
G01 X59.9345 Y34.4249 F150.00
G01 X59.9344 Y36.3921 F150.00
G01 X59.9328 Y36.4015 F150.00
G01 X59.9128 Y36.4760 F150.00
G01 X59.9104 Y36.4830 F150.00
G01 X59.9075 Y36.4886 F150.00
G01 X59.9048 Y36.4927 F150.00
G01 X59.9008 Y36.4975 F150.00
G01 X59.8445 Y36.5538 F150.00
G01 X59.8387 Y36.5585 F150.00
G01 X59.8311 Y36.5629 F150.00
G01 X59.8230 Y36.5658 F150.00
G01 X59.7485 Y36.5858 F150.00
G01 X59.7426 Y36.5870 F150.00
G01 X59.7355 Y36.5875 F150.00
G01 X47.2570 Y36.5875 F150.00
G01 X47.2476 Y36.5861 F150.00
G01 X47.1695 Y36.5651 F150.00
G01 X47.1649 Y36.5634 F150.00
G01 X47.1593 Y36.5605 F150.00
G01 X47.1542 Y36.5570 F150.00
G01 X47.1504 Y36.5538 F150.00
G01 X47.0950 Y36.4984 F150.00
G01 X47.0910 Y36.4939 F150.00
G01 X47.0870 Y36.4880 F150.00
G01 X47.0670 Y36.4532 F150.00
G01 X46.9313 Y36.2764 F150.00
G01 X46.7736 Y36.1188 F150.00
G01 X46.5968 Y35.9831 F150.00
G01 X46.4037 Y35.8716 F150.00
G01 X46.1978 Y35.7863 F150.00
G01 X45.9825 Y35.7286 F150.00
G01 X45.7615 Y35.6995 F150.00
G01 X45.5386 Y35.6995 F150.00
G01 X45.3176 Y35.7286 F150.00
G01 X45.1022 Y35.7863 F150.00
G01 X44.8963 Y35.8716 F150.00
G01 X44.7032 Y35.9831 F150.00
G01 X44.5264 Y36.1188 F150.00
G01 X44.3688 Y36.2764 F150.00
G01 X44.2331 Y36.4532 F150.00
G01 X44.1216 Y36.6463 F150.00
G01 X44.0363 Y36.8522 F150.00
G01 X43.9786 Y37.0676 F150.00
G01 X43.9495 Y37.2886 F150.00
G01 X43.9495 Y37.5115 F150.00
G01 X43.9786 Y37.7325 F150.00
G01 X44.0363 Y37.9478 F150.00
G01 X44.1216 Y38.1537 F150.00
G01 X44.2331 Y38.3468 F150.00
G01 X44.3688 Y38.5236 F150.00
G01 X44.5264 Y38.6813 F150.00
G01 X44.7032 Y38.8170 F150.00
G01 X44.8963 Y38.9284 F150.00
G01 X45.1022 Y39.0137 F150.00
G01 X45.1784 Y39.0341 F150.00
G01 X45.1844 Y39.0362 F150.00
G01 X45.1901 Y39.0390 F150.00
G01 X45.2579 Y39.0782 F150.00
G01 X45.2628 Y39.0816 F150.00
G01 X45.2673 Y39.0855 F150.00
G01 X45.3473 Y39.1655 F150.00
G01 X45.5335 Y39.3009 F150.00
G01 X45.7386 Y39.4054 F150.00
G01 X45.9575 Y39.4765 F150.00
G01 X46.1849 Y39.5125 F150.00
G01 X65.6472 Y39.5125 F150.00
G01 X65.6519 Y39.5127 F150.00
G01 X65.6577 Y39.5136 F150.00
G01 X65.7158 Y39.5276 F150.00
G01 X65.7255 Y39.5295 F150.00
G01 X65.7353 Y39.5331 F150.00
G01 X65.9752 Y39.6111 F150.00
G01 X66.2241 Y39.6505 F150.00
G01 X66.4760 Y39.6505 F150.00
G01 X66.7248 Y39.6111 F150.00
G01 X66.9644 Y39.5333 F150.00
G01 X67.1889 Y39.4189 F150.00
G01 X67.3927 Y39.2708 F150.00
G01 X67.5708 Y39.0927 F150.00
G01 X67.7189 Y38.8889 F150.00
G01 X67.8333 Y38.6644 F150.00
G01 X67.9111 Y38.4248 F150.00
G01 X67.9505 Y38.1760 F150.00
G01 X67.9505 Y37.9241 F150.00
G01 X67.9111 Y37.6752 F150.00
G01 X67.8333 Y37.4356 F150.00
G01 X67.7189 Y37.2112 F150.00
G01 X67.5708 Y37.0074 F150.00
G01 X67.3927 Y36.8292 F150.00
G01 X67.1889 Y36.6811 F150.00
G01 X66.9644 Y36.5668 F150.00
G01 X66.7248 Y36.4889 F150.00
G01 X66.4760 Y36.4495 F150.00
G01 X66.2241 Y36.4495 F150.00
G01 X65.9752 Y36.4889 F150.00
G01 X65.7353 Y36.5669 F150.00
G01 X65.7258 Y36.5705 F150.00
G01 X65.6585 Y36.5862 F150.00
G01 X65.6535 Y36.5871 F150.00
G01 X65.6484 Y36.5875 F150.00
G01 X62.8045 Y36.5875 F150.00
G01 X62.7986 Y36.5872 F150.00
G01 X62.7927 Y36.5861 F150.00
G01 X62.7123 Y36.5643 F150.00
G01 X62.7034 Y36.5599 F150.00
G01 X62.6955 Y36.5538 F150.00
G01 X62.6392 Y36.4975 F150.00
G01 X62.6331 Y36.4896 F150.00
G01 X62.6302 Y36.4841 F150.00
G01 X62.6275 Y36.4772 F150.00
G01 X62.6072 Y36.4015 F150.00
G01 X62.6056 Y36.3921 F150.00
G01 X62.6057 Y35.1609 F150.00
G01 X62.6072 Y35.1527 F150.00
G01 X62.6272 Y35.0782 F150.00
G01 X62.6296 Y35.0712 F150.00
G01 X62.6318 Y35.0668 F150.00
G01 X62.6351 Y35.0617 F150.00
G01 X62.6629 Y35.0258 F150.00
G01 X63.1458 Y34.5430 F150.00
G01 X63.1494 Y34.5399 F150.00
G01 X63.1542 Y34.5365 F150.00
G01 X63.2221 Y34.4973 F150.00
G01 X63.2275 Y34.4946 F150.00
G01 X63.2333 Y34.4925 F150.00
G01 X63.2405 Y34.4910 F150.00
G01 X63.2791 Y34.4859 F150.00
G01 X63.2856 Y34.4855 F150.00
G01 X66.4551 Y34.4855 F150.00
G01 X66.6627 Y34.4526 F150.00
G01 X66.8627 Y34.3877 F150.00
G01 X67.0500 Y34.2922 F150.00
G01 X67.2200 Y34.1687 F150.00
G01 X67.4687 Y33.9200 F150.00
G01 X67.5922 Y33.7500 F150.00
G01 X67.6877 Y33.5627 F150.00
G01 X67.7526 Y33.3627 F150.00
G01 X67.7855 Y33.1551 F150.00
G01 X67.7855 Y28.2949 F150.00
G01 X67.7526 Y28.0873 F150.00
G01 X67.6877 Y27.8874 F150.00
G01 X67.5922 Y27.7001 F150.00
G01 X67.4687 Y27.5300 F150.00
G01 X64.4200 Y24.4814 F150.00
G01 X64.2500 Y24.3578 F150.00
G01 X64.0627 Y24.2624 F150.00
G01 X63.8627 Y24.1974 F150.00
G01 X63.6551 Y24.1645 F150.00
G01 X60.9356 Y24.1645 F150.00
G01 X60.9262 Y24.1636 F150.00
G01 X60.9101 Y24.1594 F150.00
G01 X60.8958 Y24.1594 F150.00
G01 X60.8896 Y24.1589 F150.00
