(G-CODE GENERATED BY FLATCAM v8.993 - www.flatcam.org - Version Date: 2020/06/05)

(Name: pistas_V2)
(Type: G-code from Geometry)
(Units: MM)

(Created on Monday, 10 November 2025 at 19:36)

(This preprocessor is used with a motion controller loaded with GRBL firmware.)
(It is configured to be compatible with almost any version of GRBL firmware.)

(TOOL DIAMETER: 0.1 mm)
(Feedrate_XY: 150.0 mm/min)
(Feedrate_Z: 80.0 mm/min)
(Feedrate rapids 1500.0 mm/min)

(Z_Cut: -0.053 mm)
(Z_Move: 2.0 mm)
(Z Start: None mm)
(Z End: 15.0 mm)
(Steps per circle: 64)
(Preprocessor Geometry: grbl_11)

(X range:    0.4755 ...   83.2282  mm)
(Y range:    0.4755 ...   57.1745  mm)

(Spindle Speed: 10000 RPM)
G21
G90
G17
G94




G01 F150.00
G00 Z2.0000

M03 S10000
G00 X0.4755 Y3.0295
G01 F80.00
G01 Z-0.0530
G01 F150.00
G01 X0.4759 Y3.0175 F150.00
G01 X0.4936 Y2.7267 F150.00
G01 X0.4962 Y2.7059 F150.00
G01 X0.5473 Y2.4267 F150.00
G01 X0.5531 Y2.4034 F150.00
G01 X0.6375 Y2.1324 F150.00
G01 X0.6449 Y2.1127 F150.00
G01 X0.7639 Y1.8484 F150.00
G01 X0.7737 Y1.8299 F150.00
G01 X0.9205 Y1.5870 F150.00
G01 X0.9342 Y1.5672 F150.00
G01 X1.1092 Y1.3438 F150.00
G01 X1.1251 Y1.3258 F150.00
G01 X1.3258 Y1.1251 F150.00
G01 X1.3415 Y1.1111 F150.00
G01 X1.5672 Y0.9342 F150.00
G01 X1.5844 Y0.9222 F150.00
G01 X1.8325 Y0.7722 F150.00
G01 X1.8511 Y0.7625 F150.00
G01 X2.1100 Y0.6460 F150.00
G01 X2.1324 Y0.6375 F150.00
G01 X2.4034 Y0.5531 F150.00
G01 X2.4267 Y0.5473 F150.00
G01 X2.7059 Y0.4962 F150.00
G01 X2.7267 Y0.4936 F150.00
G01 X3.0175 Y0.4759 F150.00
G01 X3.0295 Y0.4755 F150.00
G01 X40.6858 Y0.4755 F150.00
G01 X40.6917 Y0.4759 F150.00
G01 X40.6976 Y0.4769 F150.00
G01 X40.7756 Y0.4979 F150.00
G01 X40.7803 Y0.4996 F150.00
G01 X40.7858 Y0.5025 F150.00
G01 X40.7900 Y0.5052 F150.00
G01 X40.7947 Y0.5092 F150.00
G01 X40.8510 Y0.5655 F150.00
G01 X40.8550 Y0.5703 F150.00
G01 X40.8584 Y0.5756 F150.00
G01 X40.8606 Y0.5800 F150.00
G01 X40.8628 Y0.5859 F150.00
G01 X40.8841 Y0.6664 F150.00
G01 X40.8847 Y0.6764 F150.00
G01 X40.8834 Y0.6862 F150.00
G01 X40.8628 Y0.7632 F150.00
G01 X40.8590 Y0.7724 F150.00
G01 X40.8558 Y0.7777 F150.00
G01 X40.8510 Y0.7835 F150.00
G01 X40.7938 Y0.8406 F150.00
G01 X40.7889 Y0.8446 F150.00
G01 X40.7846 Y0.8472 F150.00
G01 X40.7629 Y0.8579 F150.00
G01 X40.6610 Y0.9002 F150.00
G01 X40.4590 Y1.0168 F150.00
G01 X40.2739 Y1.1589 F150.00
G01 X39.4889 Y1.9439 F150.00
G01 X39.3468 Y2.1290 F150.00
G01 X39.2302 Y2.3310 F150.00
G01 X39.1409 Y2.5466 F150.00
G01 X39.0805 Y2.7720 F150.00
G01 X39.0500 Y3.0033 F150.00
G01 X39.0500 Y12.9522 F150.00
G01 X39.0497 Y12.9569 F150.00
G01 X39.0486 Y12.9628 F150.00
G01 X39.0283 Y13.0385 F150.00
G01 X39.0259 Y13.0455 F150.00
G01 X39.0224 Y13.0521 F150.00
G01 X39.0163 Y13.0600 F150.00
G01 X38.9591 Y13.1171 F150.00
G01 X38.9552 Y13.1203 F150.00
G01 X38.9500 Y13.1237 F150.00
G01 X38.9444 Y13.1264 F150.00
G01 X38.9385 Y13.1283 F150.00
G01 X38.8628 Y13.1486 F150.00
G01 X38.8569 Y13.1497 F150.00
G01 X38.8510 Y13.1500 F150.00
G01 X11.5533 Y13.1500 F150.00
G01 X11.3220 Y13.1805 F150.00
G01 X11.0966 Y13.2409 F150.00
G01 X10.8810 Y13.3302 F150.00
G01 X10.6790 Y13.4468 F150.00
G01 X10.4939 Y13.5889 F150.00
G01 X9.3589 Y14.7239 F150.00
G01 X9.2168 Y14.9090 F150.00
G01 X9.1002 Y15.1110 F150.00
G01 X9.0109 Y15.3266 F150.00
G01 X8.9505 Y15.5520 F150.00
G01 X8.9200 Y15.7833 F150.00
G01 X8.9200 Y20.8337 F150.00
G01 X8.9189 Y20.8419 F150.00
G01 X8.9149 Y20.8568 F150.00
G01 X8.9149 Y20.8724 F150.00
G01 X8.9134 Y20.8822 F150.00
G01 X8.9100 Y20.8916 F150.00
G01 X8.9017 Y20.9061 F150.00
G01 X8.8980 Y20.9199 F150.00
G01 X8.8959 Y20.9258 F150.00
G01 X8.8937 Y20.9303 F150.00
G01 X8.8903 Y20.9355 F150.00
G01 X8.8863 Y20.9403 F150.00
G01 X8.8762 Y20.9504 F150.00
G01 X8.8677 Y20.9648 F150.00
G01 X8.8613 Y20.9724 F150.00
G01 X8.8535 Y20.9787 F150.00
G01 X8.8401 Y20.9865 F150.00
G01 X8.8291 Y20.9974 F150.00
G01 X8.8211 Y21.0033 F150.00
G01 X8.8120 Y21.0075 F150.00
G01 X8.7959 Y21.0120 F150.00
G01 X8.7835 Y21.0191 F150.00
G01 X8.7778 Y21.0218 F150.00
G01 X8.7719 Y21.0237 F150.00
G01 X8.7658 Y21.0248 F150.00
G01 X8.7608 Y21.0252 F150.00
G01 X8.7465 Y21.0252 F150.00
G01 X8.7291 Y21.0296 F150.00
G01 X8.7229 Y21.0303 F150.00
G01 X8.7167 Y21.0301 F150.00
G01 X8.7093 Y21.0289 F150.00
G01 X8.6955 Y21.0252 F150.00
G01 X8.6787 Y21.0251 F150.00
G01 X8.6689 Y21.0234 F150.00
G01 X8.6596 Y21.0197 F150.00
G01 X8.6462 Y21.0120 F150.00
G01 X8.6289 Y21.0071 F150.00
G01 X8.6233 Y21.0046 F150.00
G01 X8.6181 Y21.0014 F150.00
G01 X8.5812 Y20.9729 F150.00
G01 X8.4708 Y20.8625 F150.00
G01 X8.4669 Y20.8581 F150.00
G01 X8.4635 Y20.8532 F150.00
G01 X8.4243 Y20.7854 F150.00
G01 X8.4216 Y20.7799 F150.00
G01 X8.4195 Y20.7741 F150.00
G01 X8.4182 Y20.7681 F150.00
G01 X8.4125 Y20.7231 F150.00
G01 X8.4125 Y11.8382 F150.00
G01 X8.4129 Y11.8323 F150.00
G01 X8.4139 Y11.8264 F150.00
G01 X8.4342 Y11.7508 F150.00
G01 X8.4361 Y11.7450 F150.00
G01 X8.4388 Y11.7394 F150.00
G01 X8.4421 Y11.7343 F150.00
G01 X8.4665 Y11.7024 F150.00
G01 X8.4708 Y11.6975 F150.00
G01 X12.3475 Y7.8208 F150.00
G01 X12.3520 Y7.8169 F150.00
G01 X12.3579 Y7.8129 F150.00
G01 X12.4257 Y7.7737 F150.00
G01 X12.4348 Y7.7699 F150.00
G01 X12.4431 Y7.7680 F150.00
G01 X12.4817 Y7.7629 F150.00
G01 X12.4882 Y7.7625 F150.00
G01 X17.0217 Y7.7626 F150.00
G01 X17.0310 Y7.7642 F150.00
G01 X17.1067 Y7.7845 F150.00
G01 X17.1136 Y7.7871 F150.00
G01 X17.1211 Y7.7914 F150.00
G01 X17.1579 Y7.8199 F150.00
G01 X17.2960 Y7.9580 F150.00
G01 X17.5249 Y8.1336 F150.00
G01 X17.7747 Y8.2778 F150.00
G01 X18.0412 Y8.3882 F150.00
G01 X18.3198 Y8.4629 F150.00
G01 X18.6058 Y8.5005 F150.00
G01 X18.8942 Y8.5005 F150.00
G01 X19.1802 Y8.4629 F150.00
G01 X19.4589 Y8.3882 F150.00
G01 X19.7254 Y8.2778 F150.00
G01 X19.9752 Y8.1336 F150.00
G01 X20.2040 Y7.9580 F150.00
G01 X20.4080 Y7.7540 F150.00
G01 X20.5836 Y7.5252 F150.00
G01 X20.7278 Y7.2754 F150.00
G01 X20.8382 Y7.0089 F150.00
G01 X20.9129 Y6.7302 F150.00
G01 X20.9505 Y6.4442 F150.00
G01 X20.9505 Y6.1558 F150.00
G01 X20.9129 Y5.8698 F150.00
G01 X20.8382 Y5.5912 F150.00
G01 X20.7278 Y5.3247 F150.00
G01 X20.5836 Y5.0749 F150.00
G01 X20.4080 Y4.8460 F150.00
G01 X20.2040 Y4.6420 F150.00
G01 X19.9752 Y4.4664 F150.00
G01 X19.7254 Y4.3222 F150.00
G01 X19.4589 Y4.2118 F150.00
G01 X19.1802 Y4.1372 F150.00
G01 X18.8942 Y4.0995 F150.00
G01 X18.6058 Y4.0995 F150.00
G01 X18.3198 Y4.1372 F150.00
G01 X18.0412 Y4.2118 F150.00
G01 X17.7747 Y4.3222 F150.00
G01 X17.5249 Y4.4664 F150.00
G01 X17.2960 Y4.6420 F150.00
G01 X17.1588 Y4.7792 F150.00
G01 X17.1534 Y4.7839 F150.00
G01 X17.1485 Y4.7872 F150.00
G01 X17.0817 Y4.8257 F150.00
G01 X17.0762 Y4.8285 F150.00
G01 X17.0704 Y4.8305 F150.00
G01 X17.0644 Y4.8318 F150.00
G01 X17.0233 Y4.8372 F150.00
G01 X17.0181 Y4.8375 F150.00
G01 X11.6849 Y4.8375 F150.00
G01 X11.4575 Y4.8735 F150.00
G01 X11.2386 Y4.9447 F150.00
G01 X11.0335 Y5.0492 F150.00
G01 X10.8473 Y5.1845 F150.00
G01 X5.8345 Y10.1973 F150.00
G01 X5.6992 Y10.3835 F150.00
G01 X5.5947 Y10.5886 F150.00
G01 X5.5235 Y10.8075 F150.00
G01 X5.4875 Y11.0349 F150.00
G01 X5.4875 Y21.5251 F150.00
G01 X5.5235 Y21.7525 F150.00
G01 X5.5947 Y21.9714 F150.00
G01 X5.6992 Y22.1765 F150.00
G01 X5.8345 Y22.3628 F150.00
G01 X10.8373 Y27.3655 F150.00
G01 X11.0235 Y27.5009 F150.00
G01 X11.2286 Y27.6054 F150.00
G01 X11.4475 Y27.6765 F150.00
G01 X11.6749 Y27.7125 F150.00
G01 X13.6076 Y27.7125 F150.00
G01 X13.6375 Y27.7150 F150.00
G01 X13.8619 Y27.7505 F150.00
G01 X14.0981 Y27.7505 F150.00
G01 X14.3314 Y27.7136 F150.00
G01 X14.5560 Y27.6406 F150.00
G01 X14.6215 Y27.6072 F150.00
G01 X14.6280 Y27.6044 F150.00
G01 X14.7002 Y27.5869 F150.00
G01 X14.7060 Y27.5859 F150.00
G01 X14.7107 Y27.5855 F150.00
G01 X22.7168 Y27.5856 F150.00
G01 X22.7215 Y27.5860 F150.00
G01 X22.7273 Y27.5872 F150.00
G01 X22.8018 Y27.6072 F150.00
G01 X22.8077 Y27.6091 F150.00
G01 X22.8132 Y27.6118 F150.00
G01 X22.8184 Y27.6151 F150.00
G01 X22.8542 Y27.6429 F150.00
G01 X23.2161 Y28.0049 F150.00
G01 X23.2218 Y28.0125 F150.00
G01 X23.2622 Y28.0825 F150.00
G01 X23.2642 Y28.0871 F150.00
G01 X23.2662 Y28.0930 F150.00
G01 X23.2673 Y28.0991 F150.00
G01 X23.2677 Y28.1041 F150.00
G01 X23.2677 Y28.1837 F150.00
G01 X23.2671 Y28.1899 F150.00
G01 X23.2658 Y28.1960 F150.00
G01 X23.2638 Y28.2019 F150.00
G01 X23.2610 Y28.2075 F150.00
G01 X23.2218 Y28.2753 F150.00
G01 X23.2190 Y28.2794 F150.00
G01 X23.2150 Y28.2841 F150.00
G01 X23.2085 Y28.2897 F150.00
G01 X23.1687 Y28.3186 F150.00
G01 X23.1436 Y28.3317 F150.00
G01 X22.9525 Y28.4705 F150.00
G01 X22.8714 Y28.5516 F150.00
G01 X22.8651 Y28.5569 F150.00
G01 X22.7921 Y28.5993 F150.00
G01 X22.7828 Y28.6029 F150.00
G01 X22.7767 Y28.6042 F150.00
G01 X22.7718 Y28.6047 F150.00
G01 X22.6909 Y28.6048 F150.00
G01 X22.6847 Y28.6042 F150.00
G01 X22.6786 Y28.6029 F150.00
G01 X22.6739 Y28.6013 F150.00
G01 X22.6682 Y28.5987 F150.00
G01 X22.5978 Y28.5579 F150.00
G01 X22.5938 Y28.5549 F150.00
G01 X22.5900 Y28.5516 F150.00
G01 X22.4327 Y28.3942 F150.00
G01 X22.2289 Y28.2461 F150.00
G01 X22.0044 Y28.1318 F150.00
G01 X21.7648 Y28.0539 F150.00
G01 X21.5160 Y28.0145 F150.00
G01 X21.2641 Y28.0145 F150.00
G01 X21.0152 Y28.0539 F150.00
G01 X20.7756 Y28.1318 F150.00
G01 X20.5512 Y28.2461 F150.00
G01 X20.3474 Y28.3942 F150.00
G01 X20.1692 Y28.5724 F150.00
G01 X20.0211 Y28.7762 F150.00
G01 X19.9068 Y29.0006 F150.00
G01 X19.8906 Y29.0505 F150.00
G01 X19.8874 Y29.0581 F150.00
G01 X19.8487 Y29.1215 F150.00
G01 X19.8428 Y29.1289 F150.00
G01 X18.0425 Y30.9292 F150.00
G01 X18.0371 Y30.9339 F150.00
G01 X18.0322 Y30.9372 F150.00
G01 X17.9643 Y30.9763 F150.00
G01 X17.9553 Y30.9802 F150.00
G01 X17.9469 Y30.9820 F150.00
G01 X17.9083 Y30.9871 F150.00
G01 X17.9018 Y30.9875 F150.00
G01 X13.1517 Y30.9875 F150.00
G01 X13.1424 Y30.9864 F150.00
G01 X13.0842 Y30.9724 F150.00
G01 X13.0745 Y30.9705 F150.00
G01 X13.0648 Y30.9669 F150.00
G01 X12.8248 Y30.8889 F150.00
G01 X12.5760 Y30.8495 F150.00
G01 X12.3241 Y30.8495 F150.00
G01 X12.0752 Y30.8889 F150.00
G01 X11.8356 Y30.9668 F150.00
G01 X11.6112 Y31.0811 F150.00
G01 X11.4074 Y31.2292 F150.00
G01 X11.2292 Y31.4074 F150.00
G01 X11.0811 Y31.6112 F150.00
G01 X10.9887 Y31.7925 F150.00
G01 X11.0511 Y31.8490 F150.00
G01 X11.1071 Y31.9108 F150.00
G01 X11.1568 Y31.9778 F150.00
G01 X11.2007 Y32.0515 F150.00
G01 X11.2362 Y32.1270 F150.00
G01 X11.2634 Y32.2033 F150.00
G01 X11.2831 Y32.2818 F150.00
G01 X11.2959 Y32.3667 F150.00
G01 X11.3000 Y32.4500 F150.00
G01 X11.2959 Y32.5333 F150.00
G01 X11.2831 Y32.6182 F150.00
G01 X11.2634 Y32.6968 F150.00
G01 X11.2362 Y32.7730 F150.00
G01 X11.2007 Y32.8485 F150.00
G01 X11.1568 Y32.9222 F150.00
G01 X11.1071 Y32.9892 F150.00
G01 X11.0511 Y33.0511 F150.00
G01 X10.9887 Y33.1075 F150.00
G01 X11.0811 Y33.2889 F150.00
G01 X11.2292 Y33.4927 F150.00
G01 X11.4074 Y33.6708 F150.00
G01 X11.6112 Y33.8189 F150.00
G01 X11.8356 Y33.9333 F150.00
G01 X12.0752 Y34.0111 F150.00
G01 X12.3241 Y34.0505 F150.00
G01 X12.5760 Y34.0505 F150.00
G01 X12.8248 Y34.0111 F150.00
G01 X13.0648 Y33.9331 F150.00
G01 X13.0743 Y33.9296 F150.00
G01 X13.1416 Y33.9138 F150.00
G01 X13.1466 Y33.9129 F150.00
G01 X13.1516 Y33.9125 F150.00
G01 X18.7051 Y33.9125 F150.00
G01 X18.9325 Y33.8765 F150.00
G01 X19.1514 Y33.8054 F150.00
G01 X19.3565 Y33.7009 F150.00
G01 X19.5428 Y33.5655 F150.00
G01 X21.9956 Y31.1128 F150.00
G01 X22.0373 Y31.0822 F150.00
G01 X22.0429 Y31.0787 F150.00
G01 X22.1782 Y31.0097 F150.00
G01 X22.1836 Y31.0073 F150.00
G01 X22.1882 Y31.0059 F150.00
G01 X22.2671 Y30.9891 F150.00
G01 X22.2733 Y30.9883 F150.00
G01 X22.2795 Y30.9883 F150.00
G01 X22.2857 Y30.9891 F150.00
G01 X22.2906 Y30.9903 F150.00
G01 X22.3675 Y31.0153 F150.00
G01 X22.3764 Y31.0198 F150.00
G01 X22.3814 Y31.0234 F150.00
G01 X22.3851 Y31.0268 F150.00
G01 X22.4384 Y31.0859 F150.00
G01 X22.4443 Y31.0939 F150.00
G01 X22.4476 Y31.1006 F150.00
G01 X22.4499 Y31.1077 F150.00
G01 X22.4664 Y31.1765 F150.00
G01 X22.4675 Y31.1858 F150.00
G01 X22.4675 Y34.8951 F150.00
G01 X22.5035 Y35.1225 F150.00
G01 X22.5747 Y35.3414 F150.00
G01 X22.6792 Y35.5465 F150.00
G01 X22.8145 Y35.7328 F150.00
G01 X23.1037 Y36.0220 F150.00
G01 X23.1074 Y36.0267 F150.00
G01 X23.1100 Y36.0307 F150.00
G01 X23.1485 Y36.0974 F150.00
G01 X23.1518 Y36.1042 F150.00
G01 X23.1542 Y36.1125 F150.00
G01 X23.1552 Y36.1212 F150.00
G01 X23.1552 Y36.2008 F150.00
G01 X23.1548 Y36.2058 F150.00
G01 X23.1537 Y36.2119 F150.00
G01 X23.1518 Y36.2178 F150.00
G01 X23.1491 Y36.2235 F150.00
G01 X23.1093 Y36.2924 F150.00
G01 X23.1057 Y36.2975 F150.00
G01 X23.1016 Y36.3022 F150.00
G01 X23.0978 Y36.3055 F150.00
G01 X23.0927 Y36.3090 F150.00
G01 X23.0205 Y36.3505 F150.00
G01 X23.0148 Y36.3527 F150.00
G01 X23.0076 Y36.3543 F150.00
G01 X22.9678 Y36.3596 F150.00
G01 X22.9613 Y36.3600 F150.00
G01 X20.7697 Y36.3600 F150.00
G01 X20.7638 Y36.3597 F150.00
G01 X20.7580 Y36.3586 F150.00
G01 X20.6799 Y36.3377 F150.00
G01 X20.6731 Y36.3349 F150.00
G01 X20.6668 Y36.3312 F150.00
G01 X20.6339 Y36.3060 F150.00
G01 X20.6290 Y36.3017 F150.00
G01 X19.7362 Y35.4089 F150.00
G01 X19.5511 Y35.2668 F150.00
G01 X19.3490 Y35.1502 F150.00
G01 X19.1334 Y35.0609 F150.00
G01 X18.9080 Y35.0005 F150.00
G01 X18.6767 Y34.9700 F150.00
G01 X8.1697 Y34.9700 F150.00
G01 X8.1614 Y34.9693 F150.00
G01 X8.0823 Y34.9483 F150.00
G01 X8.0754 Y34.9459 F150.00
G01 X8.0699 Y34.9431 F150.00
G01 X8.0658 Y34.9405 F150.00
G01 X8.0339 Y34.9160 F150.00
G01 X8.0290 Y34.9117 F150.00
G01 X5.6583 Y32.5410 F150.00
G01 X5.6544 Y32.5366 F150.00
G01 X5.6504 Y32.5306 F150.00
G01 X5.6112 Y32.4628 F150.00
G01 X5.6086 Y32.4572 F150.00
G01 X5.6070 Y32.4526 F150.00
G01 X5.6055 Y32.4454 F150.00
G01 X5.6004 Y32.4068 F150.00
G01 X5.6000 Y32.4003 F150.00
G01 X5.6000 Y26.1333 F150.00
G01 X5.5696 Y25.9020 F150.00
G01 X5.5092 Y25.6766 F150.00
G01 X5.4199 Y25.4610 F150.00
G01 X5.3032 Y25.2590 F150.00
G01 X5.1612 Y25.0739 F150.00
G01 X4.9962 Y24.9089 F150.00
G01 X4.8111 Y24.7668 F150.00
G01 X4.6090 Y24.6502 F150.00
G01 X4.3934 Y24.5609 F150.00
G01 X4.1680 Y24.5005 F150.00
G01 X3.9367 Y24.4700 F150.00
G01 X3.7033 Y24.4700 F150.00
G01 X3.4720 Y24.5005 F150.00
G01 X3.2466 Y24.5609 F150.00
G01 X3.0310 Y24.6502 F150.00
G01 X2.8290 Y24.7668 F150.00
G01 X2.6439 Y24.9089 F150.00
G01 X2.4589 Y25.0939 F150.00
G01 X2.3168 Y25.2790 F150.00
G01 X2.2002 Y25.4810 F150.00
G01 X2.1109 Y25.6966 F150.00
G01 X2.0505 Y25.9220 F150.00
G01 X2.0200 Y26.1533 F150.00
G01 X2.0200 Y26.3867 F150.00
G01 X2.0383 Y26.5257 F150.00
G01 X2.0400 Y26.5516 F150.00
G01 X2.0400 Y33.3367 F150.00
G01 X2.0705 Y33.5680 F150.00
G01 X2.1309 Y33.7934 F150.00
G01 X2.2202 Y34.0090 F150.00
G01 X2.3368 Y34.2111 F150.00
G01 X2.4789 Y34.3962 F150.00
G01 X6.1739 Y38.0912 F150.00
G01 X6.3590 Y38.2332 F150.00
G01 X6.5610 Y38.3499 F150.00
G01 X6.7766 Y38.4392 F150.00
G01 X7.0020 Y38.4996 F150.00
G01 X7.2333 Y38.5300 F150.00
G01 X17.7403 Y38.5300 F150.00
G01 X17.7462 Y38.5304 F150.00
G01 X17.7532 Y38.5317 F150.00
G01 X17.8277 Y38.5517 F150.00
G01 X17.8347 Y38.5541 F150.00
G01 X17.8391 Y38.5563 F150.00
G01 X17.8442 Y38.5596 F150.00
G01 X17.8791 Y38.5865 F150.00
G01 X18.7739 Y39.4812 F150.00
G01 X18.9590 Y39.6232 F150.00
G01 X19.1610 Y39.7399 F150.00
G01 X19.3766 Y39.8292 F150.00
G01 X19.6020 Y39.8896 F150.00
G01 X19.8333 Y39.9200 F150.00
G01 X38.6767 Y39.9200 F150.00
G01 X38.9080 Y39.8896 F150.00
G01 X39.1334 Y39.8292 F150.00
G01 X39.3490 Y39.7399 F150.00
G01 X39.5510 Y39.6232 F150.00
G01 X39.7362 Y39.4812 F150.00
G01 X39.9012 Y39.3162 F150.00
G01 X40.0432 Y39.1310 F150.00
G01 X40.1599 Y38.9290 F150.00
G01 X40.2492 Y38.7134 F150.00
G01 X40.3038 Y38.5094 F150.00
G01 X40.3068 Y38.5013 F150.00
G01 X40.3347 Y38.4450 F150.00
G01 X40.3382 Y38.4397 F150.00
G01 X40.3832 Y38.3811 F150.00
G01 X40.4999 Y38.1790 F150.00
G01 X40.5892 Y37.9634 F150.00
G01 X40.6496 Y37.7380 F150.00
G01 X40.6800 Y37.5067 F150.00
G01 X40.6800 Y37.2733 F150.00
G01 X40.6496 Y37.0420 F150.00
G01 X40.5892 Y36.8166 F150.00
G01 X40.4999 Y36.6010 F150.00
G01 X40.3832 Y36.3990 F150.00
G01 X40.2412 Y36.2139 F150.00
G01 X40.0762 Y36.0489 F150.00
G01 X39.8911 Y35.9068 F150.00
G01 X39.6890 Y35.7902 F150.00
G01 X39.4734 Y35.7009 F150.00
G01 X39.2480 Y35.6405 F150.00
G01 X39.0167 Y35.6100 F150.00
G01 X38.7833 Y35.6100 F150.00
G01 X38.5520 Y35.6405 F150.00
G01 X38.3266 Y35.7009 F150.00
G01 X38.1111 Y35.7901 F150.00
G01 X37.9090 Y35.9068 F150.00
G01 X37.7239 Y36.0489 F150.00
G01 X37.4710 Y36.3017 F150.00
G01 X37.4666 Y36.3057 F150.00
G01 X37.4606 Y36.3097 F150.00
G01 X37.3938 Y36.3482 F150.00
G01 X37.3872 Y36.3514 F150.00
G01 X37.3826 Y36.3530 F150.00
G01 X37.3766 Y36.3543 F150.00
G01 X37.3329 Y36.3599 F150.00
G01 X31.7948 Y36.3600 F150.00
G01 X31.7888 Y36.3595 F150.00
G01 X31.7842 Y36.3586 F150.00
G01 X31.7085 Y36.3383 F150.00
G01 X31.7026 Y36.3364 F150.00
G01 X31.6970 Y36.3337 F150.00
G01 X31.6908 Y36.3295 F150.00
G01 X31.6861 Y36.3254 F150.00
G01 X31.6307 Y36.2700 F150.00
G01 X31.6246 Y36.2621 F150.00
G01 X31.6216 Y36.2566 F150.00
G01 X31.6189 Y36.2497 F150.00
G01 X31.5983 Y36.1727 F150.00
G01 X31.5973 Y36.1666 F150.00
G01 X31.5969 Y36.1616 F150.00
G01 X31.5978 Y36.1517 F150.00
G01 X31.6186 Y36.0736 F150.00
G01 X31.6221 Y36.0643 F150.00
G01 X31.6252 Y36.0589 F150.00
G01 X31.6289 Y36.0540 F150.00
G01 X31.6720 Y36.0062 F150.00
G01 X31.6790 Y36.0000 F150.00
G01 X31.8228 Y35.8955 F150.00
G01 X33.8655 Y33.8528 F150.00
G01 X34.0009 Y33.6665 F150.00
G01 X34.1054 Y33.4614 F150.00
G01 X34.1765 Y33.2425 F150.00
G01 X34.2125 Y33.0151 F150.00
G01 X34.2125 Y26.5349 F150.00
G01 X34.1765 Y26.3075 F150.00
G01 X34.1054 Y26.0886 F150.00
G01 X34.0009 Y25.8835 F150.00
G01 X33.8655 Y25.6973 F150.00
G01 X31.7028 Y23.5345 F150.00
G01 X31.5165 Y23.3992 F150.00
G01 X31.3114 Y23.2947 F150.00
G01 X31.0925 Y23.2235 F150.00
G01 X30.8651 Y23.1875 F150.00
G01 X28.8382 Y23.1875 F150.00
G01 X28.8288 Y23.1866 F150.00
G01 X28.7496 Y23.1655 F150.00
G01 X28.7416 Y23.1624 F150.00
G01 X28.7343 Y23.1580 F150.00
G01 X28.7024 Y23.1335 F150.00
G01 X28.6975 Y23.1292 F150.00
G01 X28.4087 Y22.8404 F150.00
G01 X28.4003 Y22.8390 F150.00
G01 X28.3741 Y22.8324 F150.00
G01 X28.3441 Y22.8217 F150.00
G01 X28.3186 Y22.8096 F150.00
G01 X28.2954 Y22.7958 F150.00
G01 X28.2697 Y22.7769 F150.00
G01 X28.2479 Y22.7571 F150.00
G01 X28.2281 Y22.7353 F150.00
G01 X28.2106 Y22.7117 F150.00
G01 X28.1960 Y22.6875 F150.00
G01 X28.1828 Y22.6598 F150.00
G01 X28.1737 Y22.6344 F150.00
G01 X28.1663 Y22.6059 F150.00
G01 X28.1647 Y22.5964 F150.00
G01 X28.0002 Y22.4318 F150.00
G01 X27.9947 Y22.4240 F150.00
G01 X27.9562 Y22.3572 F150.00
G01 X27.9529 Y22.3505 F150.00
G01 X27.9507 Y22.3434 F150.00
G01 X27.9496 Y22.3361 F150.00
G01 X27.9463 Y22.2683 F150.00
G01 X27.9468 Y22.2625 F150.00
G01 X27.9705 Y22.1131 F150.00
G01 X27.9705 Y21.8769 F150.00
G01 X27.9336 Y21.6436 F150.00
G01 X27.8606 Y21.4190 F150.00
G01 X27.7534 Y21.2086 F150.00
G01 X27.6145 Y21.0175 F150.00
G01 X27.5223 Y20.9252 F150.00
G01 X27.5183 Y20.9208 F150.00
G01 X27.5143 Y20.9149 F150.00
G01 X27.4746 Y20.8459 F150.00
G01 X27.4725 Y20.8413 F150.00
G01 X27.4706 Y20.8354 F150.00
G01 X27.4691 Y20.8256 F150.00
G01 X27.4691 Y20.7447 F150.00
G01 X27.4703 Y20.7348 F150.00
G01 X27.4721 Y20.7288 F150.00
G01 X27.4751 Y20.7220 F150.00
G01 X27.5149 Y20.6531 F150.00
G01 X27.5210 Y20.6451 F150.00
G01 X27.5274 Y20.6393 F150.00
G01 X27.5326 Y20.6359 F150.00
G01 X27.5994 Y20.5973 F150.00
G01 X27.6060 Y20.5941 F150.00
G01 X27.6119 Y20.5922 F150.00
G01 X27.6167 Y20.5912 F150.00
G01 X27.6564 Y20.5859 F150.00
G01 X27.6630 Y20.5855 F150.00
G01 X38.9385 Y20.5855 F150.00
G01 X38.9444 Y20.5859 F150.00
G01 X38.9503 Y20.5869 F150.00
G01 X39.0272 Y20.6075 F150.00
G01 X39.0364 Y20.6113 F150.00
G01 X39.0447 Y20.6168 F150.00
G01 X39.1038 Y20.6755 F150.00
G01 X39.1078 Y20.6803 F150.00
G01 X39.1112 Y20.6856 F150.00
G01 X39.1139 Y20.6912 F150.00
G01 X39.1158 Y20.6971 F150.00
G01 X39.1361 Y20.7727 F150.00
G01 X39.1370 Y20.7774 F150.00
G01 X39.1375 Y20.7833 F150.00
G01 X39.1375 Y22.5130 F150.00
G01 X39.1370 Y22.5189 F150.00
G01 X39.1358 Y22.5247 F150.00
G01 X39.1158 Y22.5992 F150.00
G01 X39.1139 Y22.6051 F150.00
G01 X39.1113 Y22.6106 F150.00
G01 X39.1080 Y22.6158 F150.00
G01 X39.0835 Y22.6476 F150.00
G01 X39.0792 Y22.6525 F150.00
G01 X37.7845 Y23.9473 F150.00
G01 X37.6492 Y24.1335 F150.00
G01 X37.5447 Y24.3386 F150.00
G01 X37.4735 Y24.5575 F150.00
G01 X37.4375 Y24.7849 F150.00
G01 X37.4374 Y27.4324 F150.00
G01 X37.4358 Y27.4418 F150.00
G01 X37.4158 Y27.5166 F150.00
G01 X37.4137 Y27.5226 F150.00
G01 X37.4109 Y27.5283 F150.00
G01 X37.3716 Y27.5963 F150.00
G01 X37.2863 Y27.8022 F150.00
G01 X37.2286 Y28.0176 F150.00
G01 X37.1995 Y28.2386 F150.00
G01 X37.1995 Y28.4615 F150.00
G01 X37.2286 Y28.6825 F150.00
G01 X37.2863 Y28.8978 F150.00
G01 X37.3716 Y29.1037 F150.00
G01 X37.4831 Y29.2968 F150.00
G01 X37.6188 Y29.4736 F150.00
G01 X37.7764 Y29.6313 F150.00
G01 X37.9532 Y29.7670 F150.00
G01 X38.1463 Y29.8784 F150.00
G01 X38.3522 Y29.9637 F150.00
G01 X38.5675 Y30.0214 F150.00
G01 X38.7886 Y30.0505 F150.00
G01 X39.0115 Y30.0505 F150.00
G01 X39.2325 Y30.0214 F150.00
G01 X39.4478 Y29.9637 F150.00
G01 X39.6537 Y29.8784 F150.00
G01 X39.8468 Y29.7670 F150.00
G01 X40.0236 Y29.6313 F150.00
G01 X40.1813 Y29.4736 F150.00
G01 X40.3170 Y29.2968 F150.00
G01 X40.4284 Y29.1037 F150.00
G01 X40.5137 Y28.8978 F150.00
G01 X40.5714 Y28.6825 F150.00
G01 X40.6005 Y28.4615 F150.00
G01 X40.6005 Y28.2386 F150.00
G01 X40.5714 Y28.0175 F150.00
G01 X40.5137 Y27.8022 F150.00
G01 X40.4284 Y27.5963 F150.00
G01 X40.3892 Y27.5283 F150.00
G01 X40.3861 Y27.5219 F150.00
G01 X40.3842 Y27.5163 F150.00
G01 X40.3642 Y27.4418 F150.00
G01 X40.3627 Y27.4336 F150.00
G01 X40.3625 Y25.5882 F150.00
G01 X40.3634 Y25.5788 F150.00
G01 X40.3842 Y25.5008 F150.00
G01 X40.3866 Y25.4938 F150.00
G01 X40.3888 Y25.4894 F150.00
G01 X40.3921 Y25.4843 F150.00
G01 X40.4199 Y25.4485 F150.00
G01 X41.7155 Y24.1528 F150.00
G01 X41.8509 Y23.9665 F150.00
G01 X41.9554 Y23.7614 F150.00
G01 X42.0265 Y23.5425 F150.00
G01 X42.0625 Y23.3151 F150.00
G01 X42.0625 Y20.7845 F150.00
G01 X42.0629 Y20.7786 F150.00
G01 X42.0642 Y20.7716 F150.00
G01 X42.0845 Y20.6959 F150.00
G01 X42.0883 Y20.6866 F150.00
G01 X42.0922 Y20.6803 F150.00
G01 X42.0971 Y20.6747 F150.00
G01 X42.1525 Y20.6192 F150.00
G01 X42.1563 Y20.6160 F150.00
G01 X42.1615 Y20.6125 F150.00
G01 X42.1682 Y20.6092 F150.00
G01 X42.1741 Y20.6072 F150.00
G01 X42.2497 Y20.5869 F150.00
G01 X42.2591 Y20.5856 F150.00
G01 X43.9156 Y20.5855 F150.00
G01 X43.9215 Y20.5860 F150.00
G01 X43.9273 Y20.5872 F150.00
G01 X44.0018 Y20.6072 F150.00
G01 X44.0077 Y20.6091 F150.00
G01 X44.0132 Y20.6118 F150.00
G01 X44.0184 Y20.6151 F150.00
G01 X44.0502 Y20.6395 F150.00
G01 X44.0551 Y20.6438 F150.00
G01 X46.0562 Y22.6449 F150.00
G01 X46.0602 Y22.6494 F150.00
G01 X46.0636 Y22.6542 F150.00
G01 X46.1033 Y22.7231 F150.00
G01 X46.1068 Y22.7310 F150.00
G01 X46.1086 Y22.7381 F150.00
G01 X46.1141 Y22.7791 F150.00
G01 X46.1145 Y22.7856 F150.00
G01 X46.1145 Y24.4551 F150.00
G01 X46.1474 Y24.6627 F150.00
G01 X46.2124 Y24.8627 F150.00
G01 X46.3078 Y25.0500 F150.00
G01 X46.4313 Y25.2200 F150.00
G01 X48.8300 Y27.6187 F150.00
G01 X49.0000 Y27.7422 F150.00
G01 X49.1874 Y27.8377 F150.00
G01 X49.3873 Y27.9026 F150.00
G01 X49.5949 Y27.9355 F150.00
G01 X53.1644 Y27.9355 F150.00
G01 X53.1703 Y27.9359 F150.00
G01 X53.1773 Y27.9372 F150.00
G01 X53.2530 Y27.9575 F150.00
G01 X53.2621 Y27.9612 F150.00
G01 X53.2693 Y27.9658 F150.00
G01 X53.3002 Y27.9895 F150.00
G01 X53.3051 Y27.9938 F150.00
G01 X54.2379 Y28.9266 F150.00
G01 X54.2419 Y28.9311 F150.00
G01 X54.2453 Y28.9360 F150.00
G01 X54.2862 Y29.0071 F150.00
G01 X54.2896 Y29.0164 F150.00
G01 X54.2911 Y29.0263 F150.00
G01 X54.2912 Y29.1059 F150.00
G01 X54.2904 Y29.1143 F150.00
G01 X54.2865 Y29.1288 F150.00
G01 X54.2389 Y29.2752 F150.00
G01 X54.1995 Y29.5241 F150.00
G01 X54.1995 Y29.7760 F150.00
G01 X54.2389 Y30.0248 F150.00
G01 X54.3168 Y30.2644 F150.00
G01 X54.4311 Y30.4889 F150.00
G01 X54.5792 Y30.6927 F150.00
G01 X54.7574 Y30.8708 F150.00
G01 X54.9612 Y31.0189 F150.00
G01 X55.1856 Y31.1333 F150.00
G01 X55.4252 Y31.2111 F150.00
G01 X55.6741 Y31.2505 F150.00
G01 X55.8820 Y31.2505 F150.00
G01 X55.8914 Y31.2517 F150.00
G01 X55.9063 Y31.2556 F150.00
G01 X55.9231 Y31.2557 F150.00
G01 X55.9293 Y31.2566 F150.00
G01 X55.9341 Y31.2578 F150.00
G01 X55.9422 Y31.2611 F150.00
G01 X55.9556 Y31.2688 F150.00
G01 X55.9718 Y31.2733 F150.00
G01 X55.9808 Y31.2775 F150.00
G01 X55.9888 Y31.2834 F150.00
G01 X55.9999 Y31.2943 F150.00
G01 X56.0133 Y31.3022 F150.00
G01 X56.0211 Y31.3084 F150.00
G01 X56.0275 Y31.3160 F150.00
G01 X56.0360 Y31.3304 F150.00
G01 X56.0469 Y31.3415 F150.00
G01 X56.0528 Y31.3495 F150.00
G01 X56.0570 Y31.3585 F150.00
G01 X56.0615 Y31.3747 F150.00
G01 X56.0692 Y31.3881 F150.00
G01 X56.0721 Y31.3950 F150.00
G01 X56.0737 Y31.4010 F150.00
G01 X56.0745 Y31.4060 F150.00
G01 X56.0747 Y31.4240 F150.00
G01 X56.0787 Y31.4390 F150.00
G01 X56.0798 Y31.4489 F150.00
G01 X56.0789 Y31.4588 F150.00
G01 X56.0747 Y31.4750 F150.00
G01 X56.0747 Y31.4906 F150.00
G01 X56.0732 Y31.5004 F150.00
G01 X56.0698 Y31.5098 F150.00
G01 X56.0615 Y31.5244 F150.00
G01 X56.0574 Y31.5393 F150.00
G01 X56.0535 Y31.5483 F150.00
G01 X56.0495 Y31.5545 F150.00
G01 X56.0250 Y31.5863 F150.00
G01 X56.0215 Y31.5902 F150.00
G01 X55.9325 Y31.6792 F150.00
G01 X55.9290 Y31.6824 F150.00
G01 X55.9242 Y31.6859 F150.00
G01 X55.8554 Y31.7257 F150.00
G01 X55.8487 Y31.7289 F150.00
G01 X55.8441 Y31.7305 F150.00
G01 X55.8381 Y31.7318 F150.00
G01 X55.7944 Y31.7374 F150.00
G01 X50.1012 Y31.7375 F150.00
G01 X50.0953 Y31.7372 F150.00
G01 X50.0894 Y31.7361 F150.00
G01 X50.0104 Y31.7148 F150.00
G01 X50.0017 Y31.7109 F150.00
G01 X49.9337 Y31.6716 F150.00
G01 X49.8228 Y31.6254 F150.00
G01 X49.7702 Y31.5905 F150.00
G01 X49.7635 Y31.5852 F150.00
G01 X46.3947 Y28.2164 F150.00
G01 X46.3909 Y28.2119 F150.00
G01 X46.3876 Y28.2069 F150.00
G01 X46.3490 Y28.1401 F150.00
G01 X46.3464 Y28.1348 F150.00
G01 X46.3440 Y28.1280 F150.00
G01 X46.3237 Y28.0522 F150.00
G01 X46.2384 Y27.8463 F150.00
G01 X46.1270 Y27.6532 F150.00
G01 X45.9913 Y27.4764 F150.00
G01 X45.8336 Y27.3188 F150.00
G01 X45.6568 Y27.1831 F150.00
G01 X45.4637 Y27.0716 F150.00
G01 X45.2578 Y26.9863 F150.00
G01 X45.0425 Y26.9286 F150.00
G01 X44.8215 Y26.8995 F150.00
G01 X44.5986 Y26.8995 F150.00
G01 X44.3776 Y26.9286 F150.00
G01 X44.1622 Y26.9863 F150.00
G01 X43.9563 Y27.0716 F150.00
G01 X43.7632 Y27.1831 F150.00
G01 X43.5864 Y27.3188 F150.00
G01 X43.4288 Y27.4764 F150.00
G01 X43.2931 Y27.6532 F150.00
G01 X43.1816 Y27.8463 F150.00
G01 X43.0963 Y28.0522 F150.00
G01 X43.0386 Y28.2676 F150.00
G01 X43.0095 Y28.4886 F150.00
G01 X43.0095 Y28.7115 F150.00
G01 X43.0386 Y28.9325 F150.00
G01 X43.0963 Y29.1478 F150.00
G01 X43.1816 Y29.3537 F150.00
G01 X43.2931 Y29.5468 F150.00
G01 X43.4288 Y29.7236 F150.00
G01 X43.5864 Y29.8813 F150.00
G01 X43.7632 Y30.0170 F150.00
G01 X43.9563 Y30.1284 F150.00
G01 X44.1622 Y30.2137 F150.00
G01 X44.2384 Y30.2341 F150.00
G01 X44.2444 Y30.2362 F150.00
G01 X44.2501 Y30.2390 F150.00
G01 X44.3179 Y30.2782 F150.00
G01 X44.3228 Y30.2816 F150.00
G01 X44.3273 Y30.2855 F150.00
G01 X47.4533 Y33.4118 F150.00
G01 X47.4588 Y33.4195 F150.00
G01 X47.4974 Y33.4863 F150.00
G01 X47.5011 Y33.4943 F150.00
G01 X47.5029 Y33.5004 F150.00
G01 X47.5069 Y33.5207 F150.00
G01 X47.5086 Y33.5325 F150.00
G01 X47.5663 Y33.7478 F150.00
G01 X47.6516 Y33.9537 F150.00
G01 X47.7631 Y34.1468 F150.00
G01 X47.8988 Y34.3236 F150.00
G01 X48.0564 Y34.4813 F150.00
G01 X48.2332 Y34.6170 F150.00
G01 X48.4263 Y34.7284 F150.00
G01 X48.6322 Y34.8137 F150.00
G01 X48.8475 Y34.8714 F150.00
G01 X49.0686 Y34.9005 F150.00
G01 X49.2915 Y34.9005 F150.00
G01 X49.5125 Y34.8714 F150.00
G01 X49.7278 Y34.8137 F150.00
G01 X49.9337 Y34.7284 F150.00
G01 X50.0017 Y34.6892 F150.00
G01 X50.0081 Y34.6861 F150.00
G01 X50.0138 Y34.6842 F150.00
G01 X50.0883 Y34.6642 F150.00
G01 X50.0941 Y34.6630 F150.00
G01 X50.1000 Y34.6625 F150.00
G01 X56.5951 Y34.6625 F150.00
G01 X56.8225 Y34.6265 F150.00
G01 X57.0414 Y34.5554 F150.00
G01 X57.2465 Y34.4509 F150.00
G01 X57.4328 Y34.3155 F150.00
G01 X59.4555 Y32.2928 F150.00
G01 X59.5909 Y32.1065 F150.00
G01 X59.6954 Y31.9014 F150.00
G01 X59.7665 Y31.6825 F150.00
G01 X59.8025 Y31.4551 F150.00
G01 X59.8025 Y31.2220 F150.00
G01 X59.8029 Y31.2161 F150.00
G01 X59.8039 Y31.2102 F150.00
G01 X59.8245 Y31.1334 F150.00
G01 X59.8266 Y31.1275 F150.00
G01 X59.8295 Y31.1220 F150.00
G01 X59.8322 Y31.1178 F150.00
G01 X59.8362 Y31.1131 F150.00
G01 X59.8954 Y31.0543 F150.00
G01 X59.9026 Y31.0494 F150.00
G01 X59.9117 Y31.0454 F150.00
G01 X59.9898 Y31.0244 F150.00
G01 X59.9959 Y31.0233 F150.00
G01 X60.0021 Y31.0230 F150.00
G01 X60.0083 Y31.0235 F150.00
G01 X60.0132 Y31.0244 F150.00
G01 X60.0808 Y31.0406 F150.00
G01 X60.0887 Y31.0432 F150.00
G01 X60.2656 Y31.1333 F150.00
G01 X60.5052 Y31.2111 F150.00
G01 X60.7541 Y31.2505 F150.00
G01 X61.0060 Y31.2505 F150.00
G01 X61.2548 Y31.2111 F150.00
G01 X61.4944 Y31.1333 F150.00
G01 X61.7189 Y31.0189 F150.00
G01 X61.9227 Y30.8708 F150.00
G01 X62.1008 Y30.6927 F150.00
G01 X62.2489 Y30.4889 F150.00
G01 X62.3633 Y30.2644 F150.00
G01 X62.4411 Y30.0248 F150.00
G01 X62.4805 Y29.7760 F150.00
G01 X62.4805 Y29.5241 F150.00
G01 X62.4411 Y29.2752 F150.00
G01 X62.3633 Y29.0356 F150.00
G01 X62.3017 Y28.9148 F150.00
G01 X62.2911 Y28.8896 F150.00
G01 X62.2354 Y28.7186 F150.00
G01 X62.1309 Y28.5135 F150.00
G01 X61.9955 Y28.3273 F150.00
G01 X60.8435 Y27.1752 F150.00
G01 X60.8381 Y27.1689 F150.00
G01 X60.7964 Y27.0970 F150.00
G01 X60.7938 Y27.0913 F150.00
G01 X60.7919 Y27.0854 F150.00
G01 X60.7907 Y27.0793 F150.00
G01 X60.7903 Y27.0743 F150.00
G01 X60.7903 Y26.9959 F150.00
G01 X60.7909 Y26.9885 F150.00
G01 X60.7922 Y26.9824 F150.00
G01 X60.7938 Y26.9777 F150.00
G01 X60.7964 Y26.9720 F150.00
G01 X60.8356 Y26.9042 F150.00
G01 X60.8390 Y26.8990 F150.00
G01 X60.8431 Y26.8942 F150.00
G01 X60.8477 Y26.8901 F150.00
G01 X60.8539 Y26.8859 F150.00
G01 X60.9207 Y26.8473 F150.00
G01 X60.9296 Y26.8432 F150.00
G01 X60.9391 Y26.8410 F150.00
G01 X60.9777 Y26.8359 F150.00
G01 X60.9842 Y26.8355 F150.00
G01 X62.9144 Y26.8355 F150.00
G01 X62.9215 Y26.8360 F150.00
G01 X62.9273 Y26.8372 F150.00
G01 X63.0030 Y26.8575 F150.00
G01 X63.0121 Y26.8612 F150.00
G01 X63.0193 Y26.8658 F150.00
G01 X63.0502 Y26.8895 F150.00
G01 X63.0551 Y26.8938 F150.00
G01 X65.0571 Y28.8958 F150.00
G01 X65.0609 Y28.9003 F150.00
G01 X65.0642 Y28.9053 F150.00
G01 X65.1027 Y28.9721 F150.00
G01 X65.1055 Y28.9775 F150.00
G01 X65.1075 Y28.9833 F150.00
G01 X65.1088 Y28.9893 F150.00
G01 X65.1144 Y29.0330 F150.00
G01 X65.1145 Y31.6155 F150.00
G01 X65.1142 Y31.6214 F150.00
G01 X65.1131 Y31.6273 F150.00
G01 X65.0925 Y31.7042 F150.00
G01 X65.0893 Y31.7123 F150.00
G01 X65.0848 Y31.7197 F150.00
G01 X65.0799 Y31.7254 F150.00
G01 X65.0245 Y31.7808 F150.00
G01 X65.0197 Y31.7848 F150.00
G01 X65.0145 Y31.7882 F150.00
G01 X65.0089 Y31.7909 F150.00
G01 X65.0030 Y31.7928 F150.00
G01 X64.9273 Y31.8131 F150.00
G01 X64.9179 Y31.8145 F150.00
G01 X62.5449 Y31.8145 F150.00
G01 X62.3373 Y31.8474 F150.00
G01 X62.1374 Y31.9124 F150.00
G01 X61.9501 Y32.0078 F150.00
G01 X61.7800 Y32.1313 F150.00
G01 X60.2513 Y33.6600 F150.00
G01 X60.1278 Y33.8300 F150.00
G01 X60.0324 Y34.0174 F150.00
G01 X59.9674 Y34.2173 F150.00
G01 X59.9345 Y34.4249 F150.00
G01 X59.9343 Y36.0758 F150.00
G01 X59.9328 Y36.0840 F150.00
G01 X59.9128 Y36.1585 F150.00
G01 X59.9104 Y36.1655 F150.00
G01 X59.9075 Y36.1711 F150.00
G01 X59.9048 Y36.1752 F150.00
G01 X59.9008 Y36.1800 F150.00
G01 X59.8454 Y36.2354 F150.00
G01 X59.8397 Y36.2403 F150.00
G01 X59.8334 Y36.2443 F150.00
G01 X59.8242 Y36.2480 F150.00
G01 X59.7485 Y36.2683 F150.00
G01 X59.7426 Y36.2695 F150.00
G01 X59.7355 Y36.2700 F150.00
G01 X47.1174 Y36.2700 F150.00
G01 X47.1080 Y36.2686 F150.00
G01 X47.0311 Y36.2480 F150.00
G01 X47.0231 Y36.2449 F150.00
G01 X47.0158 Y36.2405 F150.00
G01 X46.9800 Y36.2126 F150.00
G01 X46.8262 Y36.0589 F150.00
G01 X46.6411 Y35.9168 F150.00
G01 X46.4390 Y35.8002 F150.00
G01 X46.2234 Y35.7109 F150.00
G01 X45.9980 Y35.6505 F150.00
G01 X45.7667 Y35.6200 F150.00
G01 X45.5333 Y35.6200 F150.00
G01 X45.3020 Y35.6505 F150.00
G01 X45.0766 Y35.7109 F150.00
G01 X44.8610 Y35.8002 F150.00
G01 X44.6590 Y35.9168 F150.00
G01 X44.4739 Y36.0589 F150.00
G01 X44.3089 Y36.2239 F150.00
G01 X44.1668 Y36.4090 F150.00
G01 X44.0502 Y36.6110 F150.00
G01 X43.9609 Y36.8266 F150.00
G01 X43.9005 Y37.0520 F150.00
G01 X43.8700 Y37.2833 F150.00
G01 X43.8700 Y37.5167 F150.00
G01 X43.9005 Y37.7480 F150.00
G01 X43.9536 Y37.9463 F150.00
G01 X43.9609 Y37.9734 F150.00
G01 X44.0502 Y38.1890 F150.00
G01 X44.1668 Y38.3911 F150.00
G01 X44.3089 Y38.5762 F150.00
G01 X45.1239 Y39.3912 F150.00
G01 X45.3090 Y39.5332 F150.00
G01 X45.5110 Y39.6499 F150.00
G01 X45.7266 Y39.7392 F150.00
G01 X45.9520 Y39.7996 F150.00
G01 X46.1833 Y39.8300 F150.00
G01 X66.4667 Y39.8300 F150.00
G01 X66.6980 Y39.7996 F150.00
G01 X66.9234 Y39.7392 F150.00
G01 X67.1390 Y39.6499 F150.00
G01 X67.3410 Y39.5332 F150.00
G01 X67.5262 Y39.3912 F150.00
G01 X67.6912 Y39.2262 F150.00
G01 X67.7446 Y39.1565 F150.00
G01 X67.8332 Y39.0411 F150.00
G01 X67.9499 Y38.8390 F150.00
G01 X68.0392 Y38.6234 F150.00
G01 X68.0996 Y38.3980 F150.00
G01 X68.1300 Y38.1667 F150.00
G01 X68.1300 Y37.9333 F150.00
G01 X68.0996 Y37.7020 F150.00
G01 X68.0392 Y37.4766 F150.00
G01 X67.9499 Y37.2610 F150.00
G01 X67.8332 Y37.0590 F150.00
G01 X67.6912 Y36.8739 F150.00
G01 X67.5262 Y36.7089 F150.00
G01 X67.3411 Y36.5668 F150.00
G01 X67.1390 Y36.4502 F150.00
G01 X66.9234 Y36.3609 F150.00
G01 X66.6980 Y36.3005 F150.00
G01 X66.4667 Y36.2700 F150.00
G01 X62.8045 Y36.2700 F150.00
G01 X62.7986 Y36.2697 F150.00
G01 X62.7927 Y36.2686 F150.00
G01 X62.7135 Y36.2472 F150.00
G01 X62.7078 Y36.2448 F150.00
G01 X62.7034 Y36.2424 F150.00
G01 X62.6955 Y36.2363 F150.00
G01 X62.6392 Y36.1800 F150.00
G01 X62.6331 Y36.1721 F150.00
G01 X62.6302 Y36.1666 F150.00
G01 X62.6275 Y36.1597 F150.00
G01 X62.6072 Y36.0840 F150.00
G01 X62.6057 Y36.0758 F150.00
G01 X62.6057 Y35.1609 F150.00
G01 X62.6072 Y35.1527 F150.00
G01 X62.6272 Y35.0782 F150.00
G01 X62.6296 Y35.0712 F150.00
G01 X62.6318 Y35.0668 F150.00
G01 X62.6351 Y35.0617 F150.00
G01 X62.6629 Y35.0258 F150.00
G01 X63.1458 Y34.5430 F150.00
G01 X63.1494 Y34.5399 F150.00
G01 X63.1542 Y34.5365 F150.00
G01 X63.2221 Y34.4973 F150.00
G01 X63.2275 Y34.4946 F150.00
G01 X63.2333 Y34.4925 F150.00
G01 X63.2405 Y34.4910 F150.00
G01 X63.2791 Y34.4859 F150.00
G01 X63.2856 Y34.4855 F150.00
G01 X66.4551 Y34.4855 F150.00
G01 X66.6627 Y34.4526 F150.00
G01 X66.8627 Y34.3877 F150.00
G01 X67.0500 Y34.2922 F150.00
G01 X67.2200 Y34.1687 F150.00
G01 X67.4687 Y33.9200 F150.00
G01 X67.5922 Y33.7500 F150.00
G01 X67.6877 Y33.5627 F150.00
G01 X67.7526 Y33.3627 F150.00
G01 X67.7855 Y33.1551 F150.00
G01 X67.7855 Y28.2949 F150.00
G01 X67.7526 Y28.0873 F150.00
G01 X67.6877 Y27.8874 F150.00
G01 X67.5922 Y27.7001 F150.00
G01 X67.4687 Y27.5300 F150.00
G01 X64.4200 Y24.4814 F150.00
G01 X64.2500 Y24.3578 F150.00
G01 X64.0627 Y24.2624 F150.00
G01 X63.8627 Y24.1974 F150.00
G01 X63.6551 Y24.1645 F150.00
G01 X60.9356 Y24.1645 F150.00
G01 X60.9262 Y24.1636 F150.00
G01 X60.9101 Y24.1594 F150.00
G01 X60.8958 Y24.1594 F150.00
G01 X60.8896 Y24.1589 F150.00
G01 X60.8835 Y24.1576 F150.00
G01 X60.8765 Y24.1550 F150.00
G01 X60.8608 Y24.1462 F150.00
G01 X60.8458 Y24.1422 F150.00
G01 X60.8368 Y24.1383 F150.00
G01 X60.8307 Y24.1342 F150.00
G01 X60.7988 Y24.1097 F150.00
G01 X60.7949 Y24.1062 F150.00
G01 X60.6589 Y23.9702 F150.00
G01 X60.6542 Y23.9648 F150.00
G01 X60.6510 Y23.9599 F150.00
G01 X60.6118 Y23.8920 F150.00
G01 X60.6092 Y23.8863 F150.00
G01 X60.6076 Y23.8816 F150.00
G01 X60.6063 Y23.8755 F150.00
G01 X60.6057 Y23.8693 F150.00
G01 X60.6059 Y23.7860 F150.00
G01 X60.6079 Y23.7762 F150.00
G01 X60.6118 Y23.7670 F150.00
G01 X60.6516 Y23.6981 F150.00
G01 X60.6576 Y23.6901 F150.00
G01 X60.6631 Y23.6851 F150.00
G01 X60.6693 Y23.6809 F150.00
G01 X60.7371 Y23.6417 F150.00
G01 X60.7462 Y23.6379 F150.00
G01 X60.7545 Y23.6360 F150.00
G01 X60.7983 Y23.6305 F150.00
G01 X61.0060 Y23.6305 F150.00
G01 X61.2548 Y23.5911 F150.00
G01 X61.4948 Y23.5131 F150.00
G01 X61.5043 Y23.5096 F150.00
G01 X61.5716 Y23.4938 F150.00
G01 X61.5803 Y23.4926 F150.00
G01 X66.2094 Y23.4925 F150.00
G01 X66.2490 Y23.4490 F150.00
G01 X66.3117 Y23.3922 F150.00
G01 X66.3778 Y23.3433 F150.00
G01 X66.4504 Y23.2998 F150.00
G01 X66.5247 Y23.2647 F150.00
G01 X66.6033 Y23.2366 F150.00
G01 X66.6842 Y23.2163 F150.00
G01 X66.7691 Y23.2039 F150.00
G01 X66.8500 Y23.2000 F150.00
G01 X66.9333 Y23.2041 F150.00
G01 X67.0158 Y23.2163 F150.00
G01 X67.0991 Y23.2374 F150.00
G01 X67.1753 Y23.2647 F150.00
G01 X67.2528 Y23.3016 F150.00
G01 X67.3243 Y23.3447 F150.00
G01 X67.3892 Y23.3930 F150.00
G01 X67.4362 Y23.4354 F150.00
G01 X67.6364 Y23.3334 F150.00
G01 X67.8275 Y23.1945 F150.00
G01 X67.9945 Y23.0275 F150.00
G01 X68.1334 Y22.8364 F150.00
G01 X68.2406 Y22.6260 F150.00
G01 X68.3136 Y22.4014 F150.00
G01 X68.3505 Y22.1681 F150.00
G01 X68.3505 Y21.9319 F150.00
G01 X68.3136 Y21.6986 F150.00
G01 X68.2406 Y21.4740 F150.00
G01 X68.1334 Y21.2636 F150.00
G01 X67.9945 Y21.0725 F150.00
G01 X67.8275 Y20.9055 F150.00
G01 X67.6364 Y20.7667 F150.00
G01 X67.4260 Y20.6595 F150.00
G01 X67.2014 Y20.5865 F150.00
G01 X66.9681 Y20.5495 F150.00
G01 X66.7319 Y20.5495 F150.00
G01 X66.6324 Y20.5653 F150.00
G01 X66.6026 Y20.5675 F150.00
G01 X61.5817 Y20.5675 F150.00
G01 X61.5724 Y20.5664 F150.00
G01 X61.5142 Y20.5524 F150.00
G01 X61.5045 Y20.5505 F150.00
G01 X61.4948 Y20.5469 F150.00
G01 X61.2548 Y20.4689 F150.00
G01 X61.0060 Y20.4295 F150.00
G01 X60.7541 Y20.4295 F150.00
G01 X60.5052 Y20.4689 F150.00
G01 X60.2656 Y20.5468 F150.00
G01 X60.0412 Y20.6611 F150.00
G01 X59.8374 Y20.8092 F150.00
G01 X59.7507 Y20.8959 F150.00
G01 X59.7453 Y20.9005 F150.00
G01 X59.7404 Y20.9038 F150.00
G01 X59.6714 Y20.9436 F150.00
G01 X59.6657 Y20.9460 F150.00
G01 X59.6597 Y20.9478 F150.00
G01 X59.6548 Y20.9487 F150.00
G01 X59.6486 Y20.9491 F150.00
G01 X59.5702 Y20.9490 F150.00
G01 X59.5652 Y20.9487 F150.00
G01 X59.5591 Y20.9475 F150.00
G01 X59.5532 Y20.9456 F150.00
G01 X59.5475 Y20.9430 F150.00
G01 X59.4797 Y20.9038 F150.00
G01 X59.4740 Y20.9000 F150.00
G01 X59.4693 Y20.8959 F150.00
G01 X59.3827 Y20.8092 F150.00
G01 X59.1789 Y20.6611 F150.00
G01 X58.9544 Y20.5468 F150.00
G01 X58.7148 Y20.4689 F150.00
G01 X58.4660 Y20.4295 F150.00
G01 X58.2141 Y20.4295 F150.00
G01 X57.9652 Y20.4689 F150.00
G01 X57.7256 Y20.5468 F150.00
G01 X57.5519 Y20.6353 F150.00
G01 X57.5475 Y20.6373 F150.00
G01 X57.5419 Y20.6391 F150.00
G01 X57.4629 Y20.6560 F150.00
G01 X57.4567 Y20.6567 F150.00
G01 X57.4505 Y20.6567 F150.00
G01 X57.4443 Y20.6559 F150.00
G01 X57.4395 Y20.6547 F150.00
G01 X57.3614 Y20.6292 F150.00
G01 X57.3558 Y20.6265 F150.00
G01 X57.3516 Y20.6239 F150.00
G01 X57.3441 Y20.6173 F150.00
G01 X57.2916 Y20.5591 F150.00
G01 X57.2857 Y20.5511 F150.00
G01 X57.2824 Y20.5444 F150.00
G01 X57.2801 Y20.5373 F150.00
G01 X57.2636 Y20.4685 F150.00
G01 X57.2625 Y20.4592 F150.00
G01 X57.2625 Y17.0651 F150.00
G01 X57.2629 Y17.0592 F150.00
G01 X57.2639 Y17.0533 F150.00
G01 X57.2842 Y16.9777 F150.00
G01 X57.2862 Y16.9717 F150.00
G01 X57.2901 Y16.9640 F150.00
G01 X57.2954 Y16.9570 F150.00
G01 X57.3525 Y16.8998 F150.00
G01 X57.3563 Y16.8966 F150.00
G01 X57.3615 Y16.8931 F150.00
G01 X57.3670 Y16.8902 F150.00
G01 X57.3729 Y16.8881 F150.00
G01 X57.4498 Y16.8675 F150.00
G01 X57.4559 Y16.8664 F150.00
G01 X57.4634 Y16.8661 F150.00
G01 X57.4732 Y16.8675 F150.00
G01 X57.5490 Y16.8878 F150.00
G01 X57.5560 Y16.8902 F150.00
G01 X57.5626 Y16.8937 F150.00
G01 X57.5705 Y16.8998 F150.00
G01 X57.6259 Y16.9552 F150.00
G01 X57.6307 Y16.9608 F150.00
G01 X57.6346 Y16.9670 F150.00
G01 X57.6504 Y17.0024 F150.00
G01 X57.6868 Y17.1144 F150.00
G01 X57.8011 Y17.3389 F150.00
G01 X57.9492 Y17.5427 F150.00
G01 X58.1274 Y17.7208 F150.00
G01 X58.3312 Y17.8689 F150.00
G01 X58.5556 Y17.9833 F150.00
G01 X58.7952 Y18.0611 F150.00
G01 X59.0441 Y18.1005 F150.00
G01 X59.2960 Y18.1005 F150.00
G01 X59.5448 Y18.0611 F150.00
G01 X59.7844 Y17.9833 F150.00
G01 X60.0089 Y17.8689 F150.00
G01 X60.2127 Y17.7208 F150.00
G01 X60.3908 Y17.5427 F150.00
G01 X60.5389 Y17.3389 F150.00
G01 X60.6533 Y17.1144 F150.00
G01 X60.7311 Y16.8748 F150.00
G01 X60.7705 Y16.6260 F150.00
G01 X60.7705 Y16.3741 F150.00
G01 X60.7311 Y16.1252 F150.00
G01 X60.6531 Y15.8853 F150.00
G01 X60.6496 Y15.8757 F150.00
G01 X60.6338 Y15.8085 F150.00
G01 X60.6326 Y15.7997 F150.00
G01 X60.6325 Y13.3182 F150.00
G01 X60.6334 Y13.3088 F150.00
G01 X60.6542 Y13.2308 F150.00
G01 X60.6566 Y13.2238 F150.00
G01 X60.6588 Y13.2194 F150.00
G01 X60.6621 Y13.2143 F150.00
G01 X60.6899 Y13.1785 F150.00
G01 X62.0655 Y11.8028 F150.00
G01 X62.2009 Y11.6165 F150.00
G01 X62.3054 Y11.4114 F150.00
G01 X62.3765 Y11.1925 F150.00
G01 X62.4125 Y10.9651 F150.00
G01 X62.4125 Y8.4889 F150.00
G01 X62.4127 Y8.4841 F150.00
G01 X62.4137 Y8.4783 F150.00
G01 X62.4345 Y8.4003 F150.00
G01 X62.4366 Y8.3944 F150.00
G01 X62.4395 Y8.3889 F150.00
G01 X62.4430 Y8.3837 F150.00
G01 X62.4471 Y8.3790 F150.00
G01 X62.5017 Y8.3245 F150.00
G01 X62.5073 Y8.3196 F150.00
G01 X62.5147 Y8.3151 F150.00
G01 X62.5216 Y8.3123 F150.00
G01 X62.5821 Y8.2927 F150.00
G01 X62.5867 Y8.2916 F150.00
G01 X62.5923 Y8.2908 F150.00
G01 X62.7481 Y8.2392 F150.00
G01 X62.8874 Y8.1532 F150.00
G01 X63.0032 Y8.0374 F150.00
G01 X63.0892 Y7.8981 F150.00
G01 X63.1408 Y7.7423 F150.00
G01 X63.1505 Y7.6475 F150.00
G01 X63.1505 Y4.5526 F150.00
G01 X63.1451 Y4.4992 F150.00
G01 X63.1448 Y4.4933 F150.00
G01 X63.1454 Y4.4862 F150.00
G01 X63.1577 Y4.4100 F150.00
G01 X63.1591 Y4.4040 F150.00
G01 X63.1612 Y4.3981 F150.00
G01 X63.1641 Y4.3926 F150.00
G01 X63.1676 Y4.3874 F150.00
G01 X63.2170 Y4.3266 F150.00
G01 X63.2222 Y4.3212 F150.00
G01 X63.2281 Y4.3166 F150.00
G01 X63.2369 Y4.3119 F150.00
G01 X63.3124 Y4.2833 F150.00
G01 X63.3170 Y4.2820 F150.00
G01 X63.3230 Y4.2810 F150.00
G01 X63.3418 Y4.2800 F150.00
G01 X66.0303 Y4.2800 F150.00
G01 X66.0362 Y4.2804 F150.00
G01 X66.0421 Y4.2814 F150.00
G01 X66.1177 Y4.3017 F150.00
G01 X66.1258 Y4.3046 F150.00
G01 X66.1332 Y4.3089 F150.00
G01 X66.1661 Y4.3340 F150.00
G01 X66.1710 Y4.3383 F150.00
G01 X74.4442 Y12.6115 F150.00
G01 X74.4482 Y12.6160 F150.00
G01 X74.4516 Y12.6209 F150.00
G01 X74.4907 Y12.6887 F150.00
G01 X74.4939 Y12.6953 F150.00
G01 X74.4958 Y12.7011 F150.00
G01 X74.4970 Y12.7072 F150.00
G01 X74.5021 Y12.7457 F150.00
G01 X74.5025 Y12.7522 F150.00
G01 X74.5025 Y13.3210 F150.00
G01 X74.5023 Y13.3258 F150.00
G01 X74.5014 Y13.3316 F150.00
G01 X74.4797 Y13.4120 F150.00
G01 X74.4773 Y13.4178 F150.00
G01 X74.4749 Y13.4221 F150.00
G01 X74.4713 Y13.4272 F150.00
G01 X74.4679 Y13.4309 F150.00
G01 X74.4125 Y13.4863 F150.00
G01 X74.4077 Y13.4903 F150.00
G01 X74.4025 Y13.4937 F150.00
G01 X74.3980 Y13.4959 F150.00
G01 X74.3922 Y13.4980 F150.00
G01 X74.3141 Y13.5189 F150.00
G01 X74.3083 Y13.5198 F150.00
G01 X74.3035 Y13.5200 F150.00
G01 X70.4133 Y13.5200 F150.00
G01 X70.1820 Y13.5505 F150.00
G01 X70.1363 Y13.5627 F150.00
G01 X69.9566 Y13.6109 F150.00
G01 X69.7410 Y13.7002 F150.00
G01 X69.5390 Y13.8168 F150.00
G01 X69.3539 Y13.9589 F150.00
G01 X67.9889 Y15.3239 F150.00
G01 X67.8468 Y15.5090 F150.00
G01 X67.7302 Y15.7110 F150.00
G01 X67.6409 Y15.9266 F150.00
G01 X67.5805 Y16.1520 F150.00
G01 X67.5500 Y16.3833 F150.00
G01 X67.5500 Y16.6167 F150.00
G01 X67.5805 Y16.8480 F150.00
G01 X67.6409 Y17.0734 F150.00
G01 X67.7302 Y17.2890 F150.00
G01 X67.8468 Y17.4911 F150.00
G01 X67.9889 Y17.6762 F150.00
G01 X68.1539 Y17.8412 F150.00
G01 X68.3390 Y17.9832 F150.00
G01 X68.5410 Y18.0999 F150.00
G01 X68.7566 Y18.1892 F150.00
G01 X68.9820 Y18.2496 F150.00
G01 X69.2133 Y18.2800 F150.00
G01 X69.4467 Y18.2800 F150.00
G01 X69.6780 Y18.2496 F150.00
G01 X69.9034 Y18.1892 F150.00
G01 X70.1190 Y18.0999 F150.00
G01 X70.3211 Y17.9832 F150.00
G01 X70.5062 Y17.8412 F150.00
G01 X71.2099 Y17.1375 F150.00
G01 X71.2135 Y17.1344 F150.00
G01 X71.2184 Y17.1310 F150.00
G01 X71.2872 Y17.0912 F150.00
G01 X71.2939 Y17.0882 F150.00
G01 X71.3022 Y17.0859 F150.00
G01 X71.3432 Y17.0804 F150.00
G01 X71.3497 Y17.0800 F150.00
G01 X74.2152 Y17.0801 F150.00
G01 X74.2234 Y17.0812 F150.00
G01 X74.2383 Y17.0851 F150.00
G01 X74.2526 Y17.0851 F150.00
G01 X74.2588 Y17.0856 F150.00
G01 X74.2649 Y17.0870 F150.00
G01 X74.2708 Y17.0890 F150.00
G01 X74.2753 Y17.0912 F150.00
G01 X74.2876 Y17.0983 F150.00
G01 X74.3037 Y17.1028 F150.00
G01 X74.3126 Y17.1069 F150.00
G01 X74.3177 Y17.1103 F150.00
G01 X74.3496 Y17.1348 F150.00
G01 X74.3535 Y17.1383 F150.00
G01 X74.3942 Y17.1790 F150.00
G01 X74.3989 Y17.1844 F150.00
G01 X74.4022 Y17.1894 F150.00
G01 X74.4407 Y17.2562 F150.00
G01 X74.4444 Y17.2639 F150.00
G01 X74.4468 Y17.2734 F150.00
G01 X74.4525 Y17.3184 F150.00
G01 X74.4525 Y17.6002 F150.00
G01 X74.4511 Y17.6096 F150.00
G01 X74.4305 Y17.6864 F150.00
G01 X74.4274 Y17.6944 F150.00
G01 X74.4237 Y17.7007 F150.00
G01 X74.3985 Y17.7336 F150.00
G01 X74.3942 Y17.7385 F150.00
G01 X72.8589 Y19.2739 F150.00
G01 X72.7168 Y19.4590 F150.00
G01 X72.6002 Y19.6610 F150.00
G01 X72.5109 Y19.8766 F150.00
G01 X72.4505 Y20.1020 F150.00
G01 X72.4200 Y20.3333 F150.00
G01 X72.4200 Y29.3917 F150.00
G01 X72.4505 Y29.6230 F150.00
G01 X72.5109 Y29.8484 F150.00
G01 X72.6002 Y30.0640 F150.00
G01 X72.7168 Y30.2660 F150.00
G01 X72.8589 Y30.4512 F150.00
G01 X74.5739 Y32.1662 F150.00
G01 X74.7590 Y32.3082 F150.00
G01 X74.9610 Y32.4249 F150.00
G01 X75.1766 Y32.5142 F150.00
G01 X75.4020 Y32.5746 F150.00
G01 X75.6333 Y32.6050 F150.00
G01 X76.0902 Y32.6050 F150.00
G01 X76.0961 Y32.6054 F150.00
G01 X76.1020 Y32.6064 F150.00
G01 X76.1788 Y32.6270 F150.00
G01 X76.1846 Y32.6291 F150.00
G01 X76.1900 Y32.6318 F150.00
G01 X76.2160 Y32.6498 F150.00
G01 X76.3668 Y32.7727 F150.00
G01 X76.5381 Y32.8622 F150.00
G01 X76.7243 Y32.9155 F150.00
G01 X76.8367 Y32.9255 F150.00
G01 X79.2483 Y32.9255 F150.00
G01 X79.3608 Y32.9155 F150.00
G01 X79.5469 Y32.8622 F150.00
G01 X79.7183 Y32.7727 F150.00
G01 X79.8681 Y32.6506 F150.00
G01 X79.9902 Y32.5008 F150.00
G01 X80.0797 Y32.3294 F150.00
G01 X80.1330 Y32.1433 F150.00
G01 X80.1430 Y32.0308 F150.00
G01 X80.1430 Y29.6192 F150.00
G01 X80.1330 Y29.5068 F150.00
G01 X80.0797 Y29.3206 F150.00
G01 X79.9902 Y29.1493 F150.00
G01 X79.8681 Y28.9994 F150.00
G01 X79.7183 Y28.8773 F150.00
G01 X79.5469 Y28.7878 F150.00
G01 X79.3608 Y28.7345 F150.00
G01 X79.2483 Y28.7245 F150.00
G01 X76.8367 Y28.7245 F150.00
G01 X76.7243 Y28.7345 F150.00
G01 X76.5381 Y28.7878 F150.00
G01 X76.4642 Y28.8264 F150.00
G01 X76.4565 Y28.8294 F150.00
G01 X76.4444 Y28.8322 F150.00
G01 X76.4334 Y28.8384 F150.00
G01 X76.4265 Y28.8411 F150.00
G01 X76.4204 Y28.8426 F150.00
G01 X76.4155 Y28.8432 F150.00
G01 X76.3945 Y28.8433 F150.00
G01 X76.3765 Y28.8473 F150.00
G01 X76.3716 Y28.8481 F150.00
G01 X76.3654 Y28.8483 F150.00
G01 X76.3604 Y28.8479 F150.00
G01 X76.3543 Y28.8467 F150.00
G01 X76.3434 Y28.8433 F150.00
G01 X76.3296 Y28.8431 F150.00
G01 X76.3247 Y28.8424 F150.00
G01 X76.3187 Y28.8407 F150.00
G01 X76.3107 Y28.8373 F150.00
G01 X76.2947 Y28.8281 F150.00
G01 X76.2771 Y28.8225 F150.00
G01 X76.2725 Y28.8207 F150.00
G01 X76.2671 Y28.8178 F150.00
G01 X76.2620 Y28.8142 F150.00
G01 X76.2365 Y28.7938 F150.00
G01 X76.2324 Y28.7901 F150.00
G01 X76.0383 Y28.5960 F150.00
G01 X76.0344 Y28.5916 F150.00
G01 X76.0310 Y28.5867 F150.00
G01 X75.9918 Y28.5188 F150.00
G01 X75.9891 Y28.5134 F150.00
G01 X75.9870 Y28.5076 F150.00
G01 X75.9857 Y28.5016 F150.00
G01 X75.9802 Y28.4592 F150.00
G01 X75.9800 Y21.2697 F150.00
G01 X75.9809 Y21.2603 F150.00
G01 X76.0017 Y21.1823 F150.00
G01 X76.0041 Y21.1754 F150.00
G01 X76.0069 Y21.1699 F150.00
G01 X76.0096 Y21.1658 F150.00
G01 X76.0374 Y21.1300 F150.00
G01 X77.5737 Y19.5937 F150.00
G01 X77.7157 Y19.4086 F150.00
G01 X77.8324 Y19.2065 F150.00
G01 X77.9217 Y18.9909 F150.00
G01 X77.9821 Y18.7655 F150.00
G01 X78.0125 Y18.5342 F150.00
G01 X78.0125 Y16.8958 F150.00
G01 X78.0129 Y16.8906 F150.00
G01 X78.0187 Y16.8482 F150.00
G01 X78.0321 Y16.7980 F150.00
G01 X78.0625 Y16.5667 F150.00
G01 X78.0625 Y11.8158 F150.00
G01 X78.0321 Y11.5845 F150.00
G01 X77.9717 Y11.3591 F150.00
G01 X77.8824 Y11.1435 F150.00
G01 X77.7657 Y10.9415 F150.00
G01 X77.6237 Y10.7564 F150.00
G01 X68.0262 Y1.1589 F150.00
G01 X67.8411 Y1.0168 F150.00
G01 X67.6390 Y0.9002 F150.00
G01 X67.5381 Y0.8584 F150.00
G01 X67.5328 Y0.8558 F150.00
G01 X67.5268 Y0.8518 F150.00
G01 X67.4656 Y0.8049 F150.00
G01 X67.4609 Y0.8008 F150.00
G01 X67.4567 Y0.7961 F150.00
G01 X67.4532 Y0.7910 F150.00
G01 X67.4498 Y0.7844 F150.00
G01 X67.4194 Y0.7108 F150.00
G01 X67.4170 Y0.7011 F150.00
G01 X67.4166 Y0.6961 F150.00
G01 X67.4167 Y0.6899 F150.00
G01 X67.4272 Y0.6097 F150.00
G01 X67.4285 Y0.6037 F150.00
G01 X67.4306 Y0.5978 F150.00
G01 X67.4328 Y0.5933 F150.00
G01 X67.4362 Y0.5881 F150.00
G01 X67.4871 Y0.5221 F150.00
G01 X67.4946 Y0.5155 F150.00
G01 X67.5021 Y0.5111 F150.00
G01 X67.5780 Y0.4797 F150.00
G01 X67.5841 Y0.4780 F150.00
G01 X67.5890 Y0.4771 F150.00
G01 X67.6132 Y0.4755 F150.00
G01 X80.6757 Y0.4755 F150.00
G01 X80.6862 Y0.4759 F150.00
G01 X80.9740 Y0.4933 F150.00
G01 X80.9949 Y0.4957 F150.00
G01 X81.2770 Y0.5473 F150.00
G01 X81.3003 Y0.5531 F150.00
G01 X81.5742 Y0.6385 F150.00
G01 X81.5938 Y0.6460 F150.00
G01 X81.8526 Y0.7625 F150.00
G01 X81.8739 Y0.7737 F150.00
G01 X82.1180 Y0.9213 F150.00
G01 X82.1365 Y0.9342 F150.00
G01 X82.3623 Y1.1111 F150.00
G01 X82.3779 Y1.1251 F150.00
G01 X82.5807 Y1.3280 F150.00
G01 X82.5945 Y1.3438 F150.00
G01 X82.7713 Y1.5696 F150.00
G01 X82.7832 Y1.5870 F150.00
G01 X82.9315 Y1.8325 F150.00
G01 X82.9412 Y1.8511 F150.00
G01 X83.0588 Y2.1127 F150.00
G01 X83.0662 Y2.1324 F150.00
G01 X83.1514 Y2.4063 F150.00
G01 X83.1564 Y2.4267 F150.00
G01 X83.2080 Y2.7088 F150.00
G01 X83.2104 Y2.7297 F150.00
G01 X83.2278 Y3.0172 F150.00
G01 X83.2282 Y3.0292 F150.00
G01 X83.2282 Y54.6205 F150.00
G01 X83.2278 Y54.6325 F150.00
G01 X83.2104 Y54.9203 F150.00
G01 X83.2080 Y54.9412 F150.00
G01 X83.1564 Y55.2233 F150.00
G01 X83.1506 Y55.2467 F150.00
G01 X83.0662 Y55.5176 F150.00
G01 X83.0588 Y55.5373 F150.00
G01 X82.9412 Y55.7989 F150.00
G01 X82.9300 Y55.8202 F150.00
G01 X82.7822 Y56.0646 F150.00
G01 X82.7695 Y56.0828 F150.00
G01 X82.5926 Y56.3085 F150.00
G01 X82.5786 Y56.3242 F150.00
G01 X82.3757 Y56.5270 F150.00
G01 X82.3599 Y56.5408 F150.00
G01 X82.1341 Y56.7176 F150.00
G01 X82.1167 Y56.7295 F150.00
G01 X81.8712 Y56.8778 F150.00
G01 X81.8526 Y56.8875 F150.00
G01 X81.5910 Y57.0051 F150.00
G01 X81.5713 Y57.0125 F150.00
G01 X81.2974 Y57.0977 F150.00
G01 X81.2770 Y57.1027 F150.00
G01 X80.9949 Y57.1543 F150.00
G01 X80.9740 Y57.1567 F150.00
G01 X80.6859 Y57.1741 F150.00
G01 X80.6739 Y57.1745 F150.00
G01 X3.0295 Y57.1745 F150.00
G01 X3.0176 Y57.1742 F150.00
G01 X2.7297 Y57.1567 F150.00
G01 X2.7088 Y57.1543 F150.00
G01 X2.4267 Y57.1027 F150.00
G01 X2.4034 Y57.0969 F150.00
G01 X2.1324 Y57.0125 F150.00
G01 X2.1127 Y57.0051 F150.00
G01 X1.8511 Y56.8875 F150.00
G01 X1.8299 Y56.8763 F150.00
G01 X1.5855 Y56.7286 F150.00
G01 X1.5672 Y56.7159 F150.00
G01 X1.3415 Y56.5389 F150.00
G01 X1.3258 Y56.5249 F150.00
G01 X1.1231 Y56.3220 F150.00
G01 X1.1092 Y56.3062 F150.00
G01 X0.9324 Y56.0804 F150.00
G01 X0.9205 Y56.0630 F150.00
G01 X0.7722 Y55.8175 F150.00
G01 X0.7625 Y55.7989 F150.00
G01 X0.6449 Y55.5373 F150.00
G01 X0.6375 Y55.5176 F150.00
G01 X0.5523 Y55.2438 F150.00
G01 X0.5473 Y55.2233 F150.00
G01 X0.4957 Y54.9412 F150.00
G01 X0.4933 Y54.9203 F150.00
G01 X0.4759 Y54.6325 F150.00
G01 X0.4755 Y54.6220 F150.00
G01 X0.4755 Y3.0295 F150.00
G00 Z2.0000
G00 X2.2745 Y4.9227
G01 F80.00
G01 Z-0.0530
G01 F150.00
G01 X2.3065 Y4.7205 F150.00
G01 X2.3698 Y4.5258 F150.00
G01 X2.4627 Y4.3434 F150.00
G01 X2.5830 Y4.1778 F150.00
G01 X2.7278 Y4.0330 F150.00
G01 X2.8934 Y3.9127 F150.00
G01 X3.0758 Y3.8198 F150.00
G01 X3.2705 Y3.7565 F150.00
G01 X3.4727 Y3.7245 F150.00
G01 X3.6774 Y3.7245 F150.00
G01 X3.8795 Y3.7565 F150.00
G01 X4.0742 Y3.8198 F150.00
G01 X4.2566 Y3.9127 F150.00
G01 X4.4222 Y4.0330 F150.00
G01 X4.5670 Y4.1778 F150.00
G01 X4.6873 Y4.3434 F150.00
G01 X4.7802 Y4.5258 F150.00
G01 X4.8435 Y4.7205 F150.00
G01 X4.8755 Y4.9227 F150.00
G01 X4.8755 Y5.1274 F150.00
G01 X4.8435 Y5.3295 F150.00
G01 X4.7802 Y5.5242 F150.00
G01 X4.6873 Y5.7066 F150.00
G01 X4.5670 Y5.8722 F150.00
G01 X4.4222 Y6.0170 F150.00
G01 X4.2566 Y6.1373 F150.00
G01 X4.0742 Y6.2302 F150.00
G01 X3.8795 Y6.2935 F150.00
G01 X3.6774 Y6.3255 F150.00
G01 X3.4727 Y6.3255 F150.00
G01 X3.2705 Y6.2935 F150.00
G01 X3.0758 Y6.2302 F150.00
G01 X2.8934 Y6.1373 F150.00
G01 X2.7278 Y6.0170 F150.00
G01 X2.5830 Y5.8722 F150.00
G01 X2.4627 Y5.7066 F150.00
G01 X2.3698 Y5.5242 F150.00
G01 X2.3065 Y5.3295 F150.00
G01 X2.2745 Y5.1274 F150.00
G01 X2.2745 Y4.9227 F150.00
G00 Z2.0000
G00 X6.1377 Y21.4125
G01 F80.00
G01 Z-0.0530
G01 F150.00
G01 X6.1376 Y11.1488 F150.00
G01 X6.1415 Y11.0706 F150.00
G01 X6.1532 Y10.9915 F150.00
G01 X6.1726 Y10.9142 F150.00
G01 X6.1986 Y10.8414 F150.00
G01 X6.2348 Y10.7649 F150.00
G01 X6.2745 Y10.6987 F150.00
G01 X6.3213 Y10.6356 F150.00
G01 X6.3756 Y10.5756 F150.00
G01 X11.2256 Y5.7256 F150.00
G01 X11.2846 Y5.6720 F150.00
G01 X11.3487 Y5.6245 F150.00
G01 X11.4171 Y5.5836 F150.00
G01 X11.4880 Y5.5500 F150.00
G01 X11.5642 Y5.5226 F150.00
G01 X11.6415 Y5.5032 F150.00
G01 X11.7204 Y5.4915 F150.00
G01 X11.8000 Y5.4876 F150.00
G01 X17.4319 Y5.4876 F150.00
G01 X17.4619 Y5.4379 F150.00
G01 X17.5526 Y5.3158 F150.00
G01 X17.6540 Y5.2040 F150.00
G01 X17.7677 Y5.1011 F150.00
G01 X17.8889 Y5.0112 F150.00
G01 X18.0193 Y4.9330 F150.00
G01 X18.1569 Y4.8680 F150.00
G01 X18.2989 Y4.8171 F150.00
G01 X18.4476 Y4.7798 F150.00
G01 X18.5957 Y4.7578 F150.00
G01 X18.7525 Y4.7501 F150.00
G01 X18.9019 Y4.7575 F150.00
G01 X19.0525 Y4.7798 F150.00
G01 X19.2000 Y4.8168 F150.00
G01 X19.3432 Y4.8680 F150.00
G01 X19.4828 Y4.9342 F150.00
G01 X19.6111 Y5.0112 F150.00
G01 X19.7333 Y5.1018 F150.00
G01 X19.8477 Y5.2058 F150.00
G01 X19.9482 Y5.3167 F150.00
G01 X20.0374 Y5.4369 F150.00
G01 X20.1170 Y5.5693 F150.00
G01 X20.1829 Y5.7091 F150.00
G01 X20.2333 Y5.8501 F150.00
G01 X20.2697 Y5.9952 F150.00
G01 X20.2927 Y6.1505 F150.00
G01 X20.3000 Y6.3000 F150.00
G01 X20.2927 Y6.4495 F150.00
G01 X20.2702 Y6.6024 F150.00
G01 X20.2333 Y6.7500 F150.00
G01 X20.1829 Y6.8909 F150.00
G01 X20.1170 Y7.0307 F150.00
G01 X20.0374 Y7.1632 F150.00
G01 X19.9482 Y7.2833 F150.00
G01 X19.8460 Y7.3960 F150.00
G01 X19.7314 Y7.4997 F150.00
G01 X19.6111 Y7.5888 F150.00
G01 X19.4818 Y7.6664 F150.00
G01 X19.3432 Y7.7320 F150.00
G01 X19.2000 Y7.7833 F150.00
G01 X19.0524 Y7.8202 F150.00
G01 X18.9019 Y7.8425 F150.00
G01 X18.7500 Y7.8500 F150.00
G01 X18.5981 Y7.8425 F150.00
G01 X18.4476 Y7.8202 F150.00
G01 X18.3012 Y7.7836 F150.00
G01 X18.1569 Y7.7320 F150.00
G01 X18.0193 Y7.6670 F150.00
G01 X17.8889 Y7.5888 F150.00
G01 X17.7677 Y7.4989 F150.00
G01 X17.6540 Y7.3960 F150.00
G01 X17.5526 Y7.2843 F150.00
G01 X17.4619 Y7.1622 F150.00
G01 X17.4319 Y7.1124 F150.00
G01 X12.1365 Y7.1124 F150.00
G01 X7.7624 Y11.4865 F150.00
G01 X7.7624 Y21.0735 F150.00
G01 X12.1265 Y25.4376 F150.00
G01 X13.7302 Y25.4376 F150.00
G01 X13.7356 Y25.4360 F150.00
G01 X13.8142 Y25.4163 F150.00
G01 X13.8967 Y25.4041 F150.00
G01 X13.9800 Y25.4000 F150.00
G01 X14.0609 Y25.4039 F150.00
G01 X14.1482 Y25.4169 F150.00
G01 X14.2266 Y25.4366 F150.00
G01 X14.3042 Y25.4643 F150.00
G01 X14.3818 Y25.5010 F150.00
G01 X14.4512 Y25.5426 F150.00
G01 X14.4812 Y25.5647 F150.00
G01 X23.3500 Y25.5647 F150.00
G01 X23.4172 Y25.5680 F150.00
G01 X23.4837 Y25.5779 F150.00
G01 X23.5488 Y25.5942 F150.00
G01 X23.6134 Y25.6173 F150.00
G01 X23.6731 Y25.6456 F150.00
G01 X23.7308 Y25.6802 F150.00
G01 X23.7848 Y25.7203 F150.00
G01 X23.8346 Y25.7654 F150.00
G01 X26.6470 Y28.5778 F150.00
G01 X26.7058 Y28.5926 F150.00
G01 X26.7808 Y28.6194 F150.00
G01 X26.8530 Y28.6536 F150.00
G01 X26.9193 Y28.6932 F150.00
G01 X26.9872 Y28.7436 F150.00
G01 X27.0445 Y28.7956 F150.00
G01 X27.0972 Y28.8537 F150.00
G01 X27.1455 Y28.9187 F150.00
G01 X27.1859 Y28.9860 F150.00
G01 X27.1920 Y28.9986 F150.00
G01 X27.2051 Y29.0133 F150.00
G01 X27.2599 Y29.0872 F150.00
G01 X27.3078 Y29.1672 F150.00
G01 X27.3486 Y29.2538 F150.00
G01 X27.3791 Y29.3392 F150.00
G01 X27.4015 Y29.4285 F150.00
G01 X27.4156 Y29.5243 F150.00
G01 X27.4200 Y29.6150 F150.00
G01 X27.4154 Y29.7081 F150.00
G01 X27.4012 Y29.8027 F150.00
G01 X27.3791 Y29.8908 F150.00
G01 X27.3477 Y29.9786 F150.00
G01 X27.3078 Y30.0628 F150.00
G01 X27.2599 Y30.1428 F150.00
G01 X27.2044 Y30.2177 F150.00
G01 X27.1400 Y30.2885 F150.00
G01 X27.0708 Y30.3509 F150.00
G01 X26.9978 Y30.4049 F150.00
G01 X26.9200 Y30.4516 F150.00
G01 X26.8336 Y30.4927 F150.00
G01 X26.7458 Y30.5241 F150.00
G01 X26.6553 Y30.5468 F150.00
G01 X26.5607 Y30.5606 F150.00
G01 X26.4676 Y30.5650 F150.00
G01 X26.3769 Y30.5604 F150.00
G01 X26.2871 Y30.5472 F150.00
G01 X26.1942 Y30.5241 F150.00
G01 X26.1065 Y30.4927 F150.00
G01 X26.0222 Y30.4528 F150.00
G01 X25.9412 Y30.4042 F150.00
G01 X25.8673 Y30.3494 F150.00
G01 X25.8000 Y30.2885 F150.00
G01 X25.7357 Y30.2177 F150.00
G01 X25.6788 Y30.1407 F150.00
G01 X25.6322 Y30.0628 F150.00
G01 X25.5923 Y29.9786 F150.00
G01 X25.5609 Y29.8908 F150.00
G01 X25.5388 Y29.8027 F150.00
G01 X25.5246 Y29.7081 F150.00
G01 X25.5200 Y29.6150 F150.00
G01 X25.5244 Y29.5243 F150.00
G01 X25.5380 Y29.4309 F150.00
G01 X25.5427 Y29.4119 F150.00
G01 X23.0661 Y26.9353 F150.00
G01 X14.4812 Y26.9353 F150.00
G01 X14.4512 Y26.9574 F150.00
G01 X14.3796 Y27.0002 F150.00
G01 X14.3053 Y27.0353 F150.00
G01 X14.2279 Y27.0630 F150.00
G01 X14.1434 Y27.0841 F150.00
G01 X14.0633 Y27.0959 F150.00
G01 X13.9800 Y27.1000 F150.00
G01 X13.8967 Y27.0959 F150.00
G01 X13.8166 Y27.0841 F150.00
G01 X13.7356 Y27.0641 F150.00
G01 X13.7302 Y27.0624 F150.00
G01 X11.7876 Y27.0623 F150.00
G01 X11.7104 Y27.0585 F150.00
G01 X11.6315 Y27.0468 F150.00
G01 X11.5542 Y27.0274 F150.00
G01 X11.4791 Y27.0006 F150.00
G01 X11.4071 Y26.9665 F150.00
G01 X11.3387 Y26.9255 F150.00
G01 X11.2746 Y26.8780 F150.00
G01 X11.2156 Y26.8245 F150.00
G01 X6.3747 Y21.9836 F150.00
G01 X6.3220 Y21.9254 F150.00
G01 X6.2745 Y21.8613 F150.00
G01 X6.2336 Y21.7930 F150.00
G01 X6.1995 Y21.7209 F150.00
G01 X6.1726 Y21.6458 F150.00
G01 X6.1532 Y21.5685 F150.00
G01 X6.1415 Y21.4896 F150.00
G01 X6.1377 Y21.4125 F150.00
G00 Z2.0000
G00 X9.5700 Y21.0025
G01 F80.00
G01 Z-0.0530
G01 F150.00
G01 X9.5700 Y15.9000 F150.00
G01 X9.5757 Y15.7868 F150.00
G01 X9.5917 Y15.6796 F150.00
G01 X9.6180 Y15.5743 F150.00
G01 X9.6560 Y15.4676 F150.00
G01 X9.7034 Y15.3673 F150.00
G01 X9.7604 Y15.2722 F150.00
G01 X9.8273 Y15.1822 F150.00
G01 X9.9010 Y15.1010 F150.00
G01 X10.8718 Y14.1301 F150.00
G01 X10.9531 Y14.0565 F150.00
G01 X11.0402 Y13.9918 F150.00
G01 X11.1373 Y13.9334 F150.00
G01 X11.2399 Y13.8851 F150.00
G01 X11.3420 Y13.8486 F150.00
G01 X11.4472 Y13.8222 F150.00
G01 X11.5592 Y13.8054 F150.00
G01 X11.6700 Y13.8000 F150.00
G01 X39.8131 Y13.8000 F150.00
G01 X39.7855 Y13.7413 F150.00
G01 X39.7490 Y13.6392 F150.00
G01 X39.7219 Y13.5317 F150.00
G01 X39.7054 Y13.4208 F150.00
G01 X39.7000 Y13.3100 F150.00
G01 X39.7000 Y3.1200 F150.00
G01 X39.7054 Y3.0094 F150.00
G01 X39.7222 Y2.8972 F150.00
G01 X39.7486 Y2.7920 F150.00
G01 X39.7860 Y2.6876 F150.00
G01 X39.8334 Y2.5873 F150.00
G01 X39.8891 Y2.4943 F150.00
G01 X39.9581 Y2.4013 F150.00
G01 X40.0310 Y2.3210 F150.00
G01 X40.6510 Y1.7010 F150.00
G01 X40.7322 Y1.6273 F150.00
G01 X40.8222 Y1.5604 F150.00
G01 X40.9173 Y1.5034 F150.00
G01 X41.0176 Y1.4560 F150.00
G01 X41.1208 Y1.4190 F150.00
G01 X41.2320 Y1.3913 F150.00
G01 X41.3392 Y1.3754 F150.00
G01 X41.4500 Y1.3700 F150.00
G01 X66.8500 Y1.3700 F150.00
G01 X66.9608 Y1.3754 F150.00
G01 X67.0681 Y1.3913 F150.00
G01 X67.1804 Y1.4194 F150.00
G01 X67.2825 Y1.4560 F150.00
G01 X67.3827 Y1.5034 F150.00
G01 X67.4798 Y1.5618 F150.00
G01 X67.5669 Y1.6265 F150.00
G01 X67.6491 Y1.7010 F150.00
G01 X77.0816 Y11.1335 F150.00
G01 X77.1560 Y11.2156 F150.00
G01 X77.2222 Y11.3048 F150.00
G01 X77.2791 Y11.3998 F150.00
G01 X77.3265 Y11.5001 F150.00
G01 X77.3639 Y11.6045 F150.00
G01 X77.3908 Y11.7121 F150.00
G01 X77.4071 Y11.8217 F150.00
G01 X77.4126 Y11.9325 F150.00
G01 X77.4126 Y16.4500 F150.00
G01 X77.4071 Y16.5608 F150.00
G01 X77.3913 Y16.6681 F150.00
G01 X77.3645 Y16.7757 F150.00
G01 X77.3626 Y16.7820 F150.00
G01 X77.3626 Y18.4175 F150.00
G01 X77.3571 Y18.5283 F150.00
G01 X77.3406 Y18.6392 F150.00
G01 X77.3131 Y18.7479 F150.00
G01 X77.2765 Y18.8499 F150.00
G01 X77.2302 Y18.9480 F150.00
G01 X77.1721 Y19.0453 F150.00
G01 X77.1053 Y19.1353 F150.00
G01 X77.0316 Y19.2166 F150.00
G01 X75.3301 Y20.9181 F150.00
G01 X75.3301 Y28.8069 F150.00
G01 X76.2181 Y29.6950 F150.00
G01 X76.5925 Y29.6950 F150.00
G01 X76.5925 Y29.6738 F150.00
G01 X76.5941 Y29.6444 F150.00
G01 X76.5983 Y29.6165 F150.00
G01 X76.6058 Y29.5868 F150.00
G01 X76.6153 Y29.5603 F150.00
G01 X76.6279 Y29.5336 F150.00
G01 X76.6431 Y29.5083 F150.00
G01 X76.6614 Y29.4838 F150.00
G01 X76.6804 Y29.4629 F150.00
G01 X76.7022 Y29.4431 F150.00
G01 X76.7258 Y29.4256 F150.00
G01 X76.7511 Y29.4104 F150.00
G01 X76.7777 Y29.3978 F150.00
G01 X76.8054 Y29.3879 F150.00
G01 X76.8340 Y29.3808 F150.00
G01 X76.8643 Y29.3764 F150.00
G01 X76.8925 Y29.3750 F150.00
G01 X79.1937 Y29.3750 F150.00
G01 X79.2219 Y29.3765 F150.00
G01 X79.2510 Y29.3808 F150.00
G01 X79.2796 Y29.3879 F150.00
G01 X79.3050 Y29.3970 F150.00
G01 X79.3361 Y29.4116 F150.00
G01 X79.3592 Y29.4256 F150.00
G01 X79.3819 Y29.4423 F150.00
G01 X79.4046 Y29.4629 F150.00
G01 X79.4244 Y29.4847 F150.00
G01 X79.4420 Y29.5083 F150.00
G01 X79.4582 Y29.5358 F150.00
G01 X79.4706 Y29.5625 F150.00
G01 X79.4796 Y29.5879 F150.00
G01 X79.4862 Y29.6141 F150.00
G01 X79.4911 Y29.6456 F150.00
G01 X79.4925 Y29.6726 F150.00
G01 X79.4925 Y31.9750 F150.00
G01 X79.4911 Y32.0044 F150.00
G01 X79.4872 Y32.0311 F150.00
G01 X79.4788 Y32.0644 F150.00
G01 X79.4697 Y32.0898 F150.00
G01 X79.4571 Y32.1164 F150.00
G01 X79.4420 Y32.1417 F150.00
G01 X79.4259 Y32.1634 F150.00
G01 X79.4029 Y32.1888 F150.00
G01 X79.3828 Y32.2069 F150.00
G01 X79.3592 Y32.2245 F150.00
G01 X79.3339 Y32.2396 F150.00
G01 X79.3096 Y32.2512 F150.00
G01 X79.2772 Y32.2627 F150.00
G01 X79.2510 Y32.2692 F150.00
G01 X79.2219 Y32.2736 F150.00
G01 X79.1925 Y32.2750 F150.00
G01 X76.8901 Y32.2750 F150.00
G01 X76.8631 Y32.2736 F150.00
G01 X76.8340 Y32.2692 F150.00
G01 X76.8054 Y32.2621 F150.00
G01 X76.7777 Y32.2522 F150.00
G01 X76.7511 Y32.2396 F150.00
G01 X76.7258 Y32.2245 F150.00
G01 X76.7022 Y32.2069 F150.00
G01 X76.6795 Y32.1863 F150.00
G01 X76.6606 Y32.1653 F150.00
G01 X76.6431 Y32.1417 F150.00
G01 X76.6279 Y32.1164 F150.00
G01 X76.6149 Y32.0887 F150.00
G01 X76.6054 Y32.0621 F150.00
G01 X76.5981 Y32.0323 F150.00
G01 X76.5939 Y32.0032 F150.00
G01 X76.5925 Y31.9762 F150.00
G01 X76.5925 Y31.9551 F150.00
G01 X75.7500 Y31.9551 F150.00
G01 X75.6405 Y31.9497 F150.00
G01 X75.5272 Y31.9328 F150.00
G01 X75.4220 Y31.9064 F150.00
G01 X75.3199 Y31.8699 F150.00
G01 X75.2172 Y31.8216 F150.00
G01 X75.1222 Y31.7646 F150.00
G01 X75.0331 Y31.6985 F150.00
G01 X74.9510 Y31.6241 F150.00
G01 X73.4001 Y30.0732 F150.00
G01 X73.3265 Y29.9919 F150.00
G01 X73.2604 Y29.9027 F150.00
G01 X73.2034 Y29.8077 F150.00
G01 X73.1570 Y29.7097 F150.00
G01 X73.1186 Y29.6030 F150.00
G01 X73.0917 Y29.4955 F150.00
G01 X73.0754 Y29.3858 F150.00
G01 X73.0700 Y29.2750 F150.00
G01 X73.0700 Y20.4500 F150.00
G01 X73.0754 Y20.3392 F150.00
G01 X73.0913 Y20.2320 F150.00
G01 X73.1186 Y20.1220 F150.00
G01 X73.1570 Y20.0153 F150.00
G01 X73.2034 Y19.9173 F150.00
G01 X73.2591 Y19.8243 F150.00
G01 X73.3273 Y19.7322 F150.00
G01 X73.4010 Y19.6510 F150.00
G01 X75.1025 Y17.9494 F150.00
G01 X75.1025 Y16.9681 F150.00
G01 X74.5644 Y16.4301 F150.00
G01 X70.9981 Y16.4301 F150.00
G01 X70.1282 Y17.2999 F150.00
G01 X70.0469 Y17.3735 F150.00
G01 X69.9577 Y17.4397 F150.00
G01 X69.8627 Y17.4966 F150.00
G01 X69.7647 Y17.5430 F150.00
G01 X69.6557 Y17.5820 F150.00
G01 X69.5505 Y17.6083 F150.00
G01 X69.4408 Y17.6246 F150.00
G01 X69.3300 Y17.6301 F150.00
G01 X69.2205 Y17.6247 F150.00
G01 X69.1096 Y17.6083 F150.00
G01 X69.0020 Y17.5814 F150.00
G01 X68.8976 Y17.5440 F150.00
G01 X68.7972 Y17.4966 F150.00
G01 X68.7022 Y17.4396 F150.00
G01 X68.6131 Y17.3735 F150.00
G01 X68.5310 Y17.2991 F150.00
G01 X68.4565 Y17.2169 F150.00
G01 X68.3904 Y17.1277 F150.00
G01 X68.3334 Y17.0327 F150.00
G01 X68.2860 Y16.9325 F150.00
G01 X68.2486 Y16.8280 F150.00
G01 X68.2217 Y16.7205 F150.00
G01 X68.2054 Y16.6108 F150.00
G01 X68.2000 Y16.5000 F150.00
G01 X68.2055 Y16.3881 F150.00
G01 X68.2217 Y16.2796 F150.00
G01 X68.2480 Y16.1743 F150.00
G01 X68.2870 Y16.0653 F150.00
G01 X68.3334 Y15.9673 F150.00
G01 X68.3904 Y15.8722 F150.00
G01 X68.4565 Y15.7831 F150.00
G01 X68.5293 Y15.7027 F150.00
G01 X69.7310 Y14.5010 F150.00
G01 X69.8113 Y14.4281 F150.00
G01 X69.9022 Y14.3604 F150.00
G01 X69.9973 Y14.3034 F150.00
G01 X70.0976 Y14.2560 F150.00
G01 X70.2008 Y14.2190 F150.00
G01 X70.3120 Y14.1913 F150.00
G01 X70.4192 Y14.1754 F150.00
G01 X70.5300 Y14.1700 F150.00
G01 X75.0325 Y14.1700 F150.00
G01 X75.1408 Y14.1752 F150.00
G01 X75.1525 Y14.1767 F150.00
G01 X75.1525 Y12.4006 F150.00
G01 X66.3819 Y3.6301 F150.00
G01 X41.9601 Y3.6301 F150.00
G01 X41.9601 Y12.8419 F150.00
G01 X42.9681 Y13.8500 F150.00
G01 X48.5100 Y13.8500 F150.00
G01 X48.6183 Y13.8552 F150.00
G01 X48.7305 Y13.8717 F150.00
G01 X48.8357 Y13.8980 F150.00
G01 X48.9447 Y13.9370 F150.00
G01 X49.0427 Y13.9834 F150.00
G01 X49.1378 Y14.0404 F150.00
G01 X49.2269 Y14.1065 F150.00
G01 X49.3073 Y14.1793 F150.00
G01 X54.0591 Y18.9310 F150.00
G01 X54.1335 Y19.0131 F150.00
G01 X54.1982 Y19.1002 F150.00
G01 X54.2566 Y19.1973 F150.00
G01 X54.3040 Y19.2976 F150.00
G01 X54.3420 Y19.4043 F150.00
G01 X54.3683 Y19.5096 F150.00
G01 X54.3843 Y19.6168 F150.00
G01 X54.3900 Y19.7276 F150.00
G01 X54.3900 Y22.0325 F150.00
G01 X54.3846 Y22.1408 F150.00
G01 X54.3683 Y22.2505 F150.00
G01 X54.3414 Y22.3580 F150.00
G01 X54.3040 Y22.4624 F150.00
G01 X54.2566 Y22.5627 F150.00
G01 X54.1996 Y22.6578 F150.00
G01 X54.1335 Y22.7469 F150.00
G01 X54.0724 Y22.8145 F150.00
G01 X54.0724 Y23.0235 F150.00
G01 X55.1365 Y24.0876 F150.00
G01 X56.5000 Y24.0876 F150.00
G01 X56.5795 Y24.0915 F150.00
G01 X56.6609 Y24.1038 F150.00
G01 X56.7358 Y24.1226 F150.00
G01 X56.8109 Y24.1495 F150.00
G01 X56.8851 Y24.1848 F150.00
G01 X56.9513 Y24.2245 F150.00
G01 X57.0144 Y24.2713 F150.00
G01 X57.0745 Y24.3256 F150.00
G01 X61.4545 Y28.7056 F150.00
G01 X61.5080 Y28.7646 F150.00
G01 X61.5541 Y28.8267 F150.00
G01 X61.5965 Y28.8971 F150.00
G01 X61.6306 Y28.9691 F150.00
G01 X61.6578 Y29.0454 F150.00
G01 X61.6765 Y29.1203 F150.00
G01 X61.6792 Y29.1377 F150.00
G01 X61.7178 Y29.2022 F150.00
G01 X61.7567 Y29.2842 F150.00
G01 X61.7898 Y29.3766 F150.00
G01 X61.8122 Y29.4671 F150.00
G01 X61.8254 Y29.5569 F150.00
G01 X61.8300 Y29.6476 F150.00
G01 X61.8254 Y29.7431 F150.00
G01 X61.8115 Y29.8365 F150.00
G01 X61.7891 Y29.9258 F150.00
G01 X61.7586 Y30.0113 F150.00
G01 X61.7178 Y30.0978 F150.00
G01 X61.6685 Y30.1798 F150.00
G01 X61.6144 Y30.2527 F150.00
G01 X61.5535 Y30.3200 F150.00
G01 X61.4827 Y30.3843 F150.00
G01 X61.4057 Y30.4412 F150.00
G01 X61.3278 Y30.4878 F150.00
G01 X61.2458 Y30.5267 F150.00
G01 X61.1558 Y30.5591 F150.00
G01 X61.0629 Y30.5822 F150.00
G01 X60.9731 Y30.5954 F150.00
G01 X60.8825 Y30.6000 F150.00
G01 X60.7869 Y30.5954 F150.00
G01 X60.6923 Y30.5812 F150.00
G01 X60.6042 Y30.5591 F150.00
G01 X60.5188 Y30.5286 F150.00
G01 X60.4322 Y30.4878 F150.00
G01 X60.3502 Y30.4385 F150.00
G01 X60.2773 Y30.3844 F150.00
G01 X60.2091 Y30.3226 F150.00
G01 X60.1457 Y30.2527 F150.00
G01 X60.0888 Y30.1757 F150.00
G01 X60.0422 Y30.0978 F150.00
G01 X60.0033 Y30.0158 F150.00
G01 X59.9713 Y29.9270 F150.00
G01 X59.9483 Y29.8353 F150.00
G01 X59.9345 Y29.7419 F150.00
G01 X59.9301 Y29.6476 F150.00
G01 X59.9346 Y29.5569 F150.00
G01 X59.9440 Y29.4929 F150.00
G01 X56.1635 Y25.7124 F150.00
G01 X54.8000 Y25.7124 F150.00
G01 X54.7228 Y25.7087 F150.00
G01 X54.6415 Y25.6968 F150.00
G01 X54.5642 Y25.6774 F150.00
G01 X54.4891 Y25.6506 F150.00
G01 X54.4181 Y25.6170 F150.00
G01 X54.3467 Y25.5741 F150.00
G01 X54.2846 Y25.5280 F150.00
G01 X54.2265 Y25.4753 F150.00
G01 X52.6839 Y23.9327 F150.00
G01 X52.6320 Y23.8754 F150.00
G01 X52.5860 Y23.8134 F150.00
G01 X52.5436 Y23.7430 F150.00
G01 X52.5086 Y23.6686 F150.00
G01 X52.4826 Y23.5958 F150.00
G01 X52.4632 Y23.5185 F150.00
G01 X52.4515 Y23.4396 F150.00
G01 X52.4476 Y23.3612 F150.00
G01 X52.4476 Y22.8145 F150.00
G01 X52.3865 Y22.7469 F150.00
G01 X52.3204 Y22.6577 F150.00
G01 X52.2634 Y22.5627 F150.00
G01 X52.2170 Y22.4647 F150.00
G01 X52.1780 Y22.3557 F150.00
G01 X52.1517 Y22.2505 F150.00
G01 X52.1357 Y22.1432 F150.00
G01 X52.1300 Y22.0300 F150.00
G01 X52.1300 Y20.1981 F150.00
G01 X48.0419 Y16.1101 F150.00
G01 X40.8300 Y16.1101 F150.00
G01 X40.7192 Y16.1046 F150.00
G01 X40.6120 Y16.0888 F150.00
G01 X40.5043 Y16.0620 F150.00
G01 X40.4981 Y16.0601 F150.00
G01 X12.1381 Y16.0601 F150.00
G01 X11.8301 Y16.3681 F150.00
G01 X11.8301 Y20.5319 F150.00
G01 X12.1631 Y20.8650 F150.00
G01 X21.3912 Y20.8650 F150.00
G01 X21.5032 Y20.8707 F150.00
G01 X21.6105 Y20.8867 F150.00
G01 X21.7157 Y20.9130 F150.00
G01 X21.8225 Y20.9510 F150.00
G01 X21.9238 Y20.9990 F150.00
G01 X22.0198 Y21.0568 F150.00
G01 X22.1069 Y21.1215 F150.00
G01 X22.1873 Y21.1943 F150.00
G01 X22.2635 Y21.2781 F150.00
G01 X22.3296 Y21.3672 F150.00
G01 X22.3866 Y21.4623 F150.00
G01 X22.4349 Y21.5649 F150.00
G01 X22.4714 Y21.6670 F150.00
G01 X22.4978 Y21.7722 F150.00
G01 X22.5145 Y21.8830 F150.00
G01 X22.5201 Y21.9950 F150.00
G01 X22.5146 Y22.1056 F150.00
G01 X22.4983 Y22.2155 F150.00
G01 X22.4706 Y22.3254 F150.00
G01 X22.4340 Y22.4274 F150.00
G01 X22.3854 Y22.5298 F150.00
G01 X22.3282 Y22.6248 F150.00
G01 X22.2635 Y22.7119 F150.00
G01 X22.2024 Y22.7795 F150.00
G01 X22.2024 Y23.4876 F150.00
G01 X24.4200 Y23.4876 F150.00
G01 X24.4972 Y23.4914 F150.00
G01 X24.5785 Y23.5032 F150.00
G01 X24.6582 Y23.5234 F150.00
G01 X24.7308 Y23.5494 F150.00
G01 X24.8008 Y23.5825 F150.00
G01 X24.8713 Y23.6245 F150.00
G01 X24.9354 Y23.6720 F150.00
G01 X24.9945 Y23.7256 F150.00
G01 X29.5845 Y28.3156 F150.00
G01 X29.6395 Y28.3766 F150.00
G01 X29.6855 Y28.4387 F150.00
G01 X29.7253 Y28.5049 F150.00
G01 X29.7596 Y28.5769 F150.00
G01 X29.7874 Y28.6542 F150.00
G01 X29.8068 Y28.7315 F150.00
G01 X29.8185 Y28.8104 F150.00
G01 X29.8223 Y28.8876 F150.00
G01 X29.8224 Y29.1246 F150.00
G01 X29.8484 Y29.1683 F150.00
G01 X29.8872 Y29.2503 F150.00
G01 X29.9187 Y29.3381 F150.00
G01 X29.9418 Y29.4297 F150.00
G01 X29.9553 Y29.5207 F150.00
G01 X29.9600 Y29.6150 F150.00
G01 X29.9556 Y29.7057 F150.00
G01 X29.9412 Y29.8027 F150.00
G01 X29.9191 Y29.8908 F150.00
G01 X29.8886 Y29.9763 F150.00
G01 X29.8466 Y30.0650 F150.00
G01 X29.7999 Y30.1428 F150.00
G01 X29.7444 Y30.2177 F150.00
G01 X29.6818 Y30.2868 F150.00
G01 X29.6145 Y30.3478 F150.00
G01 X29.5357 Y30.4062 F150.00
G01 X29.4578 Y30.4528 F150.00
G01 X29.3736 Y30.4927 F150.00
G01 X29.2834 Y30.5248 F150.00
G01 X29.1953 Y30.5468 F150.00
G01 X29.1043 Y30.5603 F150.00
G01 X29.0100 Y30.5650 F150.00
G01 X28.9145 Y30.5601 F150.00
G01 X28.8223 Y30.5462 F150.00
G01 X28.7342 Y30.5241 F150.00
G01 X28.6488 Y30.4936 F150.00
G01 X28.5622 Y30.4528 F150.00
G01 X28.4822 Y30.4049 F150.00
G01 X28.4073 Y30.3494 F150.00
G01 X28.3366 Y30.2850 F150.00
G01 X28.2757 Y30.2177 F150.00
G01 X28.2215 Y30.1448 F150.00
G01 X28.1722 Y30.0628 F150.00
G01 X28.1323 Y29.9786 F150.00
G01 X28.1017 Y29.8931 F150.00
G01 X28.0778 Y29.7979 F150.00
G01 X28.0646 Y29.7081 F150.00
G01 X28.0601 Y29.6175 F150.00
G01 X28.0649 Y29.5195 F150.00
G01 X28.0783 Y29.4297 F150.00
G01 X28.1009 Y29.3392 F150.00
G01 X28.1323 Y29.2515 F150.00
G01 X28.1613 Y29.1901 F150.00
G01 X24.0835 Y25.1124 F150.00
G01 X21.8500 Y25.1124 F150.00
G01 X21.7716 Y25.1086 F150.00
G01 X21.6891 Y25.0962 F150.00
G01 X21.6142 Y25.0774 F150.00
G01 X21.5391 Y25.0506 F150.00
G01 X21.4671 Y25.0165 F150.00
G01 X21.4008 Y24.9768 F150.00
G01 X21.3337 Y24.9272 F150.00
G01 X21.2756 Y24.8745 F150.00
G01 X20.8156 Y24.4145 F150.00
G01 X20.7636 Y24.3572 F150.00
G01 X20.7132 Y24.2893 F150.00
G01 X20.6736 Y24.2230 F150.00
G01 X20.6395 Y24.1509 F150.00
G01 X20.6126 Y24.0758 F150.00
G01 X20.5938 Y24.0009 F150.00
G01 X20.5814 Y23.9172 F150.00
G01 X20.5776 Y23.8400 F150.00
G01 X20.5776 Y23.1251 F150.00
G01 X11.6950 Y23.1251 F150.00
G01 X11.5842 Y23.1196 F150.00
G01 X11.4746 Y23.1033 F150.00
G01 X11.3670 Y23.0764 F150.00
G01 X11.2603 Y23.0380 F150.00
G01 X11.1622 Y22.9916 F150.00
G01 X11.0693 Y22.9359 F150.00
G01 X10.9781 Y22.8685 F150.00
G01 X10.8960 Y22.7941 F150.00
G01 X9.8993 Y21.7973 F150.00
G01 X9.8265 Y21.7169 F150.00
G01 X9.7604 Y21.6278 F150.00
G01 X9.7034 Y21.5327 F150.00
G01 X9.6560 Y21.4325 F150.00
G01 X9.6186 Y21.3280 F150.00
G01 X9.5917 Y21.2205 F150.00
G01 X9.5754 Y21.1108 F150.00
G01 X9.5700 Y21.0025 F150.00
G00 Z2.0000
G00 X13.3960 Y17.9156
G01 F80.00
G01 Z-0.0530
G01 F150.00
G01 X13.4257 Y17.8325 F150.00
G01 X13.4604 Y17.7593 F150.00
G01 X13.5033 Y17.6878 F150.00
G01 X13.5530 Y17.6208 F150.00
G01 X13.6073 Y17.5607 F150.00
G01 X13.6708 Y17.5030 F150.00
G01 X13.7399 Y17.4520 F150.00
G01 X13.8093 Y17.4104 F150.00
G01 X13.8847 Y17.3747 F150.00
G01 X13.9633 Y17.3466 F150.00
G01 X14.0418 Y17.3269 F150.00
G01 X14.1291 Y17.3139 F150.00
G01 X14.2100 Y17.3100 F150.00
G01 X14.2933 Y17.3141 F150.00
G01 X14.3758 Y17.3263 F150.00
G01 X14.4544 Y17.3460 F150.00
G01 X14.4598 Y17.3476 F150.00
G01 X24.0612 Y17.3476 F150.00
G01 X24.1395 Y17.3515 F150.00
G01 X24.2185 Y17.3632 F150.00
G01 X24.2958 Y17.3826 F150.00
G01 X24.3686 Y17.4086 F150.00
G01 X24.4451 Y17.4448 F150.00
G01 X24.5113 Y17.4845 F150.00
G01 X24.5744 Y17.5313 F150.00
G01 X24.6345 Y17.5856 F150.00
G01 X25.6136 Y18.5647 F150.00
G01 X44.5500 Y18.5647 F150.00
G01 X44.6196 Y18.5683 F150.00
G01 X44.6837 Y18.5779 F150.00
G01 X44.7476 Y18.5938 F150.00
G01 X44.8123 Y18.6169 F150.00
G01 X44.8752 Y18.6468 F150.00
G01 X44.9308 Y18.6802 F150.00
G01 X44.9828 Y18.7187 F150.00
G01 X45.0337 Y18.7646 F150.00
G01 X47.9346 Y21.6654 F150.00
G01 X47.9798 Y21.7153 F150.00
G01 X48.0191 Y21.7683 F150.00
G01 X48.0555 Y21.8291 F150.00
G01 X48.0832 Y21.8878 F150.00
G01 X48.1051 Y21.9487 F150.00
G01 X48.1222 Y22.0163 F150.00
G01 X48.1322 Y22.0853 F150.00
G01 X48.1353 Y22.1500 F150.00
G01 X48.1353 Y24.0661 F150.00
G01 X49.9839 Y25.9147 F150.00
G01 X53.8012 Y25.9147 F150.00
G01 X53.8696 Y25.9183 F150.00
G01 X53.9337 Y25.9279 F150.00
G01 X53.9966 Y25.9435 F150.00
G01 X54.0623 Y25.9669 F150.00
G01 X54.1252 Y25.9968 F150.00
G01 X54.1808 Y26.0302 F150.00
G01 X54.2328 Y26.0687 F150.00
G01 X54.2846 Y26.1154 F150.00
G01 X56.2846 Y28.1154 F150.00
G01 X56.3298 Y28.1653 F150.00
G01 X56.3698 Y28.2193 F150.00
G01 X56.4044 Y28.2770 F150.00
G01 X56.4332 Y28.3378 F150.00
G01 X56.4558 Y28.4011 F150.00
G01 X56.4726 Y28.4687 F150.00
G01 X56.4820 Y28.5328 F150.00
G01 X56.4853 Y28.5988 F150.00
G01 X56.4853 Y28.9931 F150.00
G01 X56.5344 Y29.0473 F150.00
G01 X56.5885 Y29.1202 F150.00
G01 X56.6378 Y29.2022 F150.00
G01 X56.6786 Y29.2888 F150.00
G01 X56.7091 Y29.3742 F150.00
G01 X56.7318 Y29.4647 F150.00
G01 X56.7454 Y29.5569 F150.00
G01 X56.7500 Y29.6525 F150.00
G01 X56.7454 Y29.7431 F150.00
G01 X56.7322 Y29.8329 F150.00
G01 X56.7094 Y29.9246 F150.00
G01 X56.6777 Y30.0136 F150.00
G01 X56.6366 Y30.1000 F150.00
G01 X56.5899 Y30.1778 F150.00
G01 X56.5359 Y30.2508 F150.00
G01 X56.4718 Y30.3218 F150.00
G01 X56.4008 Y30.3859 F150.00
G01 X56.3278 Y30.4399 F150.00
G01 X56.2500 Y30.4866 F150.00
G01 X56.1636 Y30.5277 F150.00
G01 X56.0758 Y30.5591 F150.00
G01 X55.9829 Y30.5822 F150.00
G01 X55.8931 Y30.5954 F150.00
G01 X55.8025 Y30.6000 F150.00
G01 X55.7069 Y30.5954 F150.00
G01 X55.6147 Y30.5818 F150.00
G01 X55.5219 Y30.5583 F150.00
G01 X55.4365 Y30.5277 F150.00
G01 X55.3544 Y30.4889 F150.00
G01 X55.2722 Y30.4399 F150.00
G01 X55.1973 Y30.3844 F150.00
G01 X55.1283 Y30.3218 F150.00
G01 X55.0657 Y30.2527 F150.00
G01 X55.0101 Y30.1778 F150.00
G01 X54.9622 Y30.0978 F150.00
G01 X54.9223 Y30.0136 F150.00
G01 X54.8909 Y29.9258 F150.00
G01 X54.8683 Y29.8353 F150.00
G01 X54.8544 Y29.7407 F150.00
G01 X54.8500 Y29.6500 F150.00
G01 X54.8546 Y29.5569 F150.00
G01 X54.8683 Y29.4647 F150.00
G01 X54.8909 Y29.3742 F150.00
G01 X54.9223 Y29.2865 F150.00
G01 X54.9634 Y29.2001 F150.00
G01 X55.0115 Y29.1202 F150.00
G01 X55.0657 Y29.0473 F150.00
G01 X55.1147 Y28.9931 F150.00
G01 X55.1147 Y28.8839 F150.00
G01 X53.5161 Y27.2853 F150.00
G01 X49.6988 Y27.2853 F150.00
G01 X49.6328 Y27.2820 F150.00
G01 X49.5663 Y27.2722 F150.00
G01 X49.5011 Y27.2558 F150.00
G01 X49.4400 Y27.2340 F150.00
G01 X49.3748 Y27.2032 F150.00
G01 X49.3193 Y27.1698 F150.00
G01 X49.2653 Y27.1298 F150.00
G01 X49.2154 Y27.0846 F150.00
G01 X46.9654 Y24.8346 F150.00
G01 X46.9187 Y24.7828 F150.00
G01 X46.8803 Y24.7309 F150.00
G01 X46.8456 Y24.6731 F150.00
G01 X46.8169 Y24.6123 F150.00
G01 X46.7935 Y24.5466 F150.00
G01 X46.7779 Y24.4837 F150.00
G01 X46.7683 Y24.4196 F150.00
G01 X46.7647 Y24.3512 F150.00
G01 X46.7647 Y22.4339 F150.00
G01 X44.2661 Y19.9353 F150.00
G01 X41.4078 Y19.9353 F150.00
G01 X41.4087 Y19.9428 F150.00
G01 X41.4124 Y20.0200 F150.00
G01 X41.4124 Y23.2000 F150.00
G01 X41.4082 Y23.2821 F150.00
G01 X41.3968 Y23.3585 F150.00
G01 X41.3778 Y23.4347 F150.00
G01 X41.3506 Y23.5109 F150.00
G01 X41.3153 Y23.5851 F150.00
G01 X41.2755 Y23.6513 F150.00
G01 X41.2295 Y23.7134 F150.00
G01 X41.1761 Y23.7727 F150.00
G01 X39.7124 Y25.2365 F150.00
G01 X39.7124 Y27.6848 F150.00
G01 X39.7731 Y27.7667 F150.00
G01 X39.8271 Y27.8572 F150.00
G01 X39.8701 Y27.9482 F150.00
G01 X39.9040 Y28.0429 F150.00
G01 X39.9293 Y28.1428 F150.00
G01 X39.9450 Y28.2471 F150.00
G01 X39.9500 Y28.3500 F150.00
G01 X39.9450 Y28.4529 F150.00
G01 X39.9296 Y28.5561 F150.00
G01 X39.9048 Y28.6548 F150.00
G01 X39.8701 Y28.7518 F150.00
G01 X39.8260 Y28.8450 F150.00
G01 X39.7731 Y28.9334 F150.00
G01 X39.7117 Y29.0161 F150.00
G01 X39.6425 Y29.0925 F150.00
G01 X39.5661 Y29.1617 F150.00
G01 X39.4854 Y29.2216 F150.00
G01 X39.3950 Y29.2760 F150.00
G01 X39.3041 Y29.3191 F150.00
G01 X39.2024 Y29.3555 F150.00
G01 X39.1049 Y29.3798 F150.00
G01 X39.0029 Y29.3950 F150.00
G01 X38.9000 Y29.4000 F150.00
G01 X38.7983 Y29.3951 F150.00
G01 X38.6952 Y29.3798 F150.00
G01 X38.5976 Y29.3555 F150.00
G01 X38.4960 Y29.3191 F150.00
G01 X38.4050 Y29.2760 F150.00
G01 X38.3167 Y29.2231 F150.00
G01 X38.2339 Y29.1617 F150.00
G01 X38.1593 Y29.0942 F150.00
G01 X38.0868 Y29.0142 F150.00
G01 X38.0270 Y28.9334 F150.00
G01 X37.9740 Y28.8450 F150.00
G01 X37.9299 Y28.7518 F150.00
G01 X37.8960 Y28.6571 F150.00
G01 X37.8698 Y28.5524 F150.00
G01 X37.8549 Y28.4505 F150.00
G01 X37.8500 Y28.3500 F150.00
G01 X37.8549 Y28.2495 F150.00
G01 X37.8702 Y28.1452 F150.00
G01 X37.8946 Y28.0476 F150.00
G01 X37.9299 Y27.9482 F150.00
G01 X37.9740 Y27.8550 F150.00
G01 X38.0270 Y27.7667 F150.00
G01 X38.0876 Y27.6848 F150.00
G01 X38.0876 Y24.9000 F150.00
G01 X38.0915 Y24.8204 F150.00
G01 X38.1038 Y24.7391 F150.00
G01 X38.1226 Y24.6642 F150.00
G01 X38.1494 Y24.5892 F150.00
G01 X38.1836 Y24.5171 F150.00
G01 X38.2232 Y24.4508 F150.00
G01 X38.2728 Y24.3837 F150.00
G01 X38.3256 Y24.3256 F150.00
G01 X39.7876 Y22.8635 F150.00
G01 X39.7876 Y20.0200 F150.00
G01 X39.7914 Y19.9428 F150.00
G01 X39.7922 Y19.9353 F150.00
G01 X25.5850 Y19.9353 F150.00
G01 X25.5330 Y19.9665 F150.00
G01 X25.4609 Y20.0006 F150.00
G01 X25.3858 Y20.0274 F150.00
G01 X25.3270 Y20.0422 F150.00
G01 X24.6153 Y20.7539 F150.00
G01 X24.6153 Y21.4938 F150.00
G01 X24.6374 Y21.5238 F150.00
G01 X24.6802 Y21.5954 F150.00
G01 X24.7153 Y21.6697 F150.00
G01 X24.7430 Y21.7471 F150.00
G01 X24.7641 Y21.8316 F150.00
G01 X24.7759 Y21.9117 F150.00
G01 X24.7800 Y21.9926 F150.00
G01 X24.7756 Y22.0808 F150.00
G01 X24.7637 Y22.1608 F150.00
G01 X24.7441 Y22.2394 F150.00
G01 X24.7153 Y22.3203 F150.00
G01 X24.6784 Y22.3978 F150.00
G01 X24.6368 Y22.4672 F150.00
G01 X24.5886 Y22.5323 F150.00
G01 X24.5311 Y22.5961 F150.00
G01 X24.4692 Y22.6521 F150.00
G01 X24.4043 Y22.7003 F150.00
G01 X24.3307 Y22.7446 F150.00
G01 X24.2530 Y22.7812 F150.00
G01 X24.1768 Y22.8084 F150.00
G01 X24.0958 Y22.8287 F150.00
G01 X24.0109 Y22.8411 F150.00
G01 X23.9300 Y22.8450 F150.00
G01 X23.8479 Y22.8410 F150.00
G01 X23.7642 Y22.8287 F150.00
G01 X23.6833 Y22.8084 F150.00
G01 X23.6047 Y22.7803 F150.00
G01 X23.5315 Y22.7457 F150.00
G01 X23.4558 Y22.7003 F150.00
G01 X23.3908 Y22.6521 F150.00
G01 X23.3273 Y22.5943 F150.00
G01 X23.2730 Y22.5342 F150.00
G01 X23.2233 Y22.4672 F150.00
G01 X23.1804 Y22.3957 F150.00
G01 X23.1447 Y22.3203 F150.00
G01 X23.1166 Y22.2418 F150.00
G01 X23.0963 Y22.1608 F150.00
G01 X23.0841 Y22.0783 F150.00
G01 X23.0800 Y21.9962 F150.00
G01 X23.0844 Y21.9093 F150.00
G01 X23.0963 Y21.8292 F150.00
G01 X23.1170 Y21.7472 F150.00
G01 X23.1447 Y21.6697 F150.00
G01 X23.1798 Y21.5954 F150.00
G01 X23.2226 Y21.5238 F150.00
G01 X23.2447 Y21.4938 F150.00
G01 X23.2448 Y20.4676 F150.00
G01 X23.2480 Y20.4028 F150.00
G01 X23.2579 Y20.3363 F150.00
G01 X23.2742 Y20.2712 F150.00
G01 X23.2964 Y20.2089 F150.00
G01 X23.3256 Y20.1470 F150.00
G01 X23.3602 Y20.0893 F150.00
G01 X23.4003 Y20.0353 F150.00
G01 X23.4437 Y19.9872 F150.00
G01 X24.0910 Y19.3399 F150.00
G01 X23.7235 Y18.9724 F150.00
G01 X14.4598 Y18.9724 F150.00
G01 X14.4544 Y18.9741 F150.00
G01 X14.3758 Y18.9937 F150.00
G01 X14.2933 Y19.0059 F150.00
G01 X14.2100 Y19.0100 F150.00
G01 X14.1267 Y19.0059 F150.00
G01 X14.0442 Y18.9937 F150.00
G01 X13.9633 Y18.9734 F150.00
G01 X13.8847 Y18.9453 F150.00
G01 X13.8072 Y18.9084 F150.00
G01 X13.7358 Y18.8653 F150.00
G01 X13.6708 Y18.8171 F150.00
G01 X13.6107 Y18.7627 F150.00
G01 X13.5530 Y18.6992 F150.00
G01 X13.5033 Y18.6322 F150.00
G01 X13.4604 Y18.5607 F150.00
G01 X13.4247 Y18.4853 F150.00
G01 X13.3966 Y18.4068 F150.00
G01 X13.3759 Y18.3234 F150.00
G01 X13.3641 Y18.2433 F150.00
G01 X13.3601 Y18.1625 F150.00
G01 X13.3639 Y18.0791 F150.00
G01 X13.3763 Y17.9942 F150.00
G01 X13.3960 Y17.9156 F150.00
G00 Z2.0000
G00 X2.6752 Y26.1617
G01 F80.00
G01 Z-0.0530
G01 F150.00
G01 X2.6922 Y26.0472 F150.00
G01 X2.7186 Y25.9420 F150.00
G01 X2.7560 Y25.8376 F150.00
G01 X2.8034 Y25.7373 F150.00
G01 X2.8591 Y25.6443 F150.00
G01 X2.9281 Y25.5513 F150.00
G01 X2.9993 Y25.4727 F150.00
G01 X3.0227 Y25.4493 F150.00
G01 X3.1031 Y25.3765 F150.00
G01 X3.1943 Y25.3091 F150.00
G01 X3.2873 Y25.2534 F150.00
G01 X3.3876 Y25.2060 F150.00
G01 X3.4920 Y25.1686 F150.00
G01 X3.5996 Y25.1417 F150.00
G01 X3.7117 Y25.1252 F150.00
G01 X3.8200 Y25.1200 F150.00
G01 X3.9306 Y25.1254 F150.00
G01 X4.0405 Y25.1417 F150.00
G01 X4.1457 Y25.1680 F150.00
G01 X4.2547 Y25.2070 F150.00
G01 X4.3527 Y25.2534 F150.00
G01 X4.4478 Y25.3104 F150.00
G01 X4.5369 Y25.3765 F150.00
G01 X4.6173 Y25.4493 F150.00
G01 X4.6951 Y25.5351 F150.00
G01 X4.7596 Y25.6222 F150.00
G01 X4.8166 Y25.7173 F150.00
G01 X4.8640 Y25.8176 F150.00
G01 X4.9020 Y25.9243 F150.00
G01 X4.9283 Y26.0296 F150.00
G01 X4.9443 Y26.1368 F150.00
G01 X4.9500 Y26.2488 F150.00
G01 X4.9501 Y32.7519 F150.00
G01 X7.8181 Y35.6200 F150.00
G01 X18.5600 Y35.6200 F150.00
G01 X18.6706 Y35.6254 F150.00
G01 X18.7829 Y35.6422 F150.00
G01 X18.8880 Y35.6686 F150.00
G01 X18.9925 Y35.7060 F150.00
G01 X19.0948 Y35.7546 F150.00
G01 X19.1878 Y35.8104 F150.00
G01 X19.2759 Y35.8757 F150.00
G01 X19.3591 Y35.9510 F150.00
G01 X20.4181 Y37.0100 F150.00
G01 X24.2176 Y37.0100 F150.00
G01 X24.2176 Y36.2165 F150.00
G01 X23.3556 Y35.3545 F150.00
G01 X23.3020 Y35.2954 F150.00
G01 X23.2545 Y35.2313 F150.00
G01 X23.2148 Y35.1651 F150.00
G01 X23.1795 Y35.0909 F150.00
G01 X23.1526 Y35.0158 F150.00
G01 X23.1338 Y34.9409 F150.00
G01 X23.1214 Y34.8584 F150.00
G01 X23.1176 Y34.7800 F150.00
G01 X23.1176 Y29.8648 F150.00
G01 X23.1160 Y29.8594 F150.00
G01 X23.0963 Y29.7808 F150.00
G01 X23.0841 Y29.6983 F150.00
G01 X23.0800 Y29.6150 F150.00
G01 X23.0840 Y29.5329 F150.00
G01 X23.0963 Y29.4492 F150.00
G01 X23.1174 Y29.3659 F150.00
G01 X23.1447 Y29.2897 F150.00
G01 X23.1793 Y29.2165 F150.00
G01 X23.2233 Y29.1428 F150.00
G01 X23.2730 Y29.0758 F150.00
G01 X23.3307 Y29.0123 F150.00
G01 X23.3908 Y28.9580 F150.00
G01 X23.4558 Y28.9097 F150.00
G01 X23.5283 Y28.8660 F150.00
G01 X23.6047 Y28.8297 F150.00
G01 X23.6856 Y28.8010 F150.00
G01 X23.7642 Y28.7813 F150.00
G01 X23.8443 Y28.7694 F150.00
G01 X23.9276 Y28.7651 F150.00
G01 X24.0133 Y28.7691 F150.00
G01 X24.0958 Y28.7813 F150.00
G01 X24.1766 Y28.8016 F150.00
G01 X24.2575 Y28.8307 F150.00
G01 X24.3307 Y28.8654 F150.00
G01 X24.4002 Y28.9070 F150.00
G01 X24.4673 Y28.9564 F150.00
G01 X24.5311 Y29.0140 F150.00
G01 X24.5871 Y29.0758 F150.00
G01 X24.6368 Y29.1428 F150.00
G01 X24.6807 Y29.2165 F150.00
G01 X24.7162 Y29.2920 F150.00
G01 X24.7434 Y29.3683 F150.00
G01 X24.7631 Y29.4468 F150.00
G01 X24.7761 Y29.5341 F150.00
G01 X24.7800 Y29.6150 F150.00
G01 X24.7761 Y29.6959 F150.00
G01 X24.7637 Y29.7808 F150.00
G01 X24.7441 Y29.8594 F150.00
G01 X24.7424 Y29.8648 F150.00
G01 X24.7424 Y33.9676 F150.00
G01 X30.5335 Y33.9676 F150.00
G01 X31.9376 Y32.5635 F150.00
G01 X31.9376 Y26.9865 F150.00
G01 X30.4135 Y25.4624 F150.00
G01 X28.1488 Y25.4624 F150.00
G01 X28.0679 Y25.4582 F150.00
G01 X27.9915 Y25.4468 F150.00
G01 X27.9166 Y25.4281 F150.00
G01 X27.8391 Y25.4006 F150.00
G01 X27.7660 Y25.3659 F150.00
G01 X27.6987 Y25.3255 F150.00
G01 X27.6366 Y25.2795 F150.00
G01 X27.5756 Y25.2245 F150.00
G01 X25.8956 Y23.5445 F150.00
G01 X25.8436 Y23.4872 F150.00
G01 X25.7932 Y23.4193 F150.00
G01 X25.7536 Y23.3530 F150.00
G01 X25.7195 Y23.2809 F150.00
G01 X25.6926 Y23.2058 F150.00
G01 X25.6738 Y23.1309 F150.00
G01 X25.6615 Y23.0496 F150.00
G01 X25.6576 Y22.9700 F150.00
G01 X25.6576 Y22.2448 F150.00
G01 X25.6560 Y22.2394 F150.00
G01 X25.6359 Y22.1584 F150.00
G01 X25.6241 Y22.0783 F150.00
G01 X25.6200 Y21.9938 F150.00
G01 X25.6241 Y21.9117 F150.00
G01 X25.6363 Y21.8292 F150.00
G01 X25.6566 Y21.7484 F150.00
G01 X25.6843 Y21.6709 F150.00
G01 X25.7204 Y21.5943 F150.00
G01 X25.7633 Y21.5228 F150.00
G01 X25.8130 Y21.4558 F150.00
G01 X25.8673 Y21.3957 F150.00
G01 X25.9308 Y21.3380 F150.00
G01 X25.9958 Y21.2897 F150.00
G01 X26.0715 Y21.2443 F150.00
G01 X26.1447 Y21.2097 F150.00
G01 X26.2233 Y21.1816 F150.00
G01 X26.3042 Y21.1613 F150.00
G01 X26.3867 Y21.1491 F150.00
G01 X26.4700 Y21.1450 F150.00
G01 X26.5533 Y21.1491 F150.00
G01 X26.6358 Y21.1613 F150.00
G01 X26.7166 Y21.1816 F150.00
G01 X26.7953 Y21.2097 F150.00
G01 X26.8728 Y21.2466 F150.00
G01 X26.9443 Y21.2897 F150.00
G01 X27.0092 Y21.3380 F150.00
G01 X27.0693 Y21.3923 F150.00
G01 X27.1271 Y21.4558 F150.00
G01 X27.1768 Y21.5228 F150.00
G01 X27.2196 Y21.5943 F150.00
G01 X27.2558 Y21.6709 F150.00
G01 X27.2834 Y21.7483 F150.00
G01 X27.3037 Y21.8292 F150.00
G01 X27.3159 Y21.9117 F150.00
G01 X27.3200 Y21.9938 F150.00
G01 X27.3159 Y22.0783 F150.00
G01 X27.3041 Y22.1584 F150.00
G01 X27.2841 Y22.2394 F150.00
G01 X27.2824 Y22.2448 F150.00
G01 X27.2824 Y22.6335 F150.00
G01 X28.4865 Y23.8376 F150.00
G01 X30.7512 Y23.8376 F150.00
G01 X30.8295 Y23.8415 F150.00
G01 X30.9109 Y23.8538 F150.00
G01 X30.9858 Y23.8726 F150.00
G01 X31.0586 Y23.8986 F150.00
G01 X31.1308 Y23.9325 F150.00
G01 X31.2034 Y23.9760 F150.00
G01 X31.2654 Y24.0220 F150.00
G01 X31.3245 Y24.0756 F150.00
G01 X33.3245 Y26.0756 F150.00
G01 X33.3795 Y26.1366 F150.00
G01 X33.4255 Y26.1987 F150.00
G01 X33.4659 Y26.2660 F150.00
G01 X33.5006 Y26.3391 F150.00
G01 X33.5281 Y26.4166 F150.00
G01 X33.5468 Y26.4915 F150.00
G01 X33.5582 Y26.5679 F150.00
G01 X33.5624 Y26.6488 F150.00
G01 X33.5624 Y32.9000 F150.00
G01 X33.5587 Y32.9772 F150.00
G01 X33.5462 Y33.0609 F150.00
G01 X33.5274 Y33.1358 F150.00
G01 X33.4996 Y33.2131 F150.00
G01 X33.4665 Y33.2830 F150.00
G01 X33.4255 Y33.3513 F150.00
G01 X33.3780 Y33.4154 F150.00
G01 X33.3253 Y33.4736 F150.00
G01 X31.4436 Y35.3553 F150.00
G01 X31.3834 Y35.4095 F150.00
G01 X31.3213 Y35.4555 F150.00
G01 X31.2551 Y35.4953 F150.00
G01 X31.1809 Y35.5306 F150.00
G01 X31.1070 Y35.5570 F150.00
G01 X31.0261 Y35.5772 F150.00
G01 X30.9496 Y35.5885 F150.00
G01 X30.8700 Y35.5924 F150.00
G01 X25.7889 Y35.5924 F150.00
G01 X25.8074 Y35.6442 F150.00
G01 X25.8268 Y35.7215 F150.00
G01 X25.8385 Y35.8004 F150.00
G01 X25.8423 Y35.8776 F150.00
G01 X25.8424 Y37.0100 F150.00
G01 X37.6893 Y37.0100 F150.00
G01 X37.7610 Y36.9310 F150.00
G01 X38.1027 Y36.5893 F150.00
G01 X38.1831 Y36.5165 F150.00
G01 X38.2702 Y36.4518 F150.00
G01 X38.3662 Y36.3940 F150.00
G01 X38.4699 Y36.3451 F150.00
G01 X38.5720 Y36.3086 F150.00
G01 X38.6796 Y36.2817 F150.00
G01 X38.7917 Y36.2652 F150.00
G01 X38.9000 Y36.2600 F150.00
G01 X39.0083 Y36.2652 F150.00
G01 X39.1205 Y36.2817 F150.00
G01 X39.2280 Y36.3086 F150.00
G01 X39.3325 Y36.3460 F150.00
G01 X39.4348 Y36.3946 F150.00
G01 X39.5298 Y36.4518 F150.00
G01 X39.6169 Y36.5165 F150.00
G01 X39.6973 Y36.5893 F150.00
G01 X39.7735 Y36.6731 F150.00
G01 X39.8396 Y36.7622 F150.00
G01 X39.8966 Y36.8573 F150.00
G01 X39.9449 Y36.9599 F150.00
G01 X39.9820 Y37.0643 F150.00
G01 X40.0083 Y37.1696 F150.00
G01 X40.0243 Y37.2768 F150.00
G01 X40.0301 Y37.3900 F150.00
G01 X40.0246 Y37.5008 F150.00
G01 X40.0083 Y37.6105 F150.00
G01 X39.9814 Y37.7180 F150.00
G01 X39.9430 Y37.8247 F150.00
G01 X39.8966 Y37.9228 F150.00
G01 X39.8409 Y38.0158 F150.00
G01 X39.7735 Y38.1069 F150.00
G01 X39.7008 Y38.1873 F150.00
G01 X39.6871 Y38.2010 F150.00
G01 X39.6845 Y38.2520 F150.00
G01 X39.6686 Y38.3593 F150.00
G01 X39.6417 Y38.4669 F150.00
G01 X39.6040 Y38.5724 F150.00
G01 X39.5571 Y38.6717 F150.00
G01 X39.4982 Y38.7698 F150.00
G01 X39.4335 Y38.8569 F150.00
G01 X39.3608 Y38.9373 F150.00
G01 X39.2769 Y39.0135 F150.00
G01 X39.1878 Y39.0797 F150.00
G01 X39.0927 Y39.1366 F150.00
G01 X38.9925 Y39.1840 F150.00
G01 X38.8880 Y39.2214 F150.00
G01 X38.7805 Y39.2483 F150.00
G01 X38.6708 Y39.2646 F150.00
G01 X38.5600 Y39.2701 F150.00
G01 X19.9476 Y39.2700 F150.00
G01 X19.8392 Y39.2646 F150.00
G01 X19.7296 Y39.2483 F150.00
G01 X19.6220 Y39.2214 F150.00
G01 X19.5199 Y39.1849 F150.00
G01 X19.4152 Y39.1354 F150.00
G01 X19.3222 Y39.0796 F150.00
G01 X19.2351 Y39.0151 F150.00
G01 X19.1510 Y38.9391 F150.00
G01 X18.0919 Y37.8801 F150.00
G01 X7.3500 Y37.8801 F150.00
G01 X7.2368 Y37.8743 F150.00
G01 X7.1296 Y37.8583 F150.00
G01 X7.0220 Y37.8314 F150.00
G01 X6.9176 Y37.7940 F150.00
G01 X6.8152 Y37.7454 F150.00
G01 X6.7222 Y37.6896 F150.00
G01 X6.6351 Y37.6251 F150.00
G01 X6.5510 Y37.5491 F150.00
G01 X3.0201 Y34.0182 F150.00
G01 X2.9465 Y33.9369 F150.00
G01 X2.8804 Y33.8478 F150.00
G01 X2.8234 Y33.7527 F150.00
G01 X2.7755 Y33.6513 F150.00
G01 X2.7386 Y33.5480 F150.00
G01 X2.7117 Y33.4405 F150.00
G01 X2.6954 Y33.3308 F150.00
G01 X2.6900 Y33.2212 F150.00
G01 X2.6900 Y26.4793 F150.00
G01 X2.6754 Y26.3808 F150.00
G01 X2.6700 Y26.2725 F150.00
G01 X2.6752 Y26.1617 F150.00
G00 Z2.0000
G00 X11.7173 Y33.0545
G01 F80.00
G01 Z-0.0530
G01 F150.00
G01 X11.6601 Y32.9778 F150.00
G01 X11.6111 Y32.8956 F150.00
G01 X11.5723 Y32.8136 F150.00
G01 X11.5417 Y32.7281 F150.00
G01 X11.5183 Y32.6353 F150.00
G01 X11.5046 Y32.5431 F150.00
G01 X11.5001 Y32.4476 F150.00
G01 X11.5046 Y32.3569 F150.00
G01 X11.5178 Y32.2671 F150.00
G01 X11.5409 Y32.1742 F150.00
G01 X11.5723 Y32.0865 F150.00
G01 X11.6134 Y32.0001 F150.00
G01 X11.6601 Y31.9222 F150.00
G01 X11.7141 Y31.8493 F150.00
G01 X11.7783 Y31.7783 F150.00
G01 X11.8473 Y31.7157 F150.00
G01 X11.9243 Y31.6588 F150.00
G01 X12.0044 Y31.6111 F150.00
G01 X12.0865 Y31.5723 F150.00
G01 X12.1719 Y31.5417 F150.00
G01 X12.2647 Y31.5183 F150.00
G01 X12.3569 Y31.5046 F150.00
G01 X12.4500 Y31.5000 F150.00
G01 X12.5443 Y31.5047 F150.00
G01 X12.6353 Y31.5183 F150.00
G01 X12.7270 Y31.5413 F150.00
G01 X12.8147 Y31.5728 F150.00
G01 X12.8967 Y31.6116 F150.00
G01 X12.9404 Y31.6376 F150.00
G01 X18.2535 Y31.6376 F150.00
G01 X20.4576 Y29.4335 F150.00
G01 X20.4588 Y29.4273 F150.00
G01 X20.4809 Y29.3392 F150.00
G01 X20.5123 Y29.2515 F150.00
G01 X20.5522 Y29.1672 F150.00
G01 X20.6015 Y29.0852 F150.00
G01 X20.6557 Y29.0123 F150.00
G01 X20.7166 Y28.9450 F150.00
G01 X20.7855 Y28.8823 F150.00
G01 X20.8622 Y28.8251 F150.00
G01 X20.9411 Y28.7778 F150.00
G01 X21.0265 Y28.7373 F150.00
G01 X21.1142 Y28.7059 F150.00
G01 X21.2047 Y28.6833 F150.00
G01 X21.2993 Y28.6694 F150.00
G01 X21.3925 Y28.6651 F150.00
G01 X21.4831 Y28.6696 F150.00
G01 X21.5729 Y28.6828 F150.00
G01 X21.6658 Y28.7059 F150.00
G01 X21.7536 Y28.7373 F150.00
G01 X21.8378 Y28.7772 F150.00
G01 X21.9178 Y28.8251 F150.00
G01 X21.9927 Y28.8807 F150.00
G01 X22.0635 Y28.9450 F150.00
G01 X22.1259 Y29.0143 F150.00
G01 X22.1799 Y29.0872 F150.00
G01 X22.2266 Y29.1651 F150.00
G01 X22.2677 Y29.2515 F150.00
G01 X22.2983 Y29.3369 F150.00
G01 X22.3218 Y29.4297 F150.00
G01 X22.3356 Y29.5243 F150.00
G01 X22.3400 Y29.6150 F150.00
G01 X22.3356 Y29.7057 F150.00
G01 X22.3218 Y29.8003 F150.00
G01 X22.2983 Y29.8931 F150.00
G01 X22.2677 Y29.9786 F150.00
G01 X22.2289 Y30.0606 F150.00
G01 X22.1799 Y30.1428 F150.00
G01 X22.1228 Y30.2195 F150.00
G01 X22.0618 Y30.2868 F150.00
G01 X21.9945 Y30.3478 F150.00
G01 X21.9178 Y30.4049 F150.00
G01 X21.8378 Y30.4528 F150.00
G01 X21.7558 Y30.4917 F150.00
G01 X21.6644 Y30.5245 F150.00
G01 X19.1636 Y33.0253 F150.00
G01 X19.1054 Y33.0780 F150.00
G01 X19.0393 Y33.1268 F150.00
G01 X18.9730 Y33.1665 F150.00
G01 X18.9031 Y33.1996 F150.00
G01 X18.8282 Y33.2266 F150.00
G01 X18.7461 Y33.2472 F150.00
G01 X18.6696 Y33.2585 F150.00
G01 X18.5900 Y33.2624 F150.00
G01 X12.9404 Y33.2624 F150.00
G01 X12.8967 Y33.2884 F150.00
G01 X12.8147 Y33.3272 F150.00
G01 X12.7246 Y33.3594 F150.00
G01 X12.6353 Y33.3818 F150.00
G01 X12.5456 Y33.3951 F150.00
G01 X12.4488 Y33.4000 F150.00
G01 X12.3569 Y33.3954 F150.00
G01 X12.2647 Y33.3818 F150.00
G01 X12.1742 Y33.3591 F150.00
G01 X12.0842 Y33.3267 F150.00
G01 X12.0001 Y33.2866 F150.00
G01 X11.9222 Y33.2399 F150.00
G01 X11.8493 Y33.1859 F150.00
G01 X11.7783 Y33.1218 F150.00
G01 X11.7173 Y33.0545 F150.00
G00 Z2.0000
G00 X10.3860 Y40.6056
G01 F80.00
G01 Z-0.0530
G01 F150.00
G01 X10.4147 Y40.5247 F150.00
G01 X10.4504 Y40.4493 F150.00
G01 X10.4933 Y40.3778 F150.00
G01 X10.5430 Y40.3108 F150.00
G01 X10.5990 Y40.2490 F150.00
G01 X10.6608 Y40.1930 F150.00
G01 X10.7278 Y40.1433 F150.00
G01 X10.8015 Y40.0993 F150.00
G01 X10.8747 Y40.0647 F150.00
G01 X10.9556 Y40.0360 F150.00
G01 X11.0342 Y40.0163 F150.00
G01 X11.1143 Y40.0044 F150.00
G01 X11.1976 Y40.0001 F150.00
G01 X11.2833 Y40.0041 F150.00
G01 X11.3658 Y40.0163 F150.00
G01 X11.4466 Y40.0366 F150.00
G01 X11.5230 Y40.0638 F150.00
G01 X11.6007 Y40.1004 F150.00
G01 X11.6722 Y40.1433 F150.00
G01 X11.7392 Y40.1930 F150.00
G01 X11.8002 Y40.2481 F150.00
G01 X11.8571 Y40.3108 F150.00
G01 X11.9053 Y40.3758 F150.00
G01 X11.9484 Y40.4472 F150.00
G01 X11.9511 Y40.4522 F150.00
G01 X13.0865 Y41.5876 F150.00
G01 X21.6000 Y41.5876 F150.00
G01 X21.6795 Y41.5915 F150.00
G01 X21.7585 Y41.6032 F150.00
G01 X21.8358 Y41.6226 F150.00
G01 X21.9108 Y41.6494 F150.00
G01 X21.9830 Y41.6836 F150.00
G01 X22.0513 Y41.7245 F150.00
G01 X22.1154 Y41.7720 F150.00
G01 X22.1727 Y41.8239 F150.00
G01 X23.0753 Y42.7265 F150.00
G01 X23.1295 Y42.7866 F150.00
G01 X23.1755 Y42.8487 F150.00
G01 X23.2153 Y42.9149 F150.00
G01 X23.2506 Y42.9891 F150.00
G01 X23.2770 Y43.0630 F150.00
G01 X23.2972 Y43.1439 F150.00
G01 X23.3085 Y43.2204 F150.00
G01 X23.3124 Y43.3000 F150.00
G01 X23.3086 Y43.3784 F150.00
G01 X23.3024 Y43.4211 F150.00
G01 X23.3024 Y45.2696 F150.00
G01 X23.3284 Y45.3133 F150.00
G01 X23.3672 Y45.3953 F150.00
G01 X23.3994 Y45.4854 F150.00
G01 X23.4222 Y45.5771 F150.00
G01 X23.4354 Y45.6669 F150.00
G01 X23.4400 Y45.7588 F150.00
G01 X23.4354 Y45.8531 F150.00
G01 X23.4218 Y45.9453 F150.00
G01 X23.3991 Y46.0358 F150.00
G01 X23.3677 Y46.1236 F150.00
G01 X23.3266 Y46.2100 F150.00
G01 X23.2799 Y46.2878 F150.00
G01 X23.2244 Y46.3627 F150.00
G01 X23.1600 Y46.4335 F150.00
G01 X23.0927 Y46.4943 F150.00
G01 X23.0198 Y46.5485 F150.00
G01 X22.9378 Y46.5978 F150.00
G01 X22.8513 Y46.6386 F150.00
G01 X22.7658 Y46.6691 F150.00
G01 X22.6777 Y46.6912 F150.00
G01 X22.5831 Y46.7054 F150.00
G01 X22.4876 Y46.7100 F150.00
G01 X22.3969 Y46.7054 F150.00
G01 X22.3071 Y46.6922 F150.00
G01 X22.2142 Y46.6691 F150.00
G01 X22.1242 Y46.6367 F150.00
G01 X22.0422 Y46.5978 F150.00
G01 X21.9643 Y46.5512 F150.00
G01 X21.8873 Y46.4944 F150.00
G01 X21.8166 Y46.4300 F150.00
G01 X21.7557 Y46.3627 F150.00
G01 X21.7008 Y46.2888 F150.00
G01 X21.6511 Y46.2056 F150.00
G01 X21.6123 Y46.1236 F150.00
G01 X21.5809 Y46.0358 F150.00
G01 X21.5578 Y45.9429 F150.00
G01 X21.5446 Y45.8531 F150.00
G01 X21.5400 Y45.7600 F150.00
G01 X21.5449 Y45.6645 F150.00
G01 X21.5583 Y45.5747 F150.00
G01 X21.5806 Y45.4854 F150.00
G01 X21.6128 Y45.3953 F150.00
G01 X21.6516 Y45.3133 F150.00
G01 X21.6776 Y45.2696 F150.00
G01 X21.6776 Y43.6265 F150.00
G01 X21.2635 Y43.2124 F150.00
G01 X12.7500 Y43.2124 F150.00
G01 X12.6704 Y43.2085 F150.00
G01 X12.5891 Y43.1962 F150.00
G01 X12.5142 Y43.1774 F150.00
G01 X12.4414 Y43.1514 F150.00
G01 X12.3693 Y43.1176 F150.00
G01 X12.2987 Y43.0755 F150.00
G01 X12.2337 Y43.0272 F150.00
G01 X12.1756 Y42.9745 F150.00
G01 X10.8022 Y41.6011 F150.00
G01 X10.7972 Y41.5984 F150.00
G01 X10.7278 Y41.5568 F150.00
G01 X10.6608 Y41.5071 F150.00
G01 X10.5990 Y41.4511 F150.00
G01 X10.5437 Y41.3902 F150.00
G01 X10.4933 Y41.3222 F150.00
G01 X10.4493 Y41.2485 F150.00
G01 X10.4147 Y41.1753 F150.00
G01 X10.3874 Y41.0991 F150.00
G01 X10.3663 Y41.0158 F150.00
G01 X10.3541 Y40.9333 F150.00
G01 X10.3501 Y40.8476 F150.00
G01 X10.3541 Y40.7667 F150.00
G01 X10.3659 Y40.6866 F150.00
G01 X10.3860 Y40.6056 F150.00
G00 Z2.0000
G00 X9.6875 Y47.0916
G01 F80.00
G01 Z-0.0530
G01 F150.00
G01 X9.6875 Y46.1349 F150.00
G01 X9.7235 Y45.9075 F150.00
G01 X9.7947 Y45.6886 F150.00
G01 X9.8992 Y45.4835 F150.00
G01 X10.0345 Y45.2973 F150.00
G01 X10.6873 Y44.6445 F150.00
G01 X10.8735 Y44.5092 F150.00
G01 X11.0504 Y44.4190 F150.00
G01 X11.0786 Y44.4047 F150.00
G01 X11.2975 Y44.3335 F150.00
G01 X11.5249 Y44.2975 F150.00
G01 X19.2483 Y44.2975 F150.00
G01 X19.2577 Y44.2964 F150.00
G01 X19.2827 Y44.2904 F150.00
G01 X19.3018 Y44.2890 F150.00
G01 X19.3111 Y44.2870 F150.00
G01 X19.3252 Y44.2820 F150.00
G01 X19.3356 Y44.2768 F150.00
G01 X19.4203 Y44.2492 F150.00
G01 X19.4505 Y44.2355 F150.00
G01 X19.4567 Y44.2320 F150.00
G01 X19.4632 Y44.2267 F150.00
G01 X19.4788 Y44.2111 F150.00
G01 X19.4954 Y44.2001 F150.00
G01 X19.5019 Y44.1947 F150.00
G01 X19.5059 Y44.1902 F150.00
G01 X19.5087 Y44.1863 F150.00
G01 X19.5143 Y44.1756 F150.00
G01 X19.5203 Y44.1696 F150.00
G01 X19.5241 Y44.1647 F150.00
G01 X19.5274 Y44.1594 F150.00
G01 X19.5300 Y44.1537 F150.00
G01 X19.5367 Y44.1296 F150.00
G01 X19.5465 Y44.1093 F150.00
G01 X19.5485 Y44.1035 F150.00
G01 X19.5497 Y44.0986 F150.00
G01 X19.5505 Y44.0899 F150.00
G01 X19.5499 Y44.0802 F150.00
G01 X19.5527 Y44.0683 F150.00
G01 X19.5531 Y44.0584 F150.00
G01 X19.5518 Y44.0498 F150.00
G01 X19.5463 Y44.0292 F150.00
G01 X19.5447 Y44.0080 F150.00
G01 X19.5440 Y44.0031 F150.00
G01 X19.5424 Y43.9971 F150.00
G01 X19.5401 Y43.9913 F150.00
G01 X19.5377 Y43.9869 F150.00
G01 X19.5330 Y43.9799 F150.00
G01 X19.5308 Y43.9717 F150.00
G01 X19.5285 Y43.9659 F150.00
G01 X19.5255 Y43.9604 F150.00
G01 X19.5219 Y43.9554 F150.00
G01 X19.5044 Y43.9375 F150.00
G01 X19.4925 Y43.9199 F150.00
G01 X19.4868 Y43.9133 F150.00
G01 X19.4790 Y43.9070 F150.00
G01 X19.4682 Y43.9014 F150.00
G01 X19.4603 Y43.8938 F150.00
G01 X19.4531 Y43.8889 F150.00
G01 X19.4440 Y43.8849 F150.00
G01 X19.4223 Y43.8790 F150.00
G01 X19.4031 Y43.8697 F150.00
G01 X19.3961 Y43.8671 F150.00
G01 X19.3913 Y43.8660 F150.00
G01 X19.3851 Y43.8653 F150.00
G01 X19.3729 Y43.8658 F150.00
G01 X19.3636 Y43.8634 F150.00
G01 X19.3565 Y43.8626 F150.00
G01 X12.6349 Y43.8625 F150.00
G01 X12.4075 Y43.8265 F150.00
G01 X12.3112 Y43.7952 F150.00
G01 X12.1886 Y43.7554 F150.00
G01 X11.9835 Y43.6509 F150.00
G01 X11.7973 Y43.5155 F150.00
G01 X10.4292 Y42.1475 F150.00
G01 X10.4064 Y42.1281 F150.00
G01 X10.2225 Y41.9945 F150.00
G01 X10.0555 Y41.8275 F150.00
G01 X9.9167 Y41.6364 F150.00
G01 X9.8146 Y41.4362 F150.00
G01 X9.8571 Y41.3892 F150.00
G01 X9.9068 Y41.3222 F150.00
G01 X9.9496 Y41.2507 F150.00
G01 X9.9843 Y41.1775 F150.00
G01 X10.0141 Y41.0944 F150.00
G01 X10.0337 Y41.0158 F150.00
G01 X10.0460 Y40.9321 F150.00
G01 X10.0500 Y40.8500 F150.00
G01 X10.0459 Y40.7667 F150.00
G01 X10.0337 Y40.6842 F150.00
G01 X10.0126 Y40.6009 F150.00
G01 X9.9853 Y40.5247 F150.00
G01 X9.9484 Y40.4472 F150.00
G01 X9.9053 Y40.3758 F150.00
G01 X9.8571 Y40.3108 F150.00
G01 X9.8146 Y40.2639 F150.00
G01 X9.9167 Y40.0636 F150.00
G01 X10.0555 Y39.8725 F150.00
G01 X10.2225 Y39.7055 F150.00
G01 X10.4136 Y39.5667 F150.00
G01 X10.6240 Y39.4594 F150.00
G01 X10.8486 Y39.3865 F150.00
G01 X11.0819 Y39.3495 F150.00
G01 X11.3181 Y39.3495 F150.00
G01 X11.5514 Y39.3865 F150.00
G01 X11.7760 Y39.4595 F150.00
G01 X11.9864 Y39.5667 F150.00
G01 X12.1775 Y39.7055 F150.00
G01 X12.3445 Y39.8725 F150.00
G01 X12.4781 Y40.0564 F150.00
G01 X12.4975 Y40.0792 F150.00
G01 X13.2985 Y40.8801 F150.00
G01 X13.3343 Y40.9080 F150.00
G01 X13.3384 Y40.9106 F150.00
G01 X13.3438 Y40.9134 F150.00
G01 X13.3508 Y40.9158 F150.00
G01 X13.4253 Y40.9358 F150.00
G01 X13.4311 Y40.9370 F150.00
G01 X13.4382 Y40.9375 F150.00
G01 X21.7151 Y40.9375 F150.00
G01 X21.9425 Y40.9735 F150.00
