(G-CODE GENERATED BY FLATCAM v8.993 - www.flatcam.org - Version Date: 2020/06/05)

(Name: pistas)
(Type: G-code from Geometry)
(Units: MM)

(Created on Thursday, 06 November 2025 at 21:59)

(This preprocessor is used with a motion controller loaded with GRBL firmware.)
(It is configured to be compatible with almost any version of GRBL firmware.)

(TOOL DIAMETER: 0.1 mm)
(Feedrate_XY: 150.0 mm/min)
(Feedrate_Z: 80.0 mm/min)
(Feedrate rapids 1500.0 mm/min)

(Z_Cut: -0.04 mm)
(Z_Move: 2.0 mm)
(Z Start: None mm)
(Z End: 15.0 mm)
(Steps per circle: 64)
(Preprocessor Geometry: grbl_11)

(X range:    0.3955 ...   83.3082  mm)
(Y range:    0.3955 ...   57.2545  mm)

(Spindle Speed: 10000 RPM)
G21
G90
G17
G94




G01 F150.00
G00 Z2.0000

M03 S10000
G00 X0.3955 Y3.0288
G01 F80.00
G01 Z-0.0400
G01 F150.00
G01 X0.3960 Y3.0134 F150.00
G01 X0.4142 Y2.7155 F150.00
G01 X0.4172 Y2.6929 F150.00
G01 X0.4689 Y2.4108 F150.00
G01 X0.4763 Y2.3810 F150.00
G01 X0.5616 Y2.1072 F150.00
G01 X0.5695 Y2.0858 F150.00
G01 X0.6936 Y1.8098 F150.00
G01 X0.7044 Y1.7898 F150.00
G01 X0.8528 Y1.5443 F150.00
G01 X0.8702 Y1.5191 F150.00
G01 X1.0472 Y1.2933 F150.00
G01 X1.0675 Y1.2703 F150.00
G01 X1.2703 Y1.0675 F150.00
G01 X1.2872 Y1.0522 F150.00
G01 X1.5254 Y0.8656 F150.00
G01 X1.5443 Y0.8528 F150.00
G01 X1.7966 Y0.7006 F150.00
G01 X1.8169 Y0.6902 F150.00
G01 X2.0785 Y0.5725 F150.00
G01 X2.1072 Y0.5616 F150.00
G01 X2.3810 Y0.4763 F150.00
G01 X2.4108 Y0.4689 F150.00
G01 X2.6929 Y0.4172 F150.00
G01 X2.7155 Y0.4142 F150.00
G01 X3.0134 Y0.3960 F150.00
G01 X3.0248 Y0.3956 F150.00
G01 X80.6749 Y0.3955 F150.00
G01 X80.6903 Y0.3960 F150.00
G01 X80.9803 Y0.4135 F150.00
G01 X81.0030 Y0.4160 F150.00
G01 X81.2929 Y0.4689 F150.00
G01 X81.3227 Y0.4763 F150.00
G01 X81.6040 Y0.5642 F150.00
G01 X81.6252 Y0.5725 F150.00
G01 X81.8868 Y0.6902 F150.00
G01 X81.9140 Y0.7044 F150.00
G01 X82.1627 Y0.8549 F150.00
G01 X82.1847 Y0.8703 F150.00
G01 X82.4165 Y1.0522 F150.00
G01 X82.4334 Y1.0675 F150.00
G01 X82.6416 Y1.2760 F150.00
G01 X82.6566 Y1.2933 F150.00
G01 X82.8381 Y1.5254 F150.00
G01 X82.8509 Y1.5443 F150.00
G01 X83.0031 Y1.7966 F150.00
G01 X83.0135 Y1.8169 F150.00
G01 X83.1343 Y2.0857 F150.00
G01 X83.1421 Y2.1071 F150.00
G01 X83.2296 Y2.3886 F150.00
G01 X83.2348 Y2.4108 F150.00
G01 X83.2877 Y2.7007 F150.00
G01 X83.2902 Y2.7234 F150.00
G01 X83.3077 Y3.0131 F150.00
G01 X83.3082 Y3.0284 F150.00
G01 X83.3082 Y54.6213 F150.00
G01 X83.3077 Y54.6366 F150.00
G01 X83.2902 Y54.9267 F150.00
G01 X83.2877 Y54.9493 F150.00
G01 X83.2348 Y55.2392 F150.00
G01 X83.2274 Y55.2690 F150.00
G01 X83.1395 Y55.5503 F150.00
G01 X83.1312 Y55.5715 F150.00
G01 X83.0135 Y55.8331 F150.00
G01 X82.9993 Y55.8603 F150.00
G01 X82.8488 Y56.1090 F150.00
G01 X82.8334 Y56.1310 F150.00
G01 X82.6515 Y56.3628 F150.00
G01 X82.6362 Y56.3797 F150.00
G01 X82.4277 Y56.5879 F150.00
G01 X82.4104 Y56.6029 F150.00
G01 X82.1783 Y56.7844 F150.00
G01 X82.1594 Y56.7972 F150.00
G01 X81.9071 Y56.9494 F150.00
G01 X81.8868 Y56.9598 F150.00
G01 X81.6180 Y57.0805 F150.00
G01 X81.5965 Y57.0884 F150.00
G01 X81.3151 Y57.1759 F150.00
G01 X81.2929 Y57.1811 F150.00
G01 X81.0030 Y57.2340 F150.00
G01 X80.9803 Y57.2365 F150.00
G01 X80.6899 Y57.2540 F150.00
G01 X80.6746 Y57.2545 F150.00
G01 X3.0288 Y57.2545 F150.00
G01 X3.0134 Y57.2540 F150.00
G01 X2.7234 Y57.2365 F150.00
G01 X2.7007 Y57.2340 F150.00
G01 X2.4108 Y57.1811 F150.00
G01 X2.3810 Y57.1738 F150.00
G01 X2.1072 Y57.0884 F150.00
G01 X2.0858 Y57.0806 F150.00
G01 X1.8169 Y56.9598 F150.00
G01 X1.7898 Y56.9456 F150.00
G01 X1.5410 Y56.7951 F150.00
G01 X1.5191 Y56.7798 F150.00
G01 X1.2872 Y56.5978 F150.00
G01 X1.2703 Y56.5825 F150.00
G01 X1.0621 Y56.3740 F150.00
G01 X1.0472 Y56.3568 F150.00
G01 X0.8656 Y56.1246 F150.00
G01 X0.8528 Y56.1057 F150.00
G01 X0.7006 Y55.8534 F150.00
G01 X0.6902 Y55.8331 F150.00
G01 X0.5695 Y55.5643 F150.00
G01 X0.5616 Y55.5429 F150.00
G01 X0.4742 Y55.2615 F150.00
G01 X0.4689 Y55.2392 F150.00
G01 X0.4160 Y54.9493 F150.00
G01 X0.4135 Y54.9267 F150.00
G01 X0.3960 Y54.6366 F150.00
G01 X0.3956 Y54.6252 F150.00
G01 X0.3955 Y3.0288 F150.00
G00 Z2.0000
G00 X0.4755 Y3.0288
G01 F80.00
G01 Z-0.0400
G01 F150.00
G01 X0.4758 Y3.0183 F150.00
G01 X0.4936 Y2.7252 F150.00
G01 X0.4959 Y2.7073 F150.00
G01 X0.5476 Y2.4252 F150.00
G01 X0.5526 Y2.4048 F150.00
G01 X0.6380 Y2.1310 F150.00
G01 X0.6443 Y2.1141 F150.00
G01 X0.7645 Y1.8470 F150.00
G01 X0.7729 Y1.8312 F150.00
G01 X0.9213 Y1.5857 F150.00
G01 X0.9332 Y1.5684 F150.00
G01 X1.1101 Y1.3426 F150.00
G01 X1.1241 Y1.3269 F150.00
G01 X1.3269 Y1.1241 F150.00
G01 X1.3403 Y1.1121 F150.00
G01 X1.5708 Y0.9314 F150.00
G01 X1.5857 Y0.9213 F150.00
G01 X1.8338 Y0.7714 F150.00
G01 X1.8497 Y0.7631 F150.00
G01 X2.1113 Y0.6454 F150.00
G01 X2.1310 Y0.6380 F150.00
G01 X2.4048 Y0.5526 F150.00
G01 X2.4252 Y0.5476 F150.00
G01 X2.7073 Y0.4959 F150.00
G01 X2.7252 Y0.4936 F150.00
G01 X3.0273 Y0.4755 F150.00
G01 X80.6749 Y0.4755 F150.00
G01 X80.6855 Y0.4758 F150.00
G01 X80.9755 Y0.4934 F150.00
G01 X80.9934 Y0.4955 F150.00
G01 X81.2785 Y0.5476 F150.00
G01 X81.2989 Y0.5526 F150.00
G01 X81.5756 Y0.6390 F150.00
G01 X81.5924 Y0.6454 F150.00
G01 X81.8540 Y0.7631 F150.00
G01 X81.8726 Y0.7729 F150.00
G01 X82.1193 Y0.9221 F150.00
G01 X82.1353 Y0.9332 F150.00
G01 X82.3634 Y1.1121 F150.00
G01 X82.3768 Y1.1240 F150.00
G01 X82.5817 Y1.3291 F150.00
G01 X82.5936 Y1.3426 F150.00
G01 X82.7723 Y1.5708 F150.00
G01 X82.7824 Y1.5857 F150.00
G01 X82.9323 Y1.8338 F150.00
G01 X82.9406 Y1.8498 F150.00
G01 X83.0595 Y2.1141 F150.00
G01 X83.0657 Y2.1309 F150.00
G01 X83.1519 Y2.4077 F150.00
G01 X83.1561 Y2.4252 F150.00
G01 X83.2083 Y2.7103 F150.00
G01 X83.2103 Y2.7282 F150.00
G01 X83.2279 Y3.0179 F150.00
G01 X83.2282 Y3.0284 F150.00
G01 X83.2282 Y54.6213 F150.00
G01 X83.2279 Y54.6318 F150.00
G01 X83.2103 Y54.9218 F150.00
G01 X83.2083 Y54.9397 F150.00
G01 X83.1561 Y55.2248 F150.00
G01 X83.1511 Y55.2452 F150.00
G01 X83.0647 Y55.5219 F150.00
G01 X83.0583 Y55.5387 F150.00
G01 X82.9406 Y55.8003 F150.00
G01 X82.9308 Y55.8189 F150.00
G01 X82.7816 Y56.0656 F150.00
G01 X82.7705 Y56.0816 F150.00
G01 X82.5916 Y56.3097 F150.00
G01 X82.5796 Y56.3231 F150.00
G01 X82.3746 Y56.5280 F150.00
G01 X82.3611 Y56.5399 F150.00
G01 X82.1329 Y56.7186 F150.00
G01 X82.1180 Y56.7287 F150.00
G01 X81.8699 Y56.8786 F150.00
G01 X81.8540 Y56.8869 F150.00
G01 X81.5896 Y57.0057 F150.00
G01 X81.5727 Y57.0120 F150.00
G01 X81.2960 Y57.0982 F150.00
G01 X81.2785 Y57.1024 F150.00
G01 X80.9934 Y57.1546 F150.00
G01 X80.9755 Y57.1566 F150.00
G01 X80.6851 Y57.1742 F150.00
G01 X80.6746 Y57.1745 F150.00
G01 X3.0288 Y57.1745 F150.00
G01 X3.0183 Y57.1742 F150.00
G01 X2.7282 Y57.1566 F150.00
G01 X2.7103 Y57.1546 F150.00
G01 X2.4252 Y57.1024 F150.00
G01 X2.4048 Y57.0974 F150.00
G01 X2.1310 Y57.0121 F150.00
G01 X2.1141 Y57.0058 F150.00
G01 X1.8498 Y56.8869 F150.00
G01 X1.8311 Y56.8771 F150.00
G01 X1.5844 Y56.7279 F150.00
G01 X1.5684 Y56.7168 F150.00
G01 X1.3403 Y56.5380 F150.00
G01 X1.3269 Y56.5260 F150.00
G01 X1.1220 Y56.3210 F150.00
G01 X1.1101 Y56.3074 F150.00
G01 X0.9314 Y56.0792 F150.00
G01 X0.9213 Y56.0643 F150.00
G01 X0.7714 Y55.8162 F150.00
G01 X0.7631 Y55.8003 F150.00
G01 X0.6443 Y55.5359 F150.00
G01 X0.6380 Y55.5191 F150.00
G01 X0.5518 Y55.2423 F150.00
G01 X0.5476 Y55.2248 F150.00
G01 X0.4955 Y54.9397 F150.00
G01 X0.4934 Y54.9218 F150.00
G01 X0.4755 Y54.6228 F150.00
G01 X0.4755 Y3.0288 F150.00
G00 Z2.0000
G00 X2.2745 Y4.9227
G01 F80.00
G01 Z-0.0400
G01 F150.00
G01 X2.3065 Y4.7205 F150.00
G01 X2.3698 Y4.5258 F150.00
G01 X2.4627 Y4.3434 F150.00
G01 X2.5830 Y4.1778 F150.00
G01 X2.7278 Y4.0330 F150.00
G01 X2.8934 Y3.9127 F150.00
G01 X3.0758 Y3.8198 F150.00
G01 X3.2705 Y3.7565 F150.00
G01 X3.4727 Y3.7245 F150.00
G01 X3.6774 Y3.7245 F150.00
G01 X3.8795 Y3.7565 F150.00
G01 X4.0742 Y3.8198 F150.00
G01 X4.2566 Y3.9127 F150.00
G01 X4.4222 Y4.0330 F150.00
G01 X4.5670 Y4.1778 F150.00
G01 X4.6873 Y4.3434 F150.00
G01 X4.7802 Y4.5258 F150.00
G01 X4.8435 Y4.7205 F150.00
G01 X4.8755 Y4.9227 F150.00
G01 X4.8755 Y5.1274 F150.00
G01 X4.8435 Y5.3295 F150.00
G01 X4.7802 Y5.5242 F150.00
G01 X4.6873 Y5.7066 F150.00
G01 X4.5670 Y5.8722 F150.00
G01 X4.4222 Y6.0170 F150.00
G01 X4.2566 Y6.1373 F150.00
G01 X4.0742 Y6.2302 F150.00
G01 X3.8795 Y6.2935 F150.00
G01 X3.6774 Y6.3255 F150.00
G01 X3.4727 Y6.3255 F150.00
G01 X3.2705 Y6.2935 F150.00
G01 X3.0758 Y6.2302 F150.00
G01 X2.8934 Y6.1373 F150.00
G01 X2.7278 Y6.0170 F150.00
G01 X2.5830 Y5.8722 F150.00
G01 X2.4627 Y5.7066 F150.00
G01 X2.3698 Y5.5242 F150.00
G01 X2.3065 Y5.3295 F150.00
G01 X2.2745 Y5.1274 F150.00
G01 X2.2745 Y4.9227 F150.00
G00 Z2.0000
G00 X2.3545 Y4.9290
G01 F80.00
G01 Z-0.0400
G01 F150.00
G01 X2.3846 Y4.7392 F150.00
G01 X2.4439 Y4.5565 F150.00
G01 X2.5311 Y4.3853 F150.00
G01 X2.6441 Y4.2299 F150.00
G01 X2.7799 Y4.0941 F150.00
G01 X2.9353 Y3.9811 F150.00
G01 X3.1065 Y3.8939 F150.00
G01 X3.2892 Y3.8346 F150.00
G01 X3.4790 Y3.8045 F150.00
G01 X3.6711 Y3.8045 F150.00
G01 X3.8608 Y3.8346 F150.00
G01 X4.0435 Y3.8939 F150.00
G01 X4.2147 Y3.9811 F150.00
G01 X4.3701 Y4.0941 F150.00
G01 X4.5060 Y4.2299 F150.00
G01 X4.6189 Y4.3853 F150.00
G01 X4.7061 Y4.5565 F150.00
G01 X4.7655 Y4.7392 F150.00
G01 X4.7955 Y4.9290 F150.00
G01 X4.7955 Y5.1211 F150.00
G01 X4.7655 Y5.3108 F150.00
G01 X4.7061 Y5.4935 F150.00
G01 X4.6189 Y5.6647 F150.00
G01 X4.5060 Y5.8201 F150.00
G01 X4.3701 Y5.9560 F150.00
G01 X4.2147 Y6.0689 F150.00
G01 X4.0435 Y6.1561 F150.00
G01 X3.8608 Y6.2155 F150.00
G01 X3.6711 Y6.2455 F150.00
G01 X3.4790 Y6.2455 F150.00
G01 X3.2892 Y6.2155 F150.00
G01 X3.1065 Y6.1561 F150.00
G01 X2.9353 Y6.0689 F150.00
G01 X2.7799 Y5.9560 F150.00
G01 X2.6441 Y5.8201 F150.00
G01 X2.5311 Y5.6647 F150.00
G01 X2.4439 Y5.4935 F150.00
G01 X2.3846 Y5.3108 F150.00
G01 X2.3545 Y5.1211 F150.00
G01 X2.3545 Y4.9290 F150.00
G00 Z2.0000
G00 X3.5017 Y18.6274
G01 F80.00
G01 Z-0.0400
G01 F150.00
G01 X3.6702 Y18.5416 F150.00
G01 X3.8573 Y18.4808 F150.00
G01 X4.0516 Y18.4500 F150.00
G01 X4.2484 Y18.4500 F150.00
G01 X4.4427 Y18.4808 F150.00
G01 X4.6298 Y18.5416 F150.00
G01 X4.7983 Y18.6274 F150.00
G01 X4.4996 Y18.9261 F150.00
G01 X4.4742 Y18.9143 F150.00
G01 X4.3979 Y18.8870 F150.00
G01 X4.3170 Y18.8666 F150.00
G01 X4.2333 Y18.8541 F150.00
G01 X4.1500 Y18.8500 F150.00
G01 X4.0667 Y18.8541 F150.00
G01 X3.9830 Y18.8666 F150.00
G01 X3.9021 Y18.8870 F150.00
G01 X3.8259 Y18.9143 F150.00
G01 X3.8004 Y18.9261 F150.00
G01 X3.5017 Y18.6274 F150.00
G00 Z2.0000
G00 X3.6361 Y18.6487
G01 F80.00
G01 Z-0.0400
G01 F150.00
G01 X3.7009 Y18.6157 F150.00
G01 X3.8760 Y18.5588 F150.00
G01 X4.0579 Y18.5300 F150.00
G01 X4.2421 Y18.5300 F150.00
G01 X4.4240 Y18.5588 F150.00
G01 X4.5991 Y18.6157 F150.00
G01 X4.6639 Y18.6487 F150.00
G01 X4.4809 Y18.8317 F150.00
G01 X4.4200 Y18.8101 F150.00
G01 X4.3314 Y18.7879 F150.00
G01 X4.2412 Y18.7745 F150.00
G01 X4.1500 Y18.7700 F150.00
G01 X4.0589 Y18.7745 F150.00
G01 X3.9686 Y18.7879 F150.00
G01 X3.8800 Y18.8101 F150.00
G01 X3.8191 Y18.8317 F150.00
G01 X3.6361 Y18.6487 F150.00
G00 Z2.0000
G00 X2.9800 Y19.6079
G01 F80.00
G01 Z-0.0400
G01 F150.00
G01 X3.0088 Y19.4260 F150.00
G01 X3.0657 Y19.2509 F150.00
G01 X3.0987 Y19.1861 F150.00
G01 X3.2817 Y19.3691 F150.00
G01 X3.2601 Y19.4300 F150.00
G01 X3.2379 Y19.5186 F150.00
G01 X3.2245 Y19.6089 F150.00
G01 X3.2200 Y19.7000 F150.00
G01 X3.2245 Y19.7912 F150.00
G01 X3.2379 Y19.8814 F150.00
G01 X3.2601 Y19.9700 F150.00
G01 X3.2817 Y20.0309 F150.00
G01 X3.0987 Y20.2139 F150.00
G01 X3.0657 Y20.1491 F150.00
G01 X3.0088 Y19.9740 F150.00
G01 X2.9800 Y19.7921 F150.00
G01 X2.9800 Y19.6079 F150.00
G00 Z2.0000
G00 X2.9000 Y19.6016
G01 F80.00
G01 Z-0.0400
G01 F150.00
G01 X2.9308 Y19.4073 F150.00
G01 X2.9916 Y19.2202 F150.00
G01 X3.0774 Y19.0517 F150.00
G01 X3.3761 Y19.3504 F150.00
G01 X3.3643 Y19.3759 F150.00
G01 X3.3370 Y19.4521 F150.00
G01 X3.3166 Y19.5330 F150.00
G01 X3.3041 Y19.6167 F150.00
G01 X3.3000 Y19.7000 F150.00
G01 X3.3041 Y19.7833 F150.00
G01 X3.3166 Y19.8670 F150.00
G01 X3.3370 Y19.9479 F150.00
G01 X3.3643 Y20.0242 F150.00
G01 X3.3761 Y20.0496 F150.00
G01 X3.0774 Y20.3483 F150.00
G01 X2.9916 Y20.1798 F150.00
G01 X2.9308 Y19.9927 F150.00
G01 X2.9000 Y19.7984 F150.00
G01 X2.9000 Y19.6016 F150.00
G00 Z2.0000
G00 X3.5017 Y20.7726
G01 F80.00
G01 Z-0.0400
G01 F150.00
G01 X3.8004 Y20.4739 F150.00
G01 X3.8259 Y20.4858 F150.00
G01 X3.9021 Y20.5130 F150.00
G01 X3.9830 Y20.5334 F150.00
G01 X4.0667 Y20.5459 F150.00
G01 X4.1500 Y20.5500 F150.00
G01 X4.2333 Y20.5459 F150.00
G01 X4.3170 Y20.5334 F150.00
G01 X4.3979 Y20.5130 F150.00
G01 X4.4742 Y20.4858 F150.00
G01 X4.4996 Y20.4739 F150.00
G01 X4.7983 Y20.7726 F150.00
G01 X4.6298 Y20.8584 F150.00
G01 X4.4427 Y20.9192 F150.00
G01 X4.2484 Y20.9500 F150.00
G01 X4.0516 Y20.9500 F150.00
G01 X3.8573 Y20.9192 F150.00
G01 X3.6702 Y20.8584 F150.00
G01 X3.5017 Y20.7726 F150.00
G00 Z2.0000
G00 X3.6361 Y20.7513
G01 F80.00
G01 Z-0.0400
G01 F150.00
G01 X3.8191 Y20.5683 F150.00
G01 X3.8800 Y20.5900 F150.00
G01 X3.9686 Y20.6121 F150.00
G01 X4.0589 Y20.6255 F150.00
G01 X4.1500 Y20.6300 F150.00
G01 X4.2412 Y20.6255 F150.00
G01 X4.3314 Y20.6121 F150.00
G01 X4.4200 Y20.5900 F150.00
G01 X4.4809 Y20.5683 F150.00
G01 X4.6639 Y20.7513 F150.00
G01 X4.5991 Y20.7843 F150.00
G01 X4.4240 Y20.8412 F150.00
G01 X4.2421 Y20.8700 F150.00
G01 X4.0579 Y20.8700 F150.00
G01 X3.8760 Y20.8412 F150.00
G01 X3.7009 Y20.7843 F150.00
G01 X3.6361 Y20.7513 F150.00
G00 Z2.0000
G00 X4.9239 Y20.0496
G01 F80.00
G01 Z-0.0400
G01 F150.00
G01 X4.9358 Y20.0242 F150.00
G01 X4.9630 Y19.9479 F150.00
G01 X4.9834 Y19.8670 F150.00
G01 X4.9959 Y19.7833 F150.00
G01 X5.0000 Y19.7000 F150.00
G01 X4.9959 Y19.6167 F150.00
G01 X4.9834 Y19.5330 F150.00
G01 X4.9630 Y19.4521 F150.00
G01 X4.9358 Y19.3759 F150.00
G01 X4.9239 Y19.3504 F150.00
G01 X5.2226 Y19.0517 F150.00
G01 X5.3084 Y19.2202 F150.00
G01 X5.3692 Y19.4073 F150.00
G01 X5.4000 Y19.6016 F150.00
G01 X5.4000 Y19.7984 F150.00
G01 X5.3692 Y19.9927 F150.00
G01 X5.3084 Y20.1798 F150.00
G01 X5.2226 Y20.3483 F150.00
G01 X4.9239 Y20.0496 F150.00
G00 Z2.0000
G00 X5.0183 Y20.0309
G01 F80.00
G01 Z-0.0400
G01 F150.00
G01 X5.0400 Y19.9700 F150.00
G01 X5.0621 Y19.8814 F150.00
G01 X5.0755 Y19.7912 F150.00
G01 X5.0800 Y19.7000 F150.00
G01 X5.0755 Y19.6089 F150.00
G01 X5.0621 Y19.5186 F150.00
G01 X5.0400 Y19.4300 F150.00
G01 X5.0183 Y19.3691 F150.00
G01 X5.2013 Y19.1861 F150.00
G01 X5.2343 Y19.2509 F150.00
G01 X5.2912 Y19.4260 F150.00
G01 X5.3200 Y19.6079 F150.00
G01 X5.3200 Y19.7921 F150.00
G01 X5.2912 Y19.9740 F150.00
G01 X5.2343 Y20.1491 F150.00
G01 X5.2013 Y20.2139 F150.00
G01 X5.0183 Y20.0309 F150.00
G00 Z2.0000
G00 X6.3119 Y23.3064
G01 F80.00
G01 Z-0.0400
G01 F150.00
G01 X6.3118 Y11.1500 F150.00
G01 X6.3144 Y11.0938 F150.00
G01 X6.3156 Y11.0811 F150.00
G01 X6.3240 Y11.0255 F150.00
G01 X6.3392 Y10.9647 F150.00
G01 X6.3603 Y10.9058 F150.00
G01 X6.3843 Y10.8548 F150.00
G01 X6.3903 Y10.8436 F150.00
G01 X6.4159 Y10.8008 F150.00
G01 X6.4230 Y10.7902 F150.00
G01 X6.4566 Y10.7451 F150.00
G01 X6.4987 Y10.6987 F150.00
G01 X11.3487 Y5.8487 F150.00
G01 X11.3951 Y5.8066 F150.00
G01 X11.4454 Y5.7693 F150.00
G01 X11.4991 Y5.7371 F150.00
G01 X11.5528 Y5.7116 F150.00
G01 X11.5617 Y5.7080 F150.00
G01 X11.6147 Y5.6892 F150.00
G01 X11.6755 Y5.6740 F150.00
G01 X11.7375 Y5.6648 F150.00
G01 X11.8000 Y5.6618 F150.00
G01 X17.2508 Y5.6618 F150.00
G01 X17.3125 Y5.5316 F150.00
G01 X17.3913 Y5.3998 F150.00
G01 X17.3984 Y5.3892 F150.00
G01 X17.4861 Y5.2710 F150.00
G01 X17.4942 Y5.2611 F150.00
G01 X17.5974 Y5.1474 F150.00
G01 X17.7111 Y5.0442 F150.00
G01 X17.7210 Y5.0361 F150.00
G01 X17.8444 Y4.9447 F150.00
G01 X17.9816 Y4.8625 F150.00
G01 X18.1262 Y4.7941 F150.00
G01 X18.2768 Y4.7402 F150.00
G01 X18.4320 Y4.7013 F150.00
G01 X18.5839 Y4.6786 F150.00
G01 X18.5966 Y4.6774 F150.00
G01 X18.7436 Y4.6702 F150.00
G01 X18.7564 Y4.6702 F150.00
G01 X18.9098 Y4.6779 F150.00
G01 X19.0617 Y4.7002 F150.00
G01 X19.0742 Y4.7027 F150.00
G01 X19.2232 Y4.7402 F150.00
G01 X19.3738 Y4.7941 F150.00
G01 X19.5184 Y4.8625 F150.00
G01 X19.6502 Y4.9413 F150.00
G01 X19.6608 Y4.9484 F150.00
G01 X19.7841 Y5.0400 F150.00
G01 X19.8980 Y5.1430 F150.00
G01 X19.9070 Y5.1520 F150.00
G01 X20.0059 Y5.2611 F150.00
G01 X20.0139 Y5.2710 F150.00
G01 X20.1053 Y5.3944 F150.00
G01 X20.1844 Y5.5261 F150.00
G01 X20.1904 Y5.5373 F150.00
G01 X20.2559 Y5.6762 F150.00
G01 X20.3078 Y5.8208 F150.00
G01 X20.3115 Y5.8330 F150.00
G01 X20.3487 Y5.9820 F150.00
G01 X20.3714 Y6.1339 F150.00
G01 X20.3726 Y6.1466 F150.00
G01 X20.3800 Y6.3000 F150.00
G01 X20.3726 Y6.4534 F150.00
G01 X20.3714 Y6.4661 F150.00
G01 X20.3487 Y6.6180 F150.00
G01 X20.3115 Y6.7670 F150.00
G01 X20.3078 Y6.7792 F150.00
G01 X20.2559 Y6.9238 F150.00
G01 X20.1904 Y7.0627 F150.00
G01 X20.1844 Y7.0739 F150.00
G01 X20.1053 Y7.2056 F150.00
G01 X20.0100 Y7.3341 F150.00
G01 X19.9070 Y7.4480 F150.00
G01 X19.8980 Y7.4570 F150.00
G01 X19.7841 Y7.5600 F150.00
G01 X19.6608 Y7.6516 F150.00
G01 X19.6502 Y7.6587 F150.00
G01 X19.5184 Y7.7375 F150.00
G01 X19.3738 Y7.8059 F150.00
G01 X19.2232 Y7.8598 F150.00
G01 X19.0680 Y7.8987 F150.00
G01 X18.9098 Y7.9222 F150.00
G01 X18.7500 Y7.9300 F150.00
G01 X18.5902 Y7.9222 F150.00
G01 X18.4320 Y7.8987 F150.00
G01 X18.2830 Y7.8615 F150.00
G01 X18.2708 Y7.8578 F150.00
G01 X18.1262 Y7.8059 F150.00
G01 X17.9816 Y7.7375 F150.00
G01 X17.8444 Y7.6553 F150.00
G01 X17.7210 Y7.5639 F150.00
G01 X17.7111 Y7.5559 F150.00
G01 X17.5974 Y7.4526 F150.00
G01 X17.4942 Y7.3389 F150.00
G01 X17.4861 Y7.3290 F150.00
G01 X17.3984 Y7.2108 F150.00
G01 X17.3913 Y7.2002 F150.00
G01 X17.3125 Y7.0684 F150.00
G01 X17.2508 Y6.9383 F150.00
G01 X12.0644 Y6.9383 F150.00
G01 X7.5883 Y11.4144 F150.00
G01 X7.5883 Y23.0356 F150.00
G01 X10.1644 Y25.6118 F150.00
G01 X13.3046 Y25.6118 F150.00
G01 X13.3247 Y25.5902 F150.00
G01 X13.3876 Y25.5332 F150.00
G01 X13.3951 Y25.5272 F150.00
G01 X13.4607 Y25.4786 F150.00
G01 X13.4687 Y25.4733 F150.00
G01 X13.5416 Y25.4298 F150.00
G01 X13.6212 Y25.3921 F150.00
G01 X13.6301 Y25.3885 F150.00
G01 X13.7100 Y25.3601 F150.00
G01 X13.7986 Y25.3379 F150.00
G01 X13.8889 Y25.3245 F150.00
G01 X13.9800 Y25.3200 F150.00
G01 X14.0712 Y25.3245 F150.00
G01 X14.1614 Y25.3379 F150.00
G01 X14.2500 Y25.3601 F150.00
G01 X14.3300 Y25.3885 F150.00
G01 X14.3388 Y25.3921 F150.00
G01 X14.4184 Y25.4298 F150.00
G01 X14.4913 Y25.4733 F150.00
G01 X14.4993 Y25.4786 F150.00
G01 X14.5650 Y25.5272 F150.00
G01 X14.5724 Y25.5332 F150.00
G01 X14.6353 Y25.5902 F150.00
G01 X14.6554 Y25.6118 F150.00
G01 X23.3500 Y25.6118 F150.00
G01 X23.4126 Y25.6148 F150.00
G01 X23.4745 Y25.6240 F150.00
G01 X23.5353 Y25.6392 F150.00
G01 X23.5883 Y25.6580 F150.00
G01 X23.6001 Y25.6629 F150.00
G01 X23.6509 Y25.6871 F150.00
G01 X23.7046 Y25.7193 F150.00
G01 X23.7549 Y25.7566 F150.00
G01 X23.8013 Y25.7987 F150.00
G01 X26.7234 Y28.7207 F150.00
G01 X26.7369 Y28.7242 F150.00
G01 X26.7460 Y28.7271 F150.00
G01 X26.8200 Y28.7535 F150.00
G01 X26.8317 Y28.7584 F150.00
G01 X26.9084 Y28.7948 F150.00
G01 X26.9867 Y28.8417 F150.00
G01 X27.0550 Y28.8922 F150.00
G01 X27.0648 Y28.9003 F150.00
G01 X27.1276 Y28.9574 F150.00
G01 X27.1889 Y29.0250 F150.00
G01 X27.2433 Y29.0983 F150.00
G01 X27.2871 Y29.1711 F150.00
G01 X27.2931 Y29.1823 F150.00
G01 X27.3266 Y29.2533 F150.00
G01 X27.3315 Y29.2651 F150.00
G01 X27.3600 Y29.3450 F150.00
G01 X27.3821 Y29.4336 F150.00
G01 X27.3955 Y29.5239 F150.00
G01 X27.3999 Y29.6086 F150.00
G01 X27.3999 Y29.6214 F150.00
G01 X27.3960 Y29.6998 F150.00
G01 X27.3948 Y29.7125 F150.00
G01 X27.3821 Y29.7964 F150.00
G01 X27.3600 Y29.8850 F150.00
G01 X27.3292 Y29.9709 F150.00
G01 X27.2931 Y30.0477 F150.00
G01 X27.2871 Y30.0590 F150.00
G01 X27.2467 Y30.1263 F150.00
G01 X27.2396 Y30.1369 F150.00
G01 X27.1889 Y30.2050 F150.00
G01 X27.1276 Y30.2726 F150.00
G01 X27.0600 Y30.3339 F150.00
G01 X26.9919 Y30.3846 F150.00
G01 X26.9813 Y30.3917 F150.00
G01 X26.9084 Y30.4352 F150.00
G01 X26.8317 Y30.4716 F150.00
G01 X26.8200 Y30.4765 F150.00
G01 X26.7460 Y30.5030 F150.00
G01 X26.7338 Y30.5067 F150.00
G01 X26.6514 Y30.5271 F150.00
G01 X26.5675 Y30.5398 F150.00
G01 X26.5548 Y30.5410 F150.00
G01 X26.4700 Y30.5450 F150.00
G01 X26.3789 Y30.5405 F150.00
G01 X26.2886 Y30.5271 F150.00
G01 X26.2000 Y30.5050 F150.00
G01 X26.1141 Y30.4742 F150.00
G01 X26.0316 Y30.4352 F150.00
G01 X25.9533 Y30.3883 F150.00
G01 X25.8825 Y30.3359 F150.00
G01 X25.8752 Y30.3297 F150.00
G01 X25.8170 Y30.2770 F150.00
G01 X25.8080 Y30.2680 F150.00
G01 X25.7511 Y30.2050 F150.00
G01 X25.6967 Y30.1317 F150.00
G01 X25.6530 Y30.0590 F150.00
G01 X25.6470 Y30.0477 F150.00
G01 X25.6108 Y29.9709 F150.00
G01 X25.5810 Y29.8880 F150.00
G01 X25.5784 Y29.8788 F150.00
G01 X25.5593 Y29.8027 F150.00
G01 X25.5568 Y29.7902 F150.00
G01 X25.5445 Y29.7062 F150.00
G01 X25.5401 Y29.6182 F150.00
G01 X25.5402 Y29.6086 F150.00
G01 X25.5440 Y29.5302 F150.00
G01 X25.5448 Y29.5207 F150.00
G01 X25.5579 Y29.4336 F150.00
G01 X25.5724 Y29.3750 F150.00
G01 X23.0856 Y26.8883 F150.00
G01 X14.6554 Y26.8883 F150.00
G01 X14.6353 Y26.9098 F150.00
G01 X14.5724 Y26.9669 F150.00
G01 X14.5650 Y26.9728 F150.00
G01 X14.4993 Y27.0215 F150.00
G01 X14.4913 Y27.0267 F150.00
G01 X14.4184 Y27.0702 F150.00
G01 X14.3388 Y27.1080 F150.00
G01 X14.3300 Y27.1115 F150.00
G01 X14.2500 Y27.1400 F150.00
G01 X14.1614 Y27.1621 F150.00
G01 X14.0712 Y27.1755 F150.00
G01 X13.9800 Y27.1800 F150.00
G01 X13.8889 Y27.1755 F150.00
G01 X13.7986 Y27.1621 F150.00
G01 X13.7100 Y27.1400 F150.00
G01 X13.6301 Y27.1115 F150.00
G01 X13.6212 Y27.1080 F150.00
G01 X13.5416 Y27.0702 F150.00
G01 X13.4687 Y27.0267 F150.00
G01 X13.4607 Y27.0215 F150.00
G01 X13.3951 Y26.9728 F150.00
G01 X13.3876 Y26.9669 F150.00
G01 X13.3247 Y26.9098 F150.00
G01 X13.3046 Y26.8883 F150.00
G01 X9.9000 Y26.8883 F150.00
G01 X9.8375 Y26.8852 F150.00
G01 X9.7818 Y26.8771 F150.00
G01 X9.7693 Y26.8746 F150.00
G01 X9.7209 Y26.8625 F150.00
G01 X9.7117 Y26.8598 F150.00
G01 X9.6617 Y26.8420 F150.00
G01 X9.6499 Y26.8371 F150.00
G01 X9.5991 Y26.8129 F150.00
G01 X9.5508 Y26.7841 F150.00
G01 X9.5402 Y26.7770 F150.00
G01 X9.4951 Y26.7434 F150.00
G01 X9.4510 Y26.7036 F150.00
G01 X6.4965 Y23.7490 F150.00
G01 X6.4566 Y23.7049 F150.00
G01 X6.4193 Y23.6546 F150.00
G01 X6.3871 Y23.6009 F150.00
G01 X6.3603 Y23.5443 F150.00
G01 X6.3392 Y23.4853 F150.00
G01 X6.3240 Y23.4245 F150.00
G01 X6.3148 Y23.3626 F150.00
G01 X6.3119 Y23.3064 F150.00
G00 Z2.0000
G00 X6.3918 Y23.3025
G01 F80.00
G01 Z-0.0400
G01 F150.00
G01 X6.3918 Y11.1500 F150.00
G01 X6.3947 Y11.0929 F150.00
G01 X6.4025 Y11.0411 F150.00
G01 X6.4158 Y10.9880 F150.00
G01 X6.4343 Y10.9364 F150.00
G01 X6.4566 Y10.8890 F150.00
G01 X6.4873 Y10.8379 F150.00
G01 X6.5185 Y10.7959 F150.00
G01 X6.5553 Y10.7553 F150.00
G01 X11.4053 Y5.9053 F150.00
G01 X11.4459 Y5.8685 F150.00
G01 X11.4899 Y5.8358 F150.00
G01 X11.5369 Y5.8077 F150.00
G01 X11.5852 Y5.7847 F150.00
G01 X11.6380 Y5.7658 F150.00
G01 X11.6911 Y5.7525 F150.00
G01 X11.7453 Y5.7444 F150.00
G01 X11.8000 Y5.7418 F150.00
G01 X17.3054 Y5.7418 F150.00
G01 X17.3185 Y5.7057 F150.00
G01 X17.3825 Y5.5704 F150.00
G01 X17.4606 Y5.4399 F150.00
G01 X17.5518 Y5.3167 F150.00
G01 X17.6549 Y5.2031 F150.00
G01 X17.7686 Y5.1003 F150.00
G01 X17.8889 Y5.0112 F150.00
G01 X18.0172 Y4.9342 F150.00
G01 X18.1569 Y4.8680 F150.00
G01 X18.3001 Y4.8168 F150.00
G01 X18.4476 Y4.7798 F150.00
G01 X18.6005 Y4.7573 F150.00
G01 X18.7525 Y4.7501 F150.00
G01 X18.9019 Y4.7575 F150.00
G01 X19.0500 Y4.7794 F150.00
G01 X19.2000 Y4.8168 F150.00
G01 X19.3432 Y4.8680 F150.00
G01 X19.4807 Y4.9330 F150.00
G01 X19.6132 Y5.0126 F150.00
G01 X19.7333 Y5.1018 F150.00
G01 X19.8443 Y5.2023 F150.00
G01 X19.9466 Y5.3148 F150.00
G01 X20.0388 Y5.4389 F150.00
G01 X20.1181 Y5.5715 F150.00
G01 X20.1820 Y5.7069 F150.00
G01 X20.2325 Y5.8477 F150.00
G01 X20.2702 Y5.9976 F150.00
G01 X20.2927 Y6.1505 F150.00
G01 X20.3000 Y6.3000 F150.00
G01 X20.2927 Y6.4495 F150.00
G01 X20.2702 Y6.6024 F150.00
G01 X20.2325 Y6.7523 F150.00
G01 X20.1820 Y6.8932 F150.00
G01 X20.1181 Y7.0285 F150.00
G01 X20.0388 Y7.1611 F150.00
G01 X19.9482 Y7.2833 F150.00
G01 X19.8443 Y7.3977 F150.00
G01 X19.7333 Y7.4982 F150.00
G01 X19.6132 Y7.5874 F150.00
G01 X19.4807 Y7.6670 F150.00
G01 X19.3432 Y7.7320 F150.00
G01 X19.2000 Y7.7833 F150.00
G01 X19.0524 Y7.8202 F150.00
G01 X18.8995 Y7.8427 F150.00
G01 X18.7476 Y7.8500 F150.00
G01 X18.5981 Y7.8425 F150.00
G01 X18.4500 Y7.8206 F150.00
G01 X18.3001 Y7.7833 F150.00
G01 X18.1580 Y7.7325 F150.00
G01 X18.0193 Y7.6670 F150.00
G01 X17.8889 Y7.5888 F150.00
G01 X17.7667 Y7.4982 F150.00
G01 X17.6531 Y7.3951 F150.00
G01 X17.5518 Y7.2833 F150.00
G01 X17.4606 Y7.1601 F150.00
G01 X17.3825 Y7.0296 F150.00
G01 X17.3185 Y6.8943 F150.00
G01 X17.3054 Y6.8583 F150.00
G01 X12.0312 Y6.8583 F150.00
G01 X7.5083 Y11.3812 F150.00
G01 X7.5083 Y23.0688 F150.00
G01 X10.1312 Y25.6918 F150.00
G01 X13.3401 Y25.6918 F150.00
G01 X13.3790 Y25.6490 F150.00
G01 X13.4389 Y25.5946 F150.00
G01 X13.5068 Y25.5440 F150.00
G01 X13.5793 Y25.5004 F150.00
G01 X13.6536 Y25.4652 F150.00
G01 X13.7333 Y25.4366 F150.00
G01 X13.8142 Y25.4163 F150.00
G01 X13.8967 Y25.4041 F150.00
G01 X13.9800 Y25.4000 F150.00
G01 X14.0633 Y25.4041 F150.00
G01 X14.1458 Y25.4163 F150.00
G01 X14.2268 Y25.4366 F150.00
G01 X14.3064 Y25.4652 F150.00
G01 X14.3807 Y25.5004 F150.00
G01 X14.4533 Y25.5440 F150.00
G01 X14.5211 Y25.5946 F150.00
G01 X14.5811 Y25.6490 F150.00
G01 X14.6199 Y25.6918 F150.00
G01 X23.3500 Y25.6918 F150.00
G01 X23.4047 Y25.6944 F150.00
G01 X23.4565 Y25.7021 F150.00
G01 X23.5144 Y25.7166 F150.00
G01 X23.5659 Y25.7352 F150.00
G01 X23.6132 Y25.7577 F150.00
G01 X23.6581 Y25.7845 F150.00
G01 X23.7042 Y25.8185 F150.00
G01 X23.7439 Y25.8544 F150.00
G01 X26.6824 Y28.7930 F150.00
G01 X26.7179 Y28.8020 F150.00
G01 X26.7964 Y28.8302 F150.00
G01 X26.8707 Y28.8654 F150.00
G01 X26.9412 Y28.9076 F150.00
G01 X27.0111 Y28.9596 F150.00
G01 X27.0711 Y29.0140 F150.00
G01 X27.1271 Y29.0758 F150.00
G01 X27.1768 Y29.1428 F150.00
G01 X27.2184 Y29.2122 F150.00
G01 X27.2562 Y29.2920 F150.00
G01 X27.2834 Y29.3683 F150.00
G01 X27.3037 Y29.4492 F150.00
G01 X27.3159 Y29.5317 F150.00
G01 X27.3200 Y29.6126 F150.00
G01 X27.3156 Y29.7008 F150.00
G01 X27.3037 Y29.7808 F150.00
G01 X27.2834 Y29.8618 F150.00
G01 X27.2553 Y29.9403 F150.00
G01 X27.2207 Y30.0135 F150.00
G01 X27.1753 Y30.0893 F150.00
G01 X27.1271 Y30.1542 F150.00
G01 X27.0711 Y30.2161 F150.00
G01 X27.0092 Y30.2721 F150.00
G01 X26.9402 Y30.3231 F150.00
G01 X26.8707 Y30.3646 F150.00
G01 X26.7975 Y30.3993 F150.00
G01 X26.7191 Y30.4276 F150.00
G01 X26.6358 Y30.4487 F150.00
G01 X26.5558 Y30.4606 F150.00
G01 X26.4700 Y30.4650 F150.00
G01 X26.3867 Y30.4609 F150.00
G01 X26.3042 Y30.4487 F150.00
G01 X26.2233 Y30.4284 F150.00
G01 X26.1447 Y30.4003 F150.00
G01 X26.0693 Y30.3646 F150.00
G01 X25.9978 Y30.3218 F150.00
G01 X25.9308 Y30.2721 F150.00
G01 X25.8673 Y30.2143 F150.00
G01 X25.8130 Y30.1542 F150.00
G01 X25.7633 Y30.0872 F150.00
G01 X25.7204 Y30.0157 F150.00
G01 X25.6857 Y29.9425 F150.00
G01 X25.6566 Y29.8618 F150.00
G01 X25.6359 Y29.7784 F150.00
G01 X25.6241 Y29.6983 F150.00
G01 X25.6200 Y29.6150 F150.00
G01 X25.6241 Y29.5317 F150.00
G01 X25.6361 Y29.4504 F150.00
G01 X25.6563 Y29.3694 F150.00
G01 X25.6624 Y29.3519 F150.00
G01 X23.1188 Y26.8083 F150.00
G01 X14.6199 Y26.8083 F150.00
G01 X14.5811 Y26.8511 F150.00
G01 X14.5211 Y26.9055 F150.00
G01 X14.4533 Y26.9561 F150.00
G01 X14.3807 Y26.9996 F150.00
G01 X14.3064 Y27.0348 F150.00
G01 X14.2268 Y27.0634 F150.00
G01 X14.1458 Y27.0837 F150.00
G01 X14.0633 Y27.0959 F150.00
G01 X13.9800 Y27.1000 F150.00
G01 X13.8967 Y27.0959 F150.00
G01 X13.8142 Y27.0837 F150.00
G01 X13.7333 Y27.0634 F150.00
G01 X13.6536 Y27.0348 F150.00
G01 X13.5793 Y26.9996 F150.00
G01 X13.5068 Y26.9561 F150.00
G01 X13.4389 Y26.9055 F150.00
G01 X13.3790 Y26.8511 F150.00
G01 X13.3401 Y26.8083 F150.00
G01 X9.9000 Y26.8083 F150.00
G01 X9.8453 Y26.8056 F150.00
G01 X9.7935 Y26.7980 F150.00
G01 X9.7368 Y26.7839 F150.00
G01 X9.6841 Y26.7648 F150.00
G01 X9.6369 Y26.7423 F150.00
G01 X9.5919 Y26.7155 F150.00
G01 X9.5459 Y26.6815 F150.00
G01 X9.5061 Y26.6456 F150.00
G01 X6.5544 Y23.6939 F150.00
G01 X6.5185 Y23.6542 F150.00
G01 X6.4858 Y23.6102 F150.00
G01 X6.4577 Y23.5632 F150.00
G01 X6.4343 Y23.5136 F150.00
G01 X6.4158 Y23.4621 F150.00
G01 X6.4025 Y23.4089 F150.00
G01 X6.3944 Y23.3547 F150.00
G01 X6.3918 Y23.3025 F150.00
G00 Z2.0000
G00 X9.8078 Y21.0064
G01 F80.00
G01 Z-0.0400
G01 F150.00
G01 X9.8076 Y15.9000 F150.00
G01 X9.8119 Y15.8125 F150.00
G01 X9.8237 Y15.7322 F150.00
G01 X9.8254 Y15.7228 F150.00
G01 X9.8461 Y15.6410 F150.00
G01 X9.8733 Y15.5645 F150.00
G01 X9.8781 Y15.5527 F150.00
G01 X9.9101 Y15.4850 F150.00
G01 X9.9161 Y15.4738 F150.00
G01 X9.9580 Y15.4042 F150.00
G01 X10.0063 Y15.3389 F150.00
G01 X10.0144 Y15.3291 F150.00
G01 X10.0690 Y15.2690 F150.00
G01 X10.4625 Y14.8755 F150.00
G01 X10.4653 Y14.8178 F150.00
G01 X10.4662 Y14.8082 F150.00
G01 X10.4821 Y14.7002 F150.00
G01 X10.4839 Y14.6908 F150.00
G01 X10.5121 Y14.5788 F150.00
G01 X10.5509 Y14.4699 F150.00
G01 X10.5547 Y14.4611 F150.00
G01 X10.6000 Y14.3653 F150.00
G01 X10.6060 Y14.3541 F150.00
G01 X10.6639 Y14.2578 F150.00
G01 X10.7346 Y14.1624 F150.00
G01 X10.8144 Y14.0744 F150.00
G01 X10.8975 Y13.9988 F150.00
G01 X10.9074 Y13.9907 F150.00
G01 X10.9925 Y13.9276 F150.00
G01 X11.0031 Y13.9205 F150.00
G01 X11.0996 Y13.8629 F150.00
G01 X11.2070 Y13.8121 F150.00
G01 X11.3188 Y13.7721 F150.00
G01 X11.4277 Y13.7446 F150.00
G01 X11.4402 Y13.7421 F150.00
G01 X11.5514 Y13.7258 F150.00
G01 X11.6700 Y13.7200 F150.00
G01 X39.6929 Y13.7200 F150.00
G01 X39.6741 Y13.6673 F150.00
G01 X39.6712 Y13.6582 F150.00
G01 X39.6446 Y13.5523 F150.00
G01 X39.6426 Y13.5429 F150.00
G01 X39.6258 Y13.4286 F150.00
G01 X39.6200 Y13.3100 F150.00
G01 X39.6200 Y3.1200 F150.00
G01 X39.6253 Y3.0078 F150.00
G01 X39.6262 Y2.9982 F150.00
G01 X39.6432 Y2.8839 F150.00
G01 X39.6704 Y2.7749 F150.00
G01 X39.6741 Y2.7627 F150.00
G01 X39.7121 Y2.6570 F150.00
G01 X39.7629 Y2.5496 F150.00
G01 X39.8205 Y2.4531 F150.00
G01 X39.8276 Y2.4425 F150.00
G01 X39.8907 Y2.3574 F150.00
G01 X39.8988 Y2.3475 F150.00
G01 X39.9744 Y2.2644 F150.00
G01 X40.5944 Y1.6444 F150.00
G01 X40.6824 Y1.5646 F150.00
G01 X40.7778 Y1.4939 F150.00
G01 X40.8796 Y1.4329 F150.00
G01 X40.9870 Y1.3821 F150.00
G01 X41.0957 Y1.3430 F150.00
G01 X41.1049 Y1.3404 F150.00
G01 X41.2077 Y1.3146 F150.00
G01 X41.2202 Y1.3121 F150.00
G01 X41.3314 Y1.2958 F150.00
G01 X41.4500 Y1.2900 F150.00
G01 X66.8500 Y1.2900 F150.00
G01 X66.9686 Y1.2958 F150.00
G01 X67.0798 Y1.3121 F150.00
G01 X67.0923 Y1.3146 F150.00
G01 X67.1951 Y1.3404 F150.00
G01 X67.2073 Y1.3441 F150.00
G01 X67.3131 Y1.3821 F150.00
G01 X67.4204 Y1.4329 F150.00
G01 X67.5169 Y1.4905 F150.00
G01 X67.5275 Y1.4976 F150.00
G01 X67.6177 Y1.5646 F150.00
G01 X67.7056 Y1.6444 F150.00
G01 X77.1381 Y11.0769 F150.00
G01 X77.2179 Y11.1649 F150.00
G01 X77.2886 Y11.2603 F150.00
G01 X77.3497 Y11.3621 F150.00
G01 X77.4004 Y11.4695 F150.00
G01 X77.4404 Y11.5813 F150.00
G01 X77.4693 Y11.6964 F150.00
G01 X77.4867 Y11.8139 F150.00
G01 X77.4926 Y11.9325 F150.00
G01 X77.4926 Y16.4500 F150.00
G01 X77.4872 Y16.5623 F150.00
G01 X77.4859 Y16.5749 F150.00
G01 X77.4693 Y16.6861 F150.00
G01 X77.4426 Y16.7935 F150.00
G01 X77.4425 Y18.4207 F150.00
G01 X77.4367 Y18.5361 F150.00
G01 X77.4193 Y18.6536 F150.00
G01 X77.3922 Y18.7626 F150.00
G01 X77.3884 Y18.7748 F150.00
G01 X77.3504 Y18.8806 F150.00
G01 X77.3025 Y18.9822 F150.00
G01 X77.2965 Y18.9935 F150.00
G01 X77.2386 Y19.0898 F150.00
G01 X77.1718 Y19.1801 F150.00
G01 X77.1658 Y19.1876 F150.00
G01 X77.0881 Y19.2731 F150.00
G01 X75.4101 Y20.9512 F150.00
G01 X75.4101 Y28.7738 F150.00
G01 X76.2512 Y29.6150 F150.00
G01 X76.5176 Y29.6150 F150.00
G01 X76.5205 Y29.5978 F150.00
G01 X76.5272 Y29.5709 F150.00
G01 X76.5298 Y29.5617 F150.00
G01 X76.5414 Y29.5296 F150.00
G01 X76.5559 Y29.4987 F150.00
G01 X76.5605 Y29.4903 F150.00
G01 X76.5731 Y29.4693 F150.00
G01 X76.5802 Y29.4587 F150.00
G01 X76.5988 Y29.4339 F150.00
G01 X76.6194 Y29.4109 F150.00
G01 X76.6261 Y29.4041 F150.00
G01 X76.6514 Y29.3813 F150.00
G01 X76.6814 Y29.3591 F150.00
G01 X76.7134 Y29.3399 F150.00
G01 X76.7413 Y29.3265 F150.00
G01 X76.7501 Y29.3228 F150.00
G01 X76.7761 Y29.3134 F150.00
G01 X76.7884 Y29.3097 F150.00
G01 X76.8184 Y29.3023 F150.00
G01 X76.8489 Y29.2976 F150.00
G01 X76.8584 Y29.2966 F150.00
G01 X76.8925 Y29.2950 F150.00
G01 X79.1957 Y29.2951 F150.00
G01 X79.2298 Y29.2968 F150.00
G01 X79.2635 Y29.3017 F150.00
G01 X79.2729 Y29.3037 F150.00
G01 X79.2967 Y29.3097 F150.00
G01 X79.3089 Y29.3134 F150.00
G01 X79.3379 Y29.3239 F150.00
G01 X79.3716 Y29.3399 F150.00
G01 X79.4036 Y29.3591 F150.00
G01 X79.4311 Y29.3793 F150.00
G01 X79.4384 Y29.3854 F150.00
G01 X79.4612 Y29.4063 F150.00
G01 X79.4863 Y29.4339 F150.00
G01 X79.5085 Y29.4639 F150.00
G01 X79.5276 Y29.4959 F150.00
G01 X79.5436 Y29.5296 F150.00
G01 X79.5561 Y29.5647 F150.00
G01 X79.5652 Y29.6009 F150.00
G01 X79.5699 Y29.6314 F150.00
G01 X79.5712 Y29.6441 F150.00
G01 X79.5725 Y29.6750 F150.00
G01 X79.5725 Y31.9750 F150.00
G01 X79.5707 Y32.0123 F150.00
G01 X79.5663 Y32.0429 F150.00
G01 X79.5645 Y32.0523 F150.00
G01 X79.5579 Y32.0792 F150.00
G01 X79.5541 Y32.0914 F150.00
G01 X79.5436 Y32.1204 F150.00
G01 X79.5276 Y32.1541 F150.00
G01 X79.5085 Y32.1861 F150.00
G01 X79.4902 Y32.2111 F150.00
G01 X79.4821 Y32.2209 F150.00
G01 X79.4656 Y32.2391 F150.00
G01 X79.4589 Y32.2459 F150.00
G01 X79.4336 Y32.2688 F150.00
G01 X79.4063 Y32.2892 F150.00
G01 X79.3982 Y32.2944 F150.00
G01 X79.3772 Y32.3070 F150.00
G01 X79.3659 Y32.3130 F150.00
G01 X79.3379 Y32.3261 F150.00
G01 X79.3028 Y32.3386 F150.00
G01 X79.2666 Y32.3477 F150.00
G01 X79.2329 Y32.3528 F150.00
G01 X79.2234 Y32.3537 F150.00
G01 X79.1925 Y32.3550 F150.00
G01 X76.8893 Y32.3550 F150.00
G01 X76.8553 Y32.3532 F150.00
G01 X76.8184 Y32.3477 F150.00
G01 X76.7822 Y32.3386 F150.00
G01 X76.7530 Y32.3284 F150.00
G01 X76.7442 Y32.3248 F150.00
G01 X76.7191 Y32.3130 F150.00
G01 X76.7078 Y32.3070 F150.00
G01 X76.6814 Y32.2910 F150.00
G01 X76.6565 Y32.2727 F150.00
G01 X76.6490 Y32.2667 F150.00
G01 X76.6238 Y32.2437 F150.00
G01 X76.5988 Y32.2161 F150.00
G01 X76.5766 Y32.1861 F150.00
G01 X76.5589 Y32.1569 F150.00
G01 X76.5545 Y32.1484 F150.00
G01 X76.5414 Y32.1204 F150.00
G01 X76.5298 Y32.0884 F150.00
G01 X76.5272 Y32.0792 F150.00
G01 X76.5205 Y32.0523 F150.00
G01 X76.5176 Y32.0351 F150.00
G01 X75.7436 Y32.0349 F150.00
G01 X75.6314 Y32.0292 F150.00
G01 X75.5202 Y32.0129 F150.00
G01 X75.5077 Y32.0104 F150.00
G01 X75.4049 Y31.9847 F150.00
G01 X75.3927 Y31.9809 F150.00
G01 X75.2929 Y31.9452 F150.00
G01 X75.2811 Y31.9404 F150.00
G01 X75.1796 Y31.8922 F150.00
G01 X75.0831 Y31.8345 F150.00
G01 X75.0725 Y31.8274 F150.00
G01 X74.9824 Y31.7604 F150.00
G01 X74.8967 Y31.6829 F150.00
G01 X73.3422 Y30.1284 F150.00
G01 X73.2646 Y30.0427 F150.00
G01 X73.1939 Y29.9473 F150.00
G01 X73.1329 Y29.8454 F150.00
G01 X73.0847 Y29.7439 F150.00
G01 X73.0798 Y29.7321 F150.00
G01 X73.0421 Y29.6263 F150.00
G01 X73.0132 Y29.5111 F150.00
G01 X72.9958 Y29.3936 F150.00
G01 X72.9900 Y29.2750 F150.00
G01 X72.9900 Y20.4500 F150.00
G01 X72.9958 Y20.3314 F150.00
G01 X73.0121 Y20.2202 F150.00
G01 X73.0146 Y20.2077 F150.00
G01 X73.0421 Y20.0988 F150.00
G01 X73.0798 Y19.9929 F150.00
G01 X73.0847 Y19.9811 F150.00
G01 X73.1329 Y19.8796 F150.00
G01 X73.1905 Y19.7831 F150.00
G01 X73.1976 Y19.7725 F150.00
G01 X73.2607 Y19.6874 F150.00
G01 X73.2667 Y19.6799 F150.00
G01 X73.3444 Y19.5944 F150.00
G01 X75.0225 Y17.9163 F150.00
G01 X75.0225 Y17.0012 F150.00
G01 X74.5313 Y16.5101 F150.00
G01 X71.0312 Y16.5101 F150.00
G01 X70.1834 Y17.3579 F150.00
G01 X70.0977 Y17.4354 F150.00
G01 X70.0023 Y17.5061 F150.00
G01 X69.9004 Y17.5672 F150.00
G01 X69.7931 Y17.6179 F150.00
G01 X69.6813 Y17.6579 F150.00
G01 X69.5723 Y17.6854 F150.00
G01 X69.5598 Y17.6879 F150.00
G01 X69.4549 Y17.7034 F150.00
G01 X69.4423 Y17.7047 F150.00
G01 X69.3300 Y17.7101 F150.00
G01 X69.2114 Y17.7042 F150.00
G01 X69.0939 Y17.6868 F150.00
G01 X68.9788 Y17.6579 F150.00
G01 X68.8670 Y17.6179 F150.00
G01 X68.7596 Y17.5672 F150.00
G01 X68.6578 Y17.5061 F150.00
G01 X68.5624 Y17.4354 F150.00
G01 X68.4744 Y17.3556 F150.00
G01 X68.3946 Y17.2677 F150.00
G01 X68.3239 Y17.1723 F150.00
G01 X68.2629 Y17.0704 F150.00
G01 X68.2121 Y16.9631 F150.00
G01 X68.1721 Y16.8513 F150.00
G01 X68.1432 Y16.7361 F150.00
G01 X68.1258 Y16.6186 F150.00
G01 X68.1200 Y16.5000 F150.00
G01 X68.1253 Y16.3878 F150.00
G01 X68.1262 Y16.3782 F150.00
G01 X68.1432 Y16.2639 F150.00
G01 X68.1704 Y16.1549 F150.00
G01 X68.1741 Y16.1427 F150.00
G01 X68.2098 Y16.0429 F150.00
G01 X68.2147 Y16.0311 F150.00
G01 X68.2629 Y15.9296 F150.00
G01 X68.3239 Y15.8278 F150.00
G01 X68.3946 Y15.7324 F150.00
G01 X68.4700 Y15.6490 F150.00
G01 X69.6744 Y14.4444 F150.00
G01 X69.7599 Y14.3667 F150.00
G01 X69.7674 Y14.3607 F150.00
G01 X69.8578 Y14.2939 F150.00
G01 X69.9596 Y14.2329 F150.00
G01 X70.0670 Y14.1821 F150.00
G01 X70.1757 Y14.1430 F150.00
G01 X70.1849 Y14.1404 F150.00
G01 X70.2877 Y14.1146 F150.00
G01 X70.3002 Y14.1121 F150.00
G01 X70.4114 Y14.0958 F150.00
G01 X70.5300 Y14.0900 F150.00
G01 X75.0325 Y14.0900 F150.00
G01 X75.0725 Y14.0918 F150.00
G01 X75.0725 Y12.4337 F150.00
G01 X66.3488 Y3.7101 F150.00
G01 X42.0401 Y3.7101 F150.00
G01 X42.0401 Y12.8088 F150.00
G01 X43.0012 Y13.7700 F150.00
G01 X50.3364 Y13.7701 F150.00
G01 X50.4486 Y13.7758 F150.00
G01 X50.5661 Y13.7932 F150.00
G01 X50.6813 Y13.8221 F150.00
G01 X50.7931 Y13.8621 F150.00
G01 X50.9004 Y13.9129 F150.00
G01 X51.0023 Y13.9739 F150.00
G01 X51.0977 Y14.0446 F150.00
G01 X51.1810 Y14.1200 F150.00
G01 X54.1179 Y17.0567 F150.00
G01 X54.1912 Y17.1375 F150.00
G01 X54.1993 Y17.1474 F150.00
G01 X54.2661 Y17.2378 F150.00
G01 X54.3240 Y17.3341 F150.00
G01 X54.3300 Y17.3453 F150.00
G01 X54.3779 Y17.4470 F150.00
G01 X54.4179 Y17.5588 F150.00
G01 X54.4454 Y17.6677 F150.00
G01 X54.4479 Y17.6802 F150.00
G01 X54.4642 Y17.7914 F150.00
G01 X54.4701 Y17.9100 F150.00
G01 X54.4701 Y22.0300 F150.00
G01 X54.4642 Y22.1486 F150.00
G01 X54.4468 Y22.2661 F150.00
G01 X54.4179 Y22.3813 F150.00
G01 X54.3779 Y22.4931 F150.00
G01 X54.3300 Y22.5947 F150.00
G01 X54.3240 Y22.6060 F150.00
G01 X54.2661 Y22.7023 F150.00
G01 X54.1993 Y22.7926 F150.00
G01 X54.1933 Y22.8001 F150.00
G01 X54.1156 Y22.8856 F150.00
G01 X54.0301 Y22.9633 F150.00
G01 X54.0226 Y22.9693 F150.00
G01 X53.9349 Y23.0343 F150.00
G01 X53.9269 Y23.0395 F150.00
G01 X53.8988 Y23.0564 F150.00
G01 X53.8985 Y23.0959 F150.00
G01 X55.0644 Y24.2618 F150.00
G01 X55.7000 Y24.2618 F150.00
G01 X55.7562 Y24.2644 F150.00
G01 X55.7689 Y24.2656 F150.00
G01 X55.8245 Y24.2740 F150.00
G01 X55.8791 Y24.2875 F150.00
G01 X55.8913 Y24.2912 F150.00
G01 X55.9443 Y24.3103 F150.00
G01 X55.9952 Y24.3343 F150.00
G01 X56.0064 Y24.3403 F150.00
G01 X56.0546 Y24.3693 F150.00
G01 X56.1024 Y24.4046 F150.00
G01 X56.1097 Y24.4108 F150.00
G01 X56.1513 Y24.4487 F150.00
G01 X58.3144 Y26.6118 F150.00
G01 X59.6532 Y26.6118 F150.00
G01 X59.7126 Y26.6148 F150.00
G01 X59.7745 Y26.6240 F150.00
G01 X59.8353 Y26.6392 F150.00
G01 X59.8883 Y26.6580 F150.00
G01 X59.9001 Y26.6629 F150.00
G01 X59.9509 Y26.6871 F150.00
G01 X60.0046 Y26.7193 F150.00
G01 X60.0549 Y26.7566 F150.00
G01 X60.0990 Y26.7965 F150.00
G01 X61.3336 Y28.0310 F150.00
G01 X61.3692 Y28.0703 F150.00
G01 X61.3773 Y28.0801 F150.00
G01 X61.4107 Y28.1254 F150.00
G01 X61.4398 Y28.1736 F150.00
G01 X61.4458 Y28.1848 F150.00
G01 X61.4697 Y28.2358 F150.00
G01 X61.4888 Y28.2887 F150.00
G01 X61.4917 Y28.2978 F150.00
G01 X61.5046 Y28.3493 F150.00
G01 X61.5071 Y28.3618 F150.00
G01 X61.5152 Y28.4175 F150.00
G01 X61.5181 Y28.4736 F150.00
G01 X61.5183 Y28.9746 F150.00
G01 X61.5398 Y28.9947 F150.00
G01 X61.5969 Y29.0576 F150.00
G01 X61.6028 Y29.0651 F150.00
G01 X61.6515 Y29.1307 F150.00
G01 X61.6567 Y29.1387 F150.00
G01 X61.7002 Y29.2116 F150.00
G01 X61.7366 Y29.2883 F150.00
G01 X61.7404 Y29.2971 F150.00
G01 X61.7700 Y29.3800 F150.00
G01 X61.7907 Y29.4624 F150.00
G01 X61.7932 Y29.4749 F150.00
G01 X61.8055 Y29.5589 F150.00
G01 X61.8099 Y29.6436 F150.00
G01 X61.8099 Y29.6564 F150.00
G01 X61.8058 Y29.7380 F150.00
G01 X61.8048 Y29.7475 F150.00
G01 X61.7932 Y29.8252 F150.00
G01 X61.7907 Y29.8377 F150.00
G01 X61.7700 Y29.9200 F150.00
G01 X61.7392 Y30.0059 F150.00
G01 X61.7002 Y30.0884 F150.00
G01 X61.6567 Y30.1613 F150.00
G01 X61.6496 Y30.1719 F150.00
G01 X61.5989 Y30.2400 F150.00
G01 X61.5420 Y30.3030 F150.00
G01 X61.5330 Y30.3120 F150.00
G01 X61.4700 Y30.3689 F150.00
G01 X61.3967 Y30.4233 F150.00
G01 X61.3184 Y30.4702 F150.00
G01 X61.2417 Y30.5066 F150.00
G01 X61.2300 Y30.5115 F150.00
G01 X61.1500 Y30.5400 F150.00
G01 X61.0677 Y30.5607 F150.00
G01 X61.0552 Y30.5632 F150.00
G01 X60.9712 Y30.5755 F150.00
G01 X60.8800 Y30.5800 F150.00
G01 X60.7889 Y30.5755 F150.00
G01 X60.7049 Y30.5632 F150.00
G01 X60.6924 Y30.5607 F150.00
G01 X60.6162 Y30.5417 F150.00
G01 X60.6040 Y30.5380 F150.00
G01 X60.5241 Y30.5092 F150.00
G01 X60.4416 Y30.4702 F150.00
G01 X60.3633 Y30.4233 F150.00
G01 X60.2951 Y30.3728 F150.00
G01 X60.2852 Y30.3647 F150.00
G01 X60.2270 Y30.3120 F150.00
G01 X60.2180 Y30.3030 F150.00
G01 X60.1611 Y30.2400 F150.00
G01 X60.1067 Y30.1667 F150.00
G01 X60.0598 Y30.0884 F150.00
G01 X60.0208 Y30.0059 F150.00
G01 X59.9901 Y29.9200 F150.00
G01 X59.9693 Y29.8377 F150.00
G01 X59.9668 Y29.8252 F150.00
G01 X59.9553 Y29.7475 F150.00
G01 X59.9540 Y29.7348 F150.00
G01 X59.9500 Y29.6500 F150.00
G01 X59.9545 Y29.5589 F150.00
G01 X59.9679 Y29.4686 F150.00
G01 X59.9901 Y29.3800 F150.00
G01 X60.0208 Y29.2941 F150.00
G01 X60.0584 Y29.2144 F150.00
G01 X60.0630 Y29.2061 F150.00
G01 X60.1067 Y29.1333 F150.00
G01 X60.1591 Y29.0625 F150.00
G01 X60.1653 Y29.0552 F150.00
G01 X60.2202 Y28.9947 F150.00
G01 X60.2418 Y28.9746 F150.00
G01 X60.2418 Y28.7444 F150.00
G01 X59.3856 Y27.8883 F150.00
G01 X58.0500 Y27.8883 F150.00
G01 X57.9906 Y27.8855 F150.00
G01 X57.9811 Y27.8844 F150.00
G01 X57.9255 Y27.8760 F150.00
G01 X57.8709 Y27.8625 F150.00
G01 X57.8587 Y27.8588 F150.00
G01 X57.8058 Y27.8397 F150.00
G01 X57.7548 Y27.8158 F150.00
G01 X57.7436 Y27.8098 F150.00
G01 X57.6981 Y27.7824 F150.00
G01 X57.6902 Y27.7770 F150.00
G01 X57.6451 Y27.7434 F150.00
G01 X57.5987 Y27.7013 F150.00
G01 X55.4356 Y25.5383 F150.00
G01 X54.8000 Y25.5383 F150.00
G01 X54.7375 Y25.5352 F150.00
G01 X54.6755 Y25.5260 F150.00
G01 X54.6209 Y25.5125 F150.00
G01 X54.6087 Y25.5088 F150.00
G01 X54.5558 Y25.4897 F150.00
G01 X54.5048 Y25.4658 F150.00
G01 X54.4936 Y25.4598 F150.00
G01 X54.4454 Y25.4307 F150.00
G01 X54.3951 Y25.3934 F150.00
G01 X54.3487 Y25.3513 F150.00
G01 X52.8087 Y23.8113 F150.00
G01 X52.7708 Y23.7697 F150.00
G01 X52.7646 Y23.7624 F150.00
G01 X52.7330 Y23.7198 F150.00
G01 X52.7259 Y23.7092 F150.00
G01 X52.6971 Y23.6609 F150.00
G01 X52.6729 Y23.6101 F150.00
G01 X52.6680 Y23.5983 F150.00
G01 X52.6492 Y23.5453 F150.00
G01 X52.6340 Y23.4845 F150.00
G01 X52.6248 Y23.4226 F150.00
G01 X52.6218 Y23.3632 F150.00
G01 X52.6218 Y23.0567 F150.00
G01 X52.5931 Y23.0395 F150.00
G01 X52.5851 Y23.0343 F150.00
G01 X52.4949 Y22.9674 F150.00
G01 X52.4875 Y22.9612 F150.00
G01 X52.4067 Y22.8879 F150.00
G01 X52.4000 Y22.8810 F150.00
G01 X52.3246 Y22.7977 F150.00
G01 X52.2576 Y22.7075 F150.00
G01 X52.2522 Y22.6996 F150.00
G01 X52.1929 Y22.6004 F150.00
G01 X52.1447 Y22.4989 F150.00
G01 X52.1398 Y22.4871 F150.00
G01 X52.1021 Y22.3813 F150.00
G01 X52.0746 Y22.2723 F150.00
G01 X52.0721 Y22.2598 F150.00
G01 X52.0562 Y22.1518 F150.00
G01 X52.0553 Y22.1423 F150.00
G01 X52.0500 Y22.0300 F150.00
G01 X52.0500 Y18.4112 F150.00
G01 X49.8288 Y16.1901 F150.00
G01 X40.8300 Y16.1901 F150.00
G01 X40.7178 Y16.1847 F150.00
G01 X40.7051 Y16.1834 F150.00
G01 X40.5939 Y16.1668 F150.00
G01 X40.4865 Y16.1401 F150.00
G01 X11.7220 Y16.1401 F150.00
G01 X11.5924 Y16.2696 F150.00
G01 X11.5924 Y20.6304 F150.00
G01 X12.0646 Y21.1026 F150.00
G01 X21.1291 Y21.1026 F150.00
G01 X21.2086 Y21.0829 F150.00
G01 X21.2925 Y21.0703 F150.00
G01 X21.3052 Y21.0690 F150.00
G01 X21.3900 Y21.0650 F150.00
G01 X21.4748 Y21.0690 F150.00
G01 X21.4875 Y21.0703 F150.00
G01 X21.5714 Y21.0829 F150.00
G01 X21.6538 Y21.1034 F150.00
G01 X21.6660 Y21.1071 F150.00
G01 X21.7459 Y21.1358 F150.00
G01 X21.8227 Y21.1720 F150.00
G01 X21.8312 Y21.1764 F150.00
G01 X21.9013 Y21.2183 F150.00
G01 X21.9119 Y21.2254 F150.00
G01 X21.9800 Y21.2761 F150.00
G01 X22.0430 Y21.3330 F150.00
G01 X22.0520 Y21.3420 F150.00
G01 X22.1089 Y21.4050 F150.00
G01 X22.1633 Y21.4783 F150.00
G01 X22.2102 Y21.5566 F150.00
G01 X22.2466 Y21.6333 F150.00
G01 X22.2515 Y21.6451 F150.00
G01 X22.2800 Y21.7250 F150.00
G01 X22.3007 Y21.8074 F150.00
G01 X22.3032 Y21.8199 F150.00
G01 X22.3152 Y21.9007 F150.00
G01 X22.3160 Y21.9102 F150.00
G01 X22.3200 Y21.9950 F150.00
G01 X22.3160 Y22.0798 F150.00
G01 X22.3148 Y22.0925 F150.00
G01 X22.3021 Y22.1764 F150.00
G01 X22.2817 Y22.2588 F150.00
G01 X22.2780 Y22.2710 F150.00
G01 X22.2504 Y22.3479 F150.00
G01 X22.2466 Y22.3567 F150.00
G01 X22.2102 Y22.4334 F150.00
G01 X22.1667 Y22.5063 F150.00
G01 X22.1615 Y22.5143 F150.00
G01 X22.1128 Y22.5800 F150.00
G01 X22.1069 Y22.5874 F150.00
G01 X22.0498 Y22.6503 F150.00
G01 X22.0283 Y22.6704 F150.00
G01 X22.0283 Y23.5756 F150.00
G01 X22.1144 Y23.6618 F150.00
G01 X24.9032 Y23.6618 F150.00
G01 X24.9562 Y23.6644 F150.00
G01 X24.9689 Y23.6656 F150.00
G01 X25.0245 Y23.6740 F150.00
G01 X25.0791 Y23.6875 F150.00
G01 X25.0913 Y23.6912 F150.00
G01 X25.1443 Y23.7103 F150.00
G01 X25.1952 Y23.7343 F150.00
G01 X25.2064 Y23.7403 F150.00
G01 X25.2546 Y23.7693 F150.00
G01 X25.2999 Y23.8027 F150.00
G01 X25.3097 Y23.8108 F150.00
G01 X25.3513 Y23.8487 F150.00
G01 X29.4613 Y27.9587 F150.00
G01 X29.4992 Y28.0003 F150.00
G01 X29.5054 Y28.0076 F150.00
G01 X29.5370 Y28.0502 F150.00
G01 X29.5441 Y28.0608 F150.00
G01 X29.5729 Y28.1091 F150.00
G01 X29.5971 Y28.1599 F150.00
G01 X29.6020 Y28.1717 F150.00
G01 X29.6208 Y28.2247 F150.00
G01 X29.6346 Y28.2793 F150.00
G01 X29.6371 Y28.2918 F150.00
G01 X29.6452 Y28.3475 F150.00
G01 X29.6482 Y28.4068 F150.00
G01 X29.6483 Y28.9396 F150.00
G01 X29.6698 Y28.9597 F150.00
G01 X29.7247 Y29.0202 F150.00
G01 X29.7309 Y29.0275 F150.00
G01 X29.7833 Y29.0983 F150.00
G01 X29.8287 Y29.1738 F150.00
G01 X29.8331 Y29.1823 F150.00
G01 X29.8666 Y29.2533 F150.00
G01 X29.8715 Y29.2651 F150.00
G01 X29.9000 Y29.3450 F150.00
G01 X29.9215 Y29.4305 F150.00
G01 X29.9232 Y29.4399 F150.00
G01 X29.9355 Y29.5239 F150.00
G01 X29.9400 Y29.6150 F150.00
G01 X29.9355 Y29.7062 F150.00
G01 X29.9232 Y29.7902 F150.00
G01 X29.9207 Y29.8027 F150.00
G01 X29.9017 Y29.8788 F150.00
G01 X29.8980 Y29.8910 F150.00
G01 X29.8692 Y29.9709 F150.00
G01 X29.8302 Y30.0534 F150.00
G01 X29.7833 Y30.1317 F150.00
G01 X29.7328 Y30.2000 F150.00
G01 X29.7247 Y30.2098 F150.00
G01 X29.6720 Y30.2680 F150.00
G01 X29.6630 Y30.2770 F150.00
G01 X29.6000 Y30.3339 F150.00
G01 X29.5267 Y30.3883 F150.00
G01 X29.4484 Y30.4352 F150.00
G01 X29.3717 Y30.4716 F150.00
G01 X29.3600 Y30.4765 F150.00
G01 X29.2860 Y30.5030 F150.00
G01 X29.2738 Y30.5067 F150.00
G01 X29.1914 Y30.5271 F150.00
G01 X29.1043 Y30.5402 F150.00
G01 X29.0948 Y30.5410 F150.00
G01 X29.0100 Y30.5450 F150.00
G01 X28.9252 Y30.5410 F150.00
G01 X28.9125 Y30.5398 F150.00
G01 X28.8349 Y30.5282 F150.00
G01 X28.8224 Y30.5257 F150.00
G01 X28.7400 Y30.5050 F150.00
G01 X28.6541 Y30.4742 F150.00
G01 X28.5716 Y30.4352 F150.00
G01 X28.4987 Y30.3917 F150.00
G01 X28.4881 Y30.3846 F150.00
G01 X28.4251 Y30.3378 F150.00
G01 X28.4152 Y30.3297 F150.00
G01 X28.3524 Y30.2726 F150.00
G01 X28.2911 Y30.2050 F150.00
G01 X28.2367 Y30.1317 F150.00
G01 X28.1930 Y30.0590 F150.00
G01 X28.1870 Y30.0477 F150.00
G01 X28.1534 Y29.9767 F150.00
G01 X28.1496 Y29.9679 F150.00
G01 X28.1201 Y29.8850 F150.00
G01 X28.0993 Y29.8027 F150.00
G01 X28.0968 Y29.7902 F150.00
G01 X28.0845 Y29.7062 F150.00
G01 X28.0802 Y29.6214 F150.00
G01 X28.0802 Y29.6086 F150.00
G01 X28.0845 Y29.5239 F150.00
G01 X28.0973 Y29.4367 F150.00
G01 X28.0993 Y29.4274 F150.00
G01 X28.1184 Y29.3512 F150.00
G01 X28.1221 Y29.3390 F150.00
G01 X28.1508 Y29.2591 F150.00
G01 X28.1870 Y29.1823 F150.00
G01 X28.1914 Y29.1738 F150.00
G01 X28.2367 Y29.0983 F150.00
G01 X28.2891 Y29.0275 F150.00
G01 X28.2953 Y29.0202 F150.00
G01 X28.3502 Y28.9597 F150.00
G01 X28.3718 Y28.9396 F150.00
G01 X28.3718 Y28.6744 F150.00
G01 X24.6356 Y24.9383 F150.00
G01 X21.8468 Y24.9382 F150.00
G01 X21.7938 Y24.9357 F150.00
G01 X21.7811 Y24.9344 F150.00
G01 X21.7255 Y24.9260 F150.00
G01 X21.6709 Y24.9125 F150.00
G01 X21.6587 Y24.9088 F150.00
G01 X21.6058 Y24.8897 F150.00
G01 X21.5491 Y24.8629 F150.00
G01 X21.5008 Y24.8341 F150.00
G01 X21.4902 Y24.8270 F150.00
G01 X21.4451 Y24.7934 F150.00
G01 X21.4010 Y24.7536 F150.00
G01 X20.9365 Y24.2890 F150.00
G01 X20.8966 Y24.2449 F150.00
G01 X20.8593 Y24.1946 F150.00
G01 X20.8271 Y24.1409 F150.00
G01 X20.8003 Y24.0843 F150.00
G01 X20.7792 Y24.0253 F150.00
G01 X20.7640 Y23.9645 F150.00
G01 X20.7548 Y23.9026 F150.00
G01 X20.7519 Y23.8464 F150.00
G01 X20.7518 Y22.8874 F150.00
G01 X11.6950 Y22.8874 F150.00
G01 X11.6075 Y22.8831 F150.00
G01 X11.5241 Y22.8708 F150.00
G01 X11.5147 Y22.8688 F150.00
G01 X11.4421 Y22.8507 F150.00
G01 X11.4299 Y22.8470 F150.00
G01 X11.3535 Y22.8195 F150.00
G01 X11.2800 Y22.7849 F150.00
G01 X11.2688 Y22.7789 F150.00
G01 X11.1992 Y22.7370 F150.00
G01 X11.1339 Y22.6888 F150.00
G01 X11.1265 Y22.6828 F150.00
G01 X11.0640 Y22.6260 F150.00
G01 X10.0646 Y21.6264 F150.00
G01 X10.0102 Y21.5661 F150.00
G01 X9.9580 Y21.4958 F150.00
G01 X9.9130 Y21.4207 F150.00
G01 X9.8756 Y21.3415 F150.00
G01 X9.8461 Y21.2591 F150.00
G01 X9.8248 Y21.1741 F150.00
G01 X9.8119 Y21.0875 F150.00
G01 X9.8078 Y21.0064 F150.00
G00 Z2.0000
G00 X9.8877 Y21.0025
G01 F80.00
G01 Z-0.0400
G01 F150.00
G01 X9.8876 Y15.9000 F150.00
G01 X9.8915 Y15.8204 F150.00
G01 X9.9035 Y15.7403 F150.00
G01 X9.9234 Y15.6619 F150.00
G01 X9.9495 Y15.5891 F150.00
G01 X9.9825 Y15.5193 F150.00
G01 X10.0245 Y15.4487 F150.00
G01 X10.0713 Y15.3856 F150.00
G01 X10.1256 Y15.3256 F150.00
G01 X10.5409 Y14.9103 F150.00
G01 X10.5454 Y14.8192 F150.00
G01 X10.5617 Y14.7096 F150.00
G01 X10.5886 Y14.6020 F150.00
G01 X10.6251 Y14.4999 F150.00
G01 X10.6746 Y14.3952 F150.00
G01 X10.7304 Y14.3022 F150.00
G01 X10.7965 Y14.2131 F150.00
G01 X10.8710 Y14.1310 F150.00
G01 X10.9513 Y14.0581 F150.00
G01 X11.0443 Y13.9891 F150.00
G01 X11.1373 Y13.9334 F150.00
G01 X11.2376 Y13.8860 F150.00
G01 X11.3420 Y13.8486 F150.00
G01 X11.4472 Y13.8222 F150.00
G01 X11.5592 Y13.8054 F150.00
G01 X11.6700 Y13.8000 F150.00
G01 X39.8131 Y13.8000 F150.00
G01 X39.7855 Y13.7413 F150.00
G01 X39.7490 Y13.6392 F150.00
G01 X39.7219 Y13.5317 F150.00
G01 X39.7054 Y13.4208 F150.00
G01 X39.7000 Y13.3100 F150.00
G01 X39.7000 Y3.1200 F150.00
G01 X39.7054 Y3.0092 F150.00
G01 X39.7222 Y2.8972 F150.00
G01 X39.7486 Y2.7920 F150.00
G01 X39.7860 Y2.6876 F150.00
G01 X39.8334 Y2.5873 F150.00
G01 X39.8891 Y2.4943 F150.00
G01 X39.9581 Y2.4013 F150.00
G01 X40.0310 Y2.3210 F150.00
G01 X40.6510 Y1.7010 F150.00
G01 X40.7322 Y1.6273 F150.00
G01 X40.8222 Y1.5604 F150.00
G01 X40.9173 Y1.5034 F150.00
G01 X41.0176 Y1.4560 F150.00
G01 X41.1208 Y1.4190 F150.00
G01 X41.2320 Y1.3913 F150.00
G01 X41.3392 Y1.3754 F150.00
G01 X41.4500 Y1.3700 F150.00
G01 X66.8500 Y1.3700 F150.00
G01 X66.9608 Y1.3754 F150.00
G01 X67.0681 Y1.3913 F150.00
G01 X67.1804 Y1.4194 F150.00
G01 X67.2825 Y1.4560 F150.00
G01 X67.3827 Y1.5034 F150.00
G01 X67.4798 Y1.5618 F150.00
G01 X67.5669 Y1.6265 F150.00
G01 X67.6491 Y1.7010 F150.00
G01 X77.0816 Y11.1335 F150.00
G01 X77.1560 Y11.2156 F150.00
G01 X77.2221 Y11.3047 F150.00
G01 X77.2791 Y11.3998 F150.00
G01 X77.3265 Y11.5001 F150.00
G01 X77.3639 Y11.6045 F150.00
G01 X77.3908 Y11.7121 F150.00
G01 X77.4071 Y11.8217 F150.00
G01 X77.4126 Y11.9325 F150.00
G01 X77.4126 Y16.4500 F150.00
G01 X77.4071 Y16.5608 F150.00
G01 X77.3913 Y16.6681 F150.00
G01 X77.3645 Y16.7757 F150.00
G01 X77.3626 Y16.7820 F150.00
G01 X77.3626 Y18.4175 F150.00
G01 X77.3571 Y18.5283 F150.00
G01 X77.3406 Y18.6392 F150.00
G01 X77.3131 Y18.7479 F150.00
G01 X77.2765 Y18.8500 F150.00
G01 X77.2302 Y18.9480 F150.00
G01 X77.1721 Y19.0453 F150.00
G01 X77.1053 Y19.1353 F150.00
G01 X77.0316 Y19.2166 F150.00
G01 X75.3301 Y20.9181 F150.00
G01 X75.3301 Y28.8069 F150.00
G01 X76.2181 Y29.6950 F150.00
G01 X76.5925 Y29.6950 F150.00
G01 X76.5925 Y29.6738 F150.00
G01 X76.5941 Y29.6444 F150.00
G01 X76.5983 Y29.6165 F150.00
G01 X76.6058 Y29.5868 F150.00
G01 X76.6153 Y29.5602 F150.00
G01 X76.6279 Y29.5336 F150.00
G01 X76.6431 Y29.5083 F150.00
G01 X76.6614 Y29.4838 F150.00
G01 X76.6804 Y29.4629 F150.00
G01 X76.7022 Y29.4431 F150.00
G01 X76.7258 Y29.4256 F150.00
G01 X76.7511 Y29.4104 F150.00
G01 X76.7777 Y29.3978 F150.00
G01 X76.8054 Y29.3879 F150.00
G01 X76.8340 Y29.3808 F150.00
G01 X76.8643 Y29.3764 F150.00
G01 X76.8925 Y29.3750 F150.00
G01 X79.1937 Y29.3750 F150.00
G01 X79.2219 Y29.3765 F150.00
G01 X79.2486 Y29.3804 F150.00
G01 X79.2819 Y29.3887 F150.00
G01 X79.3073 Y29.3978 F150.00
G01 X79.3339 Y29.4104 F150.00
G01 X79.3592 Y29.4256 F150.00
G01 X79.3819 Y29.4423 F150.00
G01 X79.4046 Y29.4629 F150.00
G01 X79.4244 Y29.4847 F150.00
G01 X79.4420 Y29.5083 F150.00
G01 X79.4582 Y29.5358 F150.00
G01 X79.4706 Y29.5625 F150.00
G01 X79.4796 Y29.5879 F150.00
G01 X79.4862 Y29.6141 F150.00
G01 X79.4911 Y29.6456 F150.00
G01 X79.4925 Y29.6726 F150.00
G01 X79.4925 Y31.9750 F150.00
G01 X79.4911 Y32.0044 F150.00
G01 X79.4872 Y32.0311 F150.00
G01 X79.4788 Y32.0644 F150.00
G01 X79.4697 Y32.0898 F150.00
G01 X79.4571 Y32.1164 F150.00
G01 X79.4420 Y32.1417 F150.00
G01 X79.4259 Y32.1634 F150.00
G01 X79.4029 Y32.1888 F150.00
G01 X79.3828 Y32.2069 F150.00
G01 X79.3592 Y32.2245 F150.00
G01 X79.3339 Y32.2396 F150.00
G01 X79.3096 Y32.2512 F150.00
G01 X79.2772 Y32.2627 F150.00
G01 X79.2510 Y32.2692 F150.00
G01 X79.2219 Y32.2736 F150.00
G01 X79.1925 Y32.2750 F150.00
G01 X76.8901 Y32.2750 F150.00
G01 X76.8631 Y32.2736 F150.00
G01 X76.8340 Y32.2692 F150.00
G01 X76.8054 Y32.2621 F150.00
G01 X76.7777 Y32.2522 F150.00
G01 X76.7511 Y32.2396 F150.00
G01 X76.7258 Y32.2245 F150.00
G01 X76.7022 Y32.2069 F150.00
G01 X76.6795 Y32.1863 F150.00
G01 X76.6606 Y32.1653 F150.00
G01 X76.6431 Y32.1417 F150.00
G01 X76.6279 Y32.1164 F150.00
G01 X76.6149 Y32.0887 F150.00
G01 X76.6054 Y32.0621 F150.00
G01 X76.5981 Y32.0323 F150.00
G01 X76.5939 Y32.0032 F150.00
G01 X76.5925 Y31.9762 F150.00
G01 X76.5925 Y31.9551 F150.00
G01 X75.7500 Y31.9551 F150.00
G01 X75.6405 Y31.9497 F150.00
G01 X75.5272 Y31.9328 F150.00
G01 X75.4220 Y31.9064 F150.00
G01 X75.3199 Y31.8699 F150.00
G01 X75.2173 Y31.8216 F150.00
G01 X75.1222 Y31.7646 F150.00
G01 X75.0331 Y31.6985 F150.00
G01 X74.9510 Y31.6241 F150.00
G01 X73.4001 Y30.0732 F150.00
G01 X73.3265 Y29.9919 F150.00
G01 X73.2604 Y29.9028 F150.00
G01 X73.2034 Y29.8077 F150.00
G01 X73.1570 Y29.7097 F150.00
G01 X73.1186 Y29.6030 F150.00
G01 X73.0917 Y29.4955 F150.00
G01 X73.0754 Y29.3858 F150.00
G01 X73.0700 Y29.2750 F150.00
G01 X73.0700 Y20.4500 F150.00
G01 X73.0754 Y20.3392 F150.00
G01 X73.0913 Y20.2320 F150.00
G01 X73.1186 Y20.1220 F150.00
G01 X73.1570 Y20.0153 F150.00
G01 X73.2034 Y19.9173 F150.00
G01 X73.2591 Y19.8243 F150.00
G01 X73.3273 Y19.7322 F150.00
G01 X73.4010 Y19.6510 F150.00
G01 X75.1025 Y17.9494 F150.00
G01 X75.1025 Y16.9681 F150.00
G01 X74.5644 Y16.4301 F150.00
G01 X70.9981 Y16.4301 F150.00
G01 X70.1282 Y17.2999 F150.00
G01 X70.0469 Y17.3735 F150.00
G01 X69.9578 Y17.4396 F150.00
G01 X69.8627 Y17.4966 F150.00
G01 X69.7647 Y17.5430 F150.00
G01 X69.6557 Y17.5820 F150.00
G01 X69.5505 Y17.6083 F150.00
G01 X69.4408 Y17.6246 F150.00
G01 X69.3300 Y17.6301 F150.00
G01 X69.2205 Y17.6247 F150.00
G01 X69.1096 Y17.6083 F150.00
G01 X69.0020 Y17.5814 F150.00
G01 X68.8976 Y17.5440 F150.00
G01 X68.7973 Y17.4966 F150.00
G01 X68.7022 Y17.4396 F150.00
G01 X68.6131 Y17.3735 F150.00
G01 X68.5310 Y17.2991 F150.00
G01 X68.4565 Y17.2169 F150.00
G01 X68.3904 Y17.1278 F150.00
G01 X68.3334 Y17.0327 F150.00
G01 X68.2860 Y16.9325 F150.00
G01 X68.2486 Y16.8280 F150.00
G01 X68.2217 Y16.7205 F150.00
G01 X68.2054 Y16.6108 F150.00
G01 X68.2000 Y16.5000 F150.00
G01 X68.2055 Y16.3880 F150.00
G01 X68.2217 Y16.2796 F150.00
G01 X68.2480 Y16.1743 F150.00
G01 X68.2870 Y16.0653 F150.00
G01 X68.3334 Y15.9673 F150.00
G01 X68.3904 Y15.8722 F150.00
G01 X68.4565 Y15.7831 F150.00
G01 X68.5293 Y15.7027 F150.00
G01 X69.7310 Y14.5010 F150.00
G01 X69.8113 Y14.4281 F150.00
G01 X69.9022 Y14.3604 F150.00
G01 X69.9973 Y14.3034 F150.00
G01 X70.0976 Y14.2560 F150.00
G01 X70.2008 Y14.2190 F150.00
G01 X70.3120 Y14.1913 F150.00
G01 X70.4192 Y14.1754 F150.00
G01 X70.5300 Y14.1700 F150.00
G01 X75.0325 Y14.1700 F150.00
G01 X75.1408 Y14.1752 F150.00
G01 X75.1525 Y14.1767 F150.00
G01 X75.1525 Y12.4006 F150.00
G01 X66.3819 Y3.6301 F150.00
G01 X41.9601 Y3.6301 F150.00
G01 X41.9601 Y12.8419 F150.00
G01 X42.9681 Y13.8500 F150.00
G01 X50.3325 Y13.8500 F150.00
G01 X50.4408 Y13.8554 F150.00
G01 X50.5505 Y13.8717 F150.00
G01 X50.6580 Y13.8986 F150.00
G01 X50.7625 Y13.9360 F150.00
G01 X50.8627 Y13.9834 F150.00
G01 X50.9578 Y14.0404 F150.00
G01 X51.0469 Y14.1065 F150.00
G01 X51.1273 Y14.1793 F150.00
G01 X54.0599 Y17.1118 F150.00
G01 X54.1351 Y17.1951 F150.00
G01 X54.1996 Y17.2822 F150.00
G01 X54.2554 Y17.3752 F150.00
G01 X54.3040 Y17.4776 F150.00
G01 X54.3414 Y17.5820 F150.00
G01 X54.3688 Y17.6920 F150.00
G01 X54.3846 Y17.7992 F150.00
G01 X54.3901 Y17.9100 F150.00
G01 X54.3901 Y22.0300 F150.00
G01 X54.3846 Y22.1408 F150.00
G01 X54.3683 Y22.2505 F150.00
G01 X54.3414 Y22.3580 F150.00
G01 X54.3040 Y22.4625 F150.00
G01 X54.2560 Y22.5638 F150.00
G01 X54.1996 Y22.6578 F150.00
G01 X54.1351 Y22.7450 F150.00
G01 X54.0591 Y22.8291 F150.00
G01 X53.9750 Y22.9051 F150.00
G01 X53.8878 Y22.9696 F150.00
G01 X53.8183 Y23.0114 F150.00
G01 X53.8183 Y23.1288 F150.00
G01 X55.0312 Y24.3418 F150.00
G01 X55.7000 Y24.3418 F150.00
G01 X55.7560 Y24.3446 F150.00
G01 X55.8089 Y24.3525 F150.00
G01 X55.8597 Y24.3651 F150.00
G01 X55.9136 Y24.3843 F150.00
G01 X55.9653 Y24.4089 F150.00
G01 X56.0102 Y24.4358 F150.00
G01 X56.0532 Y24.4677 F150.00
G01 X56.0948 Y24.5053 F150.00
G01 X58.2812 Y26.6918 F150.00
G01 X59.6512 Y26.6918 F150.00
G01 X59.7047 Y26.6944 F150.00
G01 X59.7589 Y26.7025 F150.00
G01 X59.8121 Y26.7158 F150.00
G01 X59.8659 Y26.7352 F150.00
G01 X59.9132 Y26.7577 F150.00
G01 X59.9602 Y26.7858 F150.00
G01 X60.0042 Y26.8185 F150.00
G01 X60.0439 Y26.8544 F150.00
G01 X61.2748 Y28.0853 F150.00
G01 X61.3115 Y28.1259 F150.00
G01 X61.3428 Y28.1679 F150.00
G01 X61.3723 Y28.2169 F150.00
G01 X61.3958 Y28.2664 F150.00
G01 X61.4135 Y28.3156 F150.00
G01 X61.4278 Y28.3723 F150.00
G01 X61.4356 Y28.4253 F150.00
G01 X61.4383 Y28.4788 F150.00
G01 X61.4383 Y29.0101 F150.00
G01 X61.4811 Y29.0490 F150.00
G01 X61.5355 Y29.1089 F150.00
G01 X61.5861 Y29.1768 F150.00
G01 X61.6296 Y29.2493 F150.00
G01 X61.6658 Y29.3259 F150.00
G01 X61.6934 Y29.4033 F150.00
G01 X61.7141 Y29.4866 F150.00
G01 X61.7259 Y29.5667 F150.00
G01 X61.7300 Y29.6476 F150.00
G01 X61.7260 Y29.7321 F150.00
G01 X61.7131 Y29.8182 F150.00
G01 X61.6934 Y29.8968 F150.00
G01 X61.6653 Y29.9753 F150.00
G01 X61.6296 Y30.0507 F150.00
G01 X61.5881 Y30.1202 F150.00
G01 X61.5371 Y30.1892 F150.00
G01 X61.4793 Y30.2527 F150.00
G01 X61.4192 Y30.3071 F150.00
G01 X61.3522 Y30.3568 F150.00
G01 X61.2807 Y30.3996 F150.00
G01 X61.2075 Y30.4343 F150.00
G01 X61.1268 Y30.4634 F150.00
G01 X61.0458 Y30.4837 F150.00
G01 X60.9658 Y30.4956 F150.00
G01 X60.8776 Y30.5000 F150.00
G01 X60.7967 Y30.4959 F150.00
G01 X60.7142 Y30.4837 F150.00
G01 X60.6333 Y30.4634 F150.00
G01 X60.5570 Y30.4362 F150.00
G01 X60.4772 Y30.3984 F150.00
G01 X60.4078 Y30.3568 F150.00
G01 X60.3408 Y30.3071 F150.00
G01 X60.2790 Y30.2511 F150.00
G01 X60.2246 Y30.1911 F150.00
G01 X60.1726 Y30.1212 F150.00
G01 X60.1304 Y30.0507 F150.00
G01 X60.0947 Y29.9753 F150.00
G01 X60.0666 Y29.8968 F150.00
G01 X60.0469 Y29.8182 F150.00
G01 X60.0339 Y29.7309 F150.00
G01 X60.0300 Y29.6500 F150.00
G01 X60.0341 Y29.5667 F150.00
G01 X60.0463 Y29.4842 F150.00
G01 X60.0666 Y29.4033 F150.00
G01 X60.0947 Y29.3247 F150.00
G01 X60.1298 Y29.2504 F150.00
G01 X60.1733 Y29.1778 F150.00
G01 X60.2222 Y29.1117 F150.00
G01 X60.2790 Y29.0490 F150.00
G01 X60.3218 Y29.0101 F150.00
G01 X60.3218 Y28.7112 F150.00
G01 X59.4188 Y27.8083 F150.00
G01 X58.0500 Y27.8083 F150.00
G01 X57.9977 Y27.8058 F150.00
G01 X57.9411 Y27.7975 F150.00
G01 X57.8856 Y27.7835 F150.00
G01 X57.8364 Y27.7658 F150.00
G01 X57.7890 Y27.7435 F150.00
G01 X57.7409 Y27.7149 F150.00
G01 X57.6959 Y27.6815 F150.00
G01 X57.6553 Y27.6448 F150.00
G01 X55.4688 Y25.4583 F150.00
G01 X54.8000 Y25.4583 F150.00
G01 X54.7453 Y25.4556 F150.00
G01 X54.6911 Y25.4475 F150.00
G01 X54.6356 Y25.4335 F150.00
G01 X54.5864 Y25.4158 F150.00
G01 X54.5390 Y25.3935 F150.00
G01 X54.4899 Y25.3642 F150.00
G01 X54.4459 Y25.3315 F150.00
G01 X54.4053 Y25.2948 F150.00
G01 X52.8653 Y23.7548 F150.00
G01 X52.8277 Y23.7132 F150.00
G01 X52.7945 Y23.6681 F150.00
G01 X52.7677 Y23.6232 F150.00
G01 X52.7452 Y23.5759 F150.00
G01 X52.7258 Y23.5221 F150.00
G01 X52.7123 Y23.4677 F150.00
G01 X52.7044 Y23.4147 F150.00
G01 X52.7018 Y23.3612 F150.00
G01 X52.7018 Y23.0114 F150.00
G01 X52.6322 Y22.9696 F150.00
G01 X52.5451 Y22.9051 F150.00
G01 X52.4627 Y22.8308 F150.00
G01 X52.3865 Y22.7469 F150.00
G01 X52.3204 Y22.6578 F150.00
G01 X52.2634 Y22.5627 F150.00
G01 X52.2151 Y22.4602 F150.00
G01 X52.1786 Y22.3580 F150.00
G01 X52.1522 Y22.2529 F150.00
G01 X52.1355 Y22.1420 F150.00
G01 X52.1300 Y22.0300 F150.00
G01 X52.1300 Y18.3781 F150.00
G01 X49.8619 Y16.1101 F150.00
G01 X40.8300 Y16.1101 F150.00
G01 X40.7192 Y16.1046 F150.00
G01 X40.6120 Y16.0888 F150.00
G01 X40.5043 Y16.0620 F150.00
G01 X40.4981 Y16.0601 F150.00
G01 X11.6889 Y16.0601 F150.00
G01 X11.5124 Y16.2365 F150.00
G01 X11.5124 Y20.6635 F150.00
G01 X12.0315 Y21.1826 F150.00
G01 X21.1402 Y21.1826 F150.00
G01 X21.1456 Y21.1810 F150.00
G01 X21.2266 Y21.1609 F150.00
G01 X21.3067 Y21.1491 F150.00
G01 X21.3900 Y21.1450 F150.00
G01 X21.4758 Y21.1494 F150.00
G01 X21.5558 Y21.1613 F150.00
G01 X21.6344 Y21.1810 F150.00
G01 X21.7153 Y21.2097 F150.00
G01 X21.7907 Y21.2454 F150.00
G01 X21.8643 Y21.2897 F150.00
G01 X21.9292 Y21.3380 F150.00
G01 X21.9893 Y21.3923 F150.00
G01 X22.0471 Y21.4558 F150.00
G01 X22.0968 Y21.5228 F150.00
G01 X22.1396 Y21.5943 F150.00
G01 X22.1762 Y21.6720 F150.00
G01 X22.2034 Y21.7483 F150.00
G01 X22.2231 Y21.8268 F150.00
G01 X22.2358 Y21.9105 F150.00
G01 X22.2400 Y21.9950 F150.00
G01 X22.2356 Y22.0808 F150.00
G01 X22.2237 Y22.1608 F150.00
G01 X22.2041 Y22.2394 F150.00
G01 X22.1758 Y22.3192 F150.00
G01 X22.1396 Y22.3957 F150.00
G01 X22.0961 Y22.4683 F150.00
G01 X22.0455 Y22.5361 F150.00
G01 X21.9911 Y22.5961 F150.00
G01 X21.9483 Y22.6349 F150.00
G01 X21.9483 Y23.6088 F150.00
G01 X22.0812 Y23.7418 F150.00
G01 X24.9012 Y23.7418 F150.00
G01 X24.9572 Y23.7447 F150.00
G01 X25.0089 Y23.7525 F150.00
G01 X25.0597 Y23.7651 F150.00
G01 X25.1136 Y23.7843 F150.00
G01 X25.1653 Y23.8089 F150.00
G01 X25.2102 Y23.8358 F150.00
G01 X25.2522 Y23.8670 F150.00
G01 X25.2948 Y23.9053 F150.00
G01 X29.4048 Y28.0153 F150.00
G01 X29.4423 Y28.0568 F150.00
G01 X29.4742 Y28.0999 F150.00
G01 X29.5011 Y28.1447 F150.00
G01 X29.5258 Y28.1964 F150.00
G01 X29.5449 Y28.2503 F150.00
G01 X29.5575 Y28.3011 F150.00
G01 X29.5653 Y28.3529 F150.00
G01 X29.5683 Y28.4100 F150.00
G01 X29.5683 Y28.9751 F150.00
G01 X29.6111 Y29.0140 F150.00
G01 X29.6655 Y29.0739 F150.00
G01 X29.7161 Y29.1418 F150.00
G01 X29.7596 Y29.2143 F150.00
G01 X29.7958 Y29.2909 F150.00
G01 X29.8241 Y29.3706 F150.00
G01 X29.8437 Y29.4492 F150.00
G01 X29.8556 Y29.5293 F150.00
G01 X29.8600 Y29.6150 F150.00
G01 X29.8556 Y29.7008 F150.00
G01 X29.8437 Y29.7808 F150.00
G01 X29.8234 Y29.8618 F150.00
G01 X29.7953 Y29.9403 F150.00
G01 X29.7607 Y30.0135 F150.00
G01 X29.7153 Y30.0893 F150.00
G01 X29.6671 Y30.1542 F150.00
G01 X29.6111 Y30.2161 F150.00
G01 X29.5492 Y30.2721 F150.00
G01 X29.4843 Y30.3203 F150.00
G01 X29.4085 Y30.3657 F150.00
G01 X29.3353 Y30.4003 F150.00
G01 X29.2568 Y30.4284 F150.00
G01 X29.1758 Y30.4487 F150.00
G01 X29.0945 Y30.4608 F150.00
G01 X29.0100 Y30.4650 F150.00
G01 X28.9291 Y30.4611 F150.00
G01 X28.8418 Y30.4481 F150.00
G01 X28.7633 Y30.4284 F150.00
G01 X28.6847 Y30.4003 F150.00
G01 X28.6093 Y30.3646 F150.00
G01 X28.5378 Y30.3218 F150.00
G01 X28.4708 Y30.2721 F150.00
G01 X28.4107 Y30.2177 F150.00
G01 X28.3514 Y30.1523 F150.00
G01 X28.3033 Y30.0872 F150.00
G01 X28.2604 Y30.0157 F150.00
G01 X28.2247 Y29.9403 F150.00
G01 X28.1974 Y29.8641 F150.00
G01 X28.1763 Y29.7808 F150.00
G01 X28.1639 Y29.6959 F150.00
G01 X28.1600 Y29.6150 F150.00
G01 X28.1639 Y29.5341 F150.00
G01 X28.1763 Y29.4492 F150.00
G01 X28.1966 Y29.3683 F150.00
G01 X28.2238 Y29.2920 F150.00
G01 X28.2610 Y29.2133 F150.00
G01 X28.3033 Y29.1428 F150.00
G01 X28.3530 Y29.0758 F150.00
G01 X28.4090 Y29.0140 F150.00
G01 X28.4518 Y28.9751 F150.00
G01 X28.4518 Y28.6412 F150.00
G01 X24.6688 Y24.8583 F150.00
G01 X21.8488 Y24.8583 F150.00
G01 X21.7929 Y24.8553 F150.00
G01 X21.7411 Y24.8475 F150.00
G01 X21.6903 Y24.8349 F150.00
G01 X21.6364 Y24.8158 F150.00
G01 X21.5869 Y24.7923 F150.00
G01 X21.5379 Y24.7628 F150.00
G01 X21.4959 Y24.7315 F150.00
G01 X21.4561 Y24.6956 F150.00
G01 X20.9944 Y24.2339 F150.00
G01 X20.9585 Y24.1942 F150.00
G01 X20.9258 Y24.1502 F150.00
G01 X20.8977 Y24.1032 F150.00
G01 X20.8738 Y24.0525 F150.00
G01 X20.8558 Y24.0021 F150.00
G01 X20.8425 Y23.9489 F150.00
G01 X20.8344 Y23.8947 F150.00
G01 X20.8318 Y23.8412 F150.00
G01 X20.8318 Y22.8074 F150.00
G01 X11.6950 Y22.8074 F150.00
G01 X11.6154 Y22.8035 F150.00
G01 X11.5377 Y22.7920 F150.00
G01 X11.4569 Y22.7716 F150.00
G01 X11.3841 Y22.7456 F150.00
G01 X11.3143 Y22.7126 F150.00
G01 X11.2437 Y22.6705 F150.00
G01 X11.1787 Y22.6222 F150.00
G01 X11.1206 Y22.5695 F150.00
G01 X10.1239 Y21.5727 F150.00
G01 X10.0720 Y21.5154 F150.00
G01 X10.0245 Y21.4513 F150.00
G01 X9.9836 Y21.3830 F150.00
G01 X9.9495 Y21.3109 F150.00
G01 X9.9226 Y21.2358 F150.00
G01 X9.9032 Y21.1585 F150.00
G01 X9.8915 Y21.0796 F150.00
G01 X9.8877 Y21.0025 F150.00
G00 Z2.0000
G00 X13.3853 Y19.7975
G01 F80.00
G01 Z-0.0400
G01 F150.00
G01 X13.3840 Y19.7848 F150.00
G01 X13.3800 Y19.7000 F150.00
G01 X13.3845 Y19.6089 F150.00
G01 X13.3979 Y19.5186 F150.00
G01 X13.4201 Y19.4300 F150.00
G01 X13.4508 Y19.3441 F150.00
G01 X13.4898 Y19.2616 F150.00
G01 X13.5367 Y19.1833 F150.00
G01 X13.5872 Y19.1151 F150.00
G01 X13.5953 Y19.1052 F150.00
G01 X13.6524 Y19.0424 F150.00
G01 X13.7152 Y18.9853 F150.00
G01 X13.7251 Y18.9772 F150.00
G01 X13.7881 Y18.9304 F150.00
G01 X13.7987 Y18.9233 F150.00
G01 X13.8716 Y18.8798 F150.00
G01 X13.9483 Y18.8434 F150.00
G01 X13.9601 Y18.8385 F150.00
G01 X14.0400 Y18.8101 F150.00
G01 X14.1286 Y18.7879 F150.00
G01 X14.2189 Y18.7745 F150.00
G01 X14.3036 Y18.7702 F150.00
G01 X14.3164 Y18.7702 F150.00
G01 X14.4012 Y18.7745 F150.00
G01 X14.4914 Y18.7879 F150.00
G01 X14.5800 Y18.8101 F150.00
G01 X14.6659 Y18.8408 F150.00
G01 X14.7484 Y18.8798 F150.00
G01 X14.8213 Y18.9233 F150.00
G01 X14.8293 Y18.9286 F150.00
G01 X14.8950 Y18.9772 F150.00
G01 X14.9024 Y18.9832 F150.00
G01 X14.9653 Y19.0402 F150.00
G01 X14.9854 Y19.0618 F150.00
G01 X24.4356 Y19.0618 F150.00
G01 X24.7010 Y18.7965 F150.00
G01 X24.7451 Y18.7566 F150.00
G01 X24.7902 Y18.7230 F150.00
G01 X24.7981 Y18.7176 F150.00
G01 X24.8491 Y18.6871 F150.00
G01 X24.8999 Y18.6629 F150.00
G01 X24.9117 Y18.6580 F150.00
G01 X24.9647 Y18.6392 F150.00
G01 X25.0193 Y18.6254 F150.00
G01 X25.0318 Y18.6229 F150.00
G01 X25.0875 Y18.6148 F150.00
G01 X25.1468 Y18.6118 F150.00
G01 X44.5500 Y18.6118 F150.00
G01 X44.6126 Y18.6148 F150.00
G01 X44.6682 Y18.6229 F150.00
G01 X44.6777 Y18.6247 F150.00
G01 X44.7353 Y18.6392 F150.00
G01 X44.7883 Y18.6580 F150.00
G01 X44.8001 Y18.6629 F150.00
G01 X44.8509 Y18.6871 F150.00
G01 X44.8992 Y18.7159 F150.00
G01 X44.9098 Y18.7230 F150.00
G01 X44.9549 Y18.7566 F150.00
G01 X44.9990 Y18.7965 F150.00
G01 X47.9013 Y21.6987 F150.00
G01 X47.9434 Y21.7451 F150.00
G01 X47.9789 Y21.7928 F150.00
G01 X47.9841 Y21.8008 F150.00
G01 X48.0098 Y21.8436 F150.00
G01 X48.0158 Y21.8548 F150.00
G01 X48.0397 Y21.9058 F150.00
G01 X48.0608 Y21.9647 F150.00
G01 X48.0746 Y22.0193 F150.00
G01 X48.0771 Y22.0318 F150.00
G01 X48.0852 Y22.0875 F150.00
G01 X48.0881 Y22.1436 F150.00
G01 X48.0883 Y24.0856 F150.00
G01 X49.9644 Y25.9618 F150.00
G01 X53.8032 Y25.9618 F150.00
G01 X53.8562 Y25.9644 F150.00
G01 X53.8689 Y25.9656 F150.00
G01 X53.9245 Y25.9740 F150.00
G01 X53.9791 Y25.9875 F150.00
G01 X53.9913 Y25.9912 F150.00
G01 X54.0443 Y26.0103 F150.00
G01 X54.0952 Y26.0343 F150.00
G01 X54.1037 Y26.0387 F150.00
G01 X54.1546 Y26.0693 F150.00
G01 X54.1999 Y26.1027 F150.00
G01 X54.2097 Y26.1108 F150.00
G01 X54.2513 Y26.1487 F150.00
G01 X56.2513 Y28.1487 F150.00
G01 X56.2934 Y28.1951 F150.00
G01 X56.3289 Y28.2428 F150.00
G01 X56.3341 Y28.2508 F150.00
G01 X56.3629 Y28.2991 F150.00
G01 X56.3897 Y28.3558 F150.00
G01 X56.4108 Y28.4147 F150.00
G01 X56.4246 Y28.4693 F150.00
G01 X56.4271 Y28.4818 F150.00
G01 X56.4352 Y28.5375 F150.00
G01 X56.4382 Y28.5968 F150.00
G01 X56.4383 Y28.9746 F150.00
G01 X56.4598 Y28.9947 F150.00
G01 X56.5147 Y29.0552 F150.00
G01 X56.5209 Y29.0625 F150.00
G01 X56.5733 Y29.1333 F150.00
G01 X56.6187 Y29.2088 F150.00
G01 X56.6231 Y29.2173 F150.00
G01 X56.6566 Y29.2883 F150.00
G01 X56.6615 Y29.3001 F150.00
G01 X56.6900 Y29.3800 F150.00
G01 X56.7107 Y29.4624 F150.00
G01 X56.7132 Y29.4749 F150.00
G01 X56.7255 Y29.5589 F150.00
G01 X56.7300 Y29.6500 F150.00
G01 X56.7255 Y29.7412 F150.00
G01 X56.7132 Y29.8252 F150.00
G01 X56.7115 Y29.8346 F150.00
G01 X56.6917 Y29.9138 F150.00
G01 X56.6880 Y29.9260 F150.00
G01 X56.6592 Y30.0059 F150.00
G01 X56.6231 Y30.0827 F150.00
G01 X56.6171 Y30.0940 F150.00
G01 X56.5733 Y30.1667 F150.00
G01 X56.5228 Y30.2350 F150.00
G01 X56.5147 Y30.2448 F150.00
G01 X56.4576 Y30.3076 F150.00
G01 X56.3948 Y30.3647 F150.00
G01 X56.3850 Y30.3728 F150.00
G01 X56.3167 Y30.4233 F150.00
G01 X56.2440 Y30.4671 F150.00
G01 X56.2327 Y30.4731 F150.00
G01 X56.1559 Y30.5092 F150.00
G01 X56.0760 Y30.5380 F150.00
G01 X56.0638 Y30.5417 F150.00
G01 X55.9814 Y30.5621 F150.00
G01 X55.8975 Y30.5748 F150.00
G01 X55.8848 Y30.5760 F150.00
G01 X55.8000 Y30.5800 F150.00
G01 X55.7152 Y30.5760 F150.00
G01 X55.7025 Y30.5748 F150.00
G01 X55.6186 Y30.5621 F150.00
G01 X55.5300 Y30.5400 F150.00
G01 X55.4501 Y30.5115 F150.00
G01 X55.4383 Y30.5066 F150.00
G01 X55.3616 Y30.4702 F150.00
G01 X55.2887 Y30.4267 F150.00
G01 X55.2781 Y30.4196 F150.00
G01 X55.2100 Y30.3689 F150.00
G01 X55.1424 Y30.3076 F150.00
G01 X55.0811 Y30.2400 F150.00
G01 X55.0267 Y30.1667 F150.00
G01 X54.9830 Y30.0940 F150.00
G01 X54.9770 Y30.0827 F150.00
G01 X54.9408 Y30.0059 F150.00
G01 X54.9121 Y29.9260 F150.00
G01 X54.9084 Y29.9138 F150.00
G01 X54.8893 Y29.8377 F150.00
G01 X54.8868 Y29.8252 F150.00
G01 X54.8745 Y29.7412 F150.00
G01 X54.8701 Y29.6532 F150.00
G01 X54.8702 Y29.6436 F150.00
G01 X54.8745 Y29.5589 F150.00
G01 X54.8879 Y29.4686 F150.00
G01 X54.9101 Y29.3800 F150.00
G01 X54.9385 Y29.3001 F150.00
G01 X54.9434 Y29.2883 F150.00
G01 X54.9798 Y29.2116 F150.00
G01 X55.0267 Y29.1333 F150.00
G01 X55.0772 Y29.0651 F150.00
G01 X55.0832 Y29.0576 F150.00
G01 X55.1402 Y28.9947 F150.00
G01 X55.1618 Y28.9746 F150.00
G01 X55.1618 Y28.8644 F150.00
G01 X53.5356 Y27.2383 F150.00
G01 X49.6968 Y27.2382 F150.00
G01 X49.6375 Y27.2352 F150.00
G01 X49.5755 Y27.2260 F150.00
G01 X49.5147 Y27.2108 F150.00
G01 X49.4617 Y27.1920 F150.00
G01 X49.4499 Y27.1871 F150.00
G01 X49.4048 Y27.1658 F150.00
G01 X49.3936 Y27.1598 F150.00
G01 X49.3454 Y27.1307 F150.00
G01 X49.2951 Y27.0934 F150.00
G01 X49.2487 Y27.0513 F150.00
G01 X46.9987 Y24.8013 F150.00
G01 X46.9566 Y24.7549 F150.00
G01 X46.9230 Y24.7098 F150.00
G01 X46.9159 Y24.6992 F150.00
G01 X46.8871 Y24.6509 F150.00
G01 X46.8603 Y24.5943 F150.00
G01 X46.8412 Y24.5413 F150.00
G01 X46.8375 Y24.5291 F150.00
G01 X46.8240 Y24.4745 F150.00
G01 X46.8156 Y24.4189 F150.00
G01 X46.8144 Y24.4062 F150.00
G01 X46.8118 Y24.3532 F150.00
G01 X46.8118 Y22.4144 F150.00
G01 X44.2856 Y19.8883 F150.00
G01 X41.2383 Y19.8883 F150.00
G01 X41.2383 Y23.2000 F150.00
G01 X41.2352 Y23.2626 F150.00
G01 X41.2271 Y23.3182 F150.00
G01 X41.2246 Y23.3308 F150.00
G01 X41.2125 Y23.3791 F150.00
G01 X41.2098 Y23.3883 F150.00
G01 X41.1920 Y23.4383 F150.00
G01 X41.1871 Y23.4501 F150.00
G01 X41.1629 Y23.5009 F150.00
G01 X41.1341 Y23.5492 F150.00
G01 X41.1270 Y23.5598 F150.00
G01 X41.0934 Y23.6049 F150.00
G01 X41.0536 Y23.6490 F150.00
G01 X39.5383 Y25.1644 F150.00
G01 X39.5383 Y27.4180 F150.00
G01 X39.6169 Y27.4765 F150.00
G01 X39.6944 Y27.5466 F150.00
G01 X39.7034 Y27.5556 F150.00
G01 X39.7735 Y27.6331 F150.00
G01 X39.8396 Y27.7222 F150.00
G01 X39.8934 Y27.8118 F150.00
G01 X39.8995 Y27.8230 F150.00
G01 X39.9440 Y27.9176 F150.00
G01 X39.9794 Y28.0159 F150.00
G01 X39.9831 Y28.0281 F150.00
G01 X40.0083 Y28.1296 F150.00
G01 X40.0246 Y28.2393 F150.00
G01 X40.0300 Y28.3500 F150.00
G01 X40.0250 Y28.4544 F150.00
G01 X40.0238 Y28.4671 F150.00
G01 X40.0094 Y28.5642 F150.00
G01 X40.0069 Y28.5767 F150.00
G01 X39.9814 Y28.6780 F150.00
G01 X39.9440 Y28.7824 F150.00
G01 X39.8966 Y28.8827 F150.00
G01 X39.8430 Y28.9724 F150.00
G01 X39.8359 Y28.9830 F150.00
G01 X39.7774 Y29.0618 F150.00
G01 X39.7693 Y29.0717 F150.00
G01 X39.6990 Y29.1490 F150.00
G01 X39.6169 Y29.2235 F150.00
G01 X39.5278 Y29.2896 F150.00
G01 X39.4382 Y29.3434 F150.00
G01 X39.4270 Y29.3495 F150.00
G01 X39.3383 Y29.3914 F150.00
G01 X39.3265 Y29.3963 F150.00
G01 X39.2280 Y29.4314 F150.00
G01 X39.1205 Y29.4583 F150.00
G01 X39.0108 Y29.4746 F150.00
G01 X38.9000 Y29.4800 F150.00
G01 X38.7893 Y29.4746 F150.00
G01 X38.6796 Y29.4583 F150.00
G01 X38.5720 Y29.4314 F150.00
G01 X38.4676 Y29.3940 F150.00
G01 X38.3673 Y29.3466 F150.00
G01 X38.2722 Y29.2896 F150.00
G01 X38.1831 Y29.2235 F150.00
G01 X38.1056 Y29.1534 F150.00
G01 X38.0966 Y29.1444 F150.00
G01 X38.0307 Y29.0717 F150.00
G01 X38.0226 Y29.0618 F150.00
G01 X37.9605 Y28.9778 F150.00
G01 X37.9066 Y28.8882 F150.00
G01 X37.9006 Y28.8770 F150.00
G01 X37.8560 Y28.7824 F150.00
G01 X37.8207 Y28.6841 F150.00
G01 X37.8170 Y28.6719 F150.00
G01 X37.7917 Y28.5705 F150.00
G01 X37.7755 Y28.4608 F150.00
G01 X37.7700 Y28.3500 F150.00
G01 X37.7755 Y28.2393 F150.00
G01 X37.7917 Y28.1296 F150.00
G01 X37.8187 Y28.0220 F150.00
G01 X37.8560 Y27.9176 F150.00
G01 X37.9006 Y27.8230 F150.00
G01 X37.9066 Y27.8118 F150.00
G01 X37.9605 Y27.7222 F150.00
G01 X38.0226 Y27.6382 F150.00
G01 X38.0307 Y27.6283 F150.00
G01 X38.0966 Y27.5556 F150.00
G01 X38.1056 Y27.5466 F150.00
G01 X38.1831 Y27.4765 F150.00
G01 X38.2618 Y27.4180 F150.00
G01 X38.2618 Y24.8968 F150.00
G01 X38.2648 Y24.8375 F150.00
G01 X38.2740 Y24.7755 F150.00
G01 X38.2892 Y24.7147 F150.00
G01 X38.3103 Y24.6558 F150.00
G01 X38.3371 Y24.5991 F150.00
G01 X38.3693 Y24.5454 F150.00
G01 X38.4066 Y24.4951 F150.00
G01 X38.4465 Y24.4510 F150.00
G01 X39.9618 Y22.9356 F150.00
G01 X39.9618 Y19.8883 F150.00
G01 X25.4144 Y19.8883 F150.00
G01 X24.5683 Y20.7344 F150.00
G01 X24.5683 Y21.3196 F150.00
G01 X24.5898 Y21.3397 F150.00
G01 X24.6447 Y21.4002 F150.00
G01 X24.6509 Y21.4075 F150.00
G01 X24.7033 Y21.4783 F150.00
G01 X24.7471 Y21.5511 F150.00
G01 X24.7517 Y21.5594 F150.00
G01 X24.7892 Y21.6391 F150.00
G01 X24.8200 Y21.7250 F150.00
G01 X24.8421 Y21.8136 F150.00
G01 X24.8555 Y21.9039 F150.00
G01 X24.8599 Y21.9886 F150.00
G01 X24.8599 Y22.0014 F150.00
G01 X24.8555 Y22.0862 F150.00
G01 X24.8421 Y22.1764 F150.00
G01 X24.8217 Y22.2588 F150.00
G01 X24.8180 Y22.2710 F150.00
G01 X24.7892 Y22.3509 F150.00
G01 X24.7517 Y22.4306 F150.00
G01 X24.7471 Y22.4390 F150.00
G01 X24.7067 Y22.5063 F150.00
G01 X24.6996 Y22.5169 F150.00
G01 X24.6489 Y22.5850 F150.00
G01 X24.5920 Y22.6480 F150.00
G01 X24.5830 Y22.6570 F150.00
G01 X24.5200 Y22.7139 F150.00
G01 X24.4519 Y22.7646 F150.00
G01 X24.4413 Y22.7717 F150.00
G01 X24.3684 Y22.8152 F150.00
G01 X24.2917 Y22.8516 F150.00
G01 X24.2800 Y22.8565 F150.00
G01 X24.2000 Y22.8850 F150.00
G01 X24.1177 Y22.9057 F150.00
G01 X24.1052 Y22.9082 F150.00
G01 X24.0212 Y22.9205 F150.00
G01 X23.9300 Y22.9250 F150.00
G01 X23.8389 Y22.9205 F150.00
G01 X23.7549 Y22.9082 F150.00
G01 X23.7424 Y22.9057 F150.00
G01 X23.6662 Y22.8867 F150.00
G01 X23.6540 Y22.8830 F150.00
G01 X23.5741 Y22.8542 F150.00
G01 X23.4916 Y22.8152 F150.00
G01 X23.4133 Y22.7683 F150.00
G01 X23.3400 Y22.7139 F150.00
G01 X23.2724 Y22.6526 F150.00
G01 X23.2153 Y22.5898 F150.00
G01 X23.2072 Y22.5800 F150.00
G01 X23.1604 Y22.5169 F150.00
G01 X23.1533 Y22.5063 F150.00
G01 X23.1098 Y22.4334 F150.00
G01 X23.0708 Y22.3509 F150.00
G01 X23.0401 Y22.2650 F150.00
G01 X23.0193 Y22.1827 F150.00
G01 X23.0168 Y22.1702 F150.00
G01 X23.0045 Y22.0862 F150.00
G01 X23.0002 Y22.0014 F150.00
G01 X23.0002 Y21.9886 F150.00
G01 X23.0045 Y21.9039 F150.00
G01 X23.0168 Y21.8199 F150.00
G01 X23.0193 Y21.8074 F150.00
G01 X23.0401 Y21.7250 F150.00
G01 X23.0685 Y21.6451 F150.00
G01 X23.0734 Y21.6333 F150.00
G01 X23.1098 Y21.5566 F150.00
G01 X23.1550 Y21.4810 F150.00
G01 X23.1604 Y21.4731 F150.00
G01 X23.2072 Y21.4101 F150.00
G01 X23.2132 Y21.4026 F150.00
G01 X23.2702 Y21.3397 F150.00
G01 X23.2918 Y21.3196 F150.00
G01 X23.2918 Y20.4668 F150.00
G01 X23.2948 Y20.4075 F150.00
G01 X23.3029 Y20.3518 F150.00
G01 X23.3057 Y20.3383 F150.00
G01 X14.9854 Y20.3383 F150.00
G01 X14.9653 Y20.3598 F150.00
G01 X14.9024 Y20.4169 F150.00
G01 X14.8950 Y20.4228 F150.00
G01 X14.8293 Y20.4715 F150.00
G01 X14.8213 Y20.4767 F150.00
G01 X14.7484 Y20.5202 F150.00
G01 X14.6717 Y20.5566 F150.00
G01 X14.6629 Y20.5604 F150.00
G01 X14.5800 Y20.5900 F150.00
G01 X14.4977 Y20.6107 F150.00
G01 X14.4852 Y20.6132 F150.00
G01 X14.4012 Y20.6255 F150.00
G01 X14.3164 Y20.6299 F150.00
G01 X14.3036 Y20.6299 F150.00
G01 X14.2252 Y20.6260 F150.00
G01 X14.2125 Y20.6248 F150.00
G01 X14.1286 Y20.6121 F150.00
G01 X14.0462 Y20.5917 F150.00
G01 X14.0340 Y20.5880 F150.00
G01 X13.9601 Y20.5615 F150.00
G01 X13.9483 Y20.5566 F150.00
G01 X13.8716 Y20.5202 F150.00
G01 X13.7933 Y20.4733 F150.00
G01 X13.7200 Y20.4189 F150.00
G01 X13.6524 Y20.3576 F150.00
G01 X13.5911 Y20.2900 F150.00
G01 X13.5404 Y20.2219 F150.00
G01 X13.5333 Y20.2113 F150.00
G01 X13.4930 Y20.1440 F150.00
G01 X13.4870 Y20.1327 F150.00
G01 X13.4508 Y20.0559 F150.00
G01 X13.4201 Y19.9700 F150.00
G01 X13.3979 Y19.8814 F150.00
G01 X13.3853 Y19.7975 F150.00
G00 Z2.0000
G00 X13.4644 Y19.7858
G01 F80.00
G01 Z-0.0400
G01 F150.00
G01 X13.4600 Y19.7000 F150.00
G01 X13.4641 Y19.6167 F150.00
G01 X13.4763 Y19.5342 F150.00
G01 X13.4966 Y19.4533 F150.00
G01 X13.5247 Y19.3747 F150.00
G01 X13.5604 Y19.2993 F150.00
G01 X13.6033 Y19.2278 F150.00
G01 X13.6546 Y19.1589 F150.00
G01 X13.7090 Y19.0990 F150.00
G01 X13.7727 Y19.0414 F150.00
G01 X13.8399 Y18.9920 F150.00
G01 X13.9093 Y18.9504 F150.00
G01 X13.9825 Y18.9157 F150.00
G01 X14.0633 Y18.8866 F150.00
G01 X14.1442 Y18.8663 F150.00
G01 X14.2267 Y18.8541 F150.00
G01 X14.3088 Y18.8500 F150.00
G01 X14.3933 Y18.8541 F150.00
G01 X14.4758 Y18.8663 F150.00
G01 X14.5568 Y18.8866 F150.00
G01 X14.6364 Y18.9152 F150.00
G01 X14.7107 Y18.9504 F150.00
G01 X14.7833 Y18.9940 F150.00
G01 X14.8511 Y19.0446 F150.00
G01 X14.9111 Y19.0990 F150.00
G01 X14.9499 Y19.1418 F150.00
G01 X24.4688 Y19.1418 F150.00
G01 X24.7561 Y18.8544 F150.00
G01 X24.7959 Y18.8185 F150.00
G01 X24.8399 Y18.7858 F150.00
G01 X24.8869 Y18.7577 F150.00
G01 X24.9341 Y18.7352 F150.00
G01 X24.9880 Y18.7158 F150.00
G01 X25.0435 Y18.7021 F150.00
G01 X25.0953 Y18.6944 F150.00
G01 X25.1488 Y18.6918 F150.00
G01 X44.5500 Y18.6918 F150.00
G01 X44.6047 Y18.6944 F150.00
G01 X44.6601 Y18.7027 F150.00
G01 X44.7121 Y18.7158 F150.00
G01 X44.7614 Y18.7334 F150.00
G01 X44.8132 Y18.7577 F150.00
G01 X44.8622 Y18.7873 F150.00
G01 X44.9042 Y18.8185 F150.00
G01 X44.9439 Y18.8544 F150.00
G01 X47.8448 Y21.7553 F150.00
G01 X47.8815 Y21.7959 F150.00
G01 X47.9135 Y21.8389 F150.00
G01 X47.9435 Y21.8890 F150.00
G01 X47.9658 Y21.9364 F150.00
G01 X47.9842 Y21.9880 F150.00
G01 X47.9980 Y22.0435 F150.00
G01 X48.0056 Y22.0953 F150.00
G01 X48.0082 Y22.1476 F150.00
G01 X48.0083 Y24.1188 F150.00
G01 X49.9312 Y26.0418 F150.00
G01 X53.8012 Y26.0418 F150.00
G01 X53.8572 Y26.0447 F150.00
G01 X53.9089 Y26.0525 F150.00
G01 X53.9597 Y26.0651 F150.00
G01 X54.0136 Y26.0843 F150.00
G01 X54.0642 Y26.1083 F150.00
G01 X54.1102 Y26.1358 F150.00
G01 X54.1522 Y26.1670 F150.00
G01 X54.1948 Y26.2053 F150.00
G01 X56.1948 Y28.2053 F150.00
G01 X56.2315 Y28.2459 F150.00
G01 X56.2635 Y28.2889 F150.00
G01 X56.2923 Y28.3369 F150.00
G01 X56.3167 Y28.3887 F150.00
G01 X56.3342 Y28.4380 F150.00
G01 X56.3470 Y28.4887 F150.00
G01 X56.3554 Y28.5441 F150.00
G01 X56.3583 Y28.6000 F150.00
G01 X56.3583 Y29.0101 F150.00
G01 X56.4011 Y29.0490 F150.00
G01 X56.4571 Y29.1108 F150.00
G01 X56.5068 Y29.1778 F150.00
G01 X56.5491 Y29.2483 F150.00
G01 X56.5862 Y29.3270 F150.00
G01 X56.6134 Y29.4033 F150.00
G01 X56.6331 Y29.4818 F150.00
G01 X56.6459 Y29.5667 F150.00
G01 X56.6500 Y29.6500 F150.00
G01 X56.6459 Y29.7333 F150.00
G01 X56.6334 Y29.8170 F150.00
G01 X56.6126 Y29.8991 F150.00
G01 X56.5853 Y29.9753 F150.00
G01 X56.5507 Y30.0485 F150.00
G01 X56.5068 Y30.1222 F150.00
G01 X56.4555 Y30.1911 F150.00
G01 X56.4011 Y30.2511 F150.00
G01 X56.3411 Y30.3055 F150.00
G01 X56.2722 Y30.3568 F150.00
G01 X56.1985 Y30.4007 F150.00
G01 X56.1253 Y30.4353 F150.00
G01 X56.0491 Y30.4626 F150.00
G01 X55.9658 Y30.4837 F150.00
G01 X55.8809 Y30.4961 F150.00
G01 X55.8000 Y30.5000 F150.00
G01 X55.7191 Y30.4961 F150.00
G01 X55.6342 Y30.4837 F150.00
G01 X55.5509 Y30.4626 F150.00
G01 X55.4747 Y30.4353 F150.00
G01 X55.4015 Y30.4007 F150.00
G01 X55.3278 Y30.3568 F150.00
G01 X55.2598 Y30.3063 F150.00
G01 X55.1990 Y30.2511 F150.00
G01 X55.1414 Y30.1873 F150.00
G01 X55.0920 Y30.1202 F150.00
G01 X55.0504 Y30.0507 F150.00
G01 X55.0157 Y29.9775 F150.00
G01 X54.9866 Y29.8968 F150.00
G01 X54.9663 Y29.8158 F150.00
G01 X54.9541 Y29.7333 F150.00
G01 X54.9500 Y29.6500 F150.00
G01 X54.9541 Y29.5667 F150.00
G01 X54.9663 Y29.4842 F150.00
G01 X54.9866 Y29.4033 F150.00
G01 X55.0152 Y29.3236 F150.00
G01 X55.0504 Y29.2493 F150.00
G01 X55.0940 Y29.1768 F150.00
G01 X55.1446 Y29.1089 F150.00
G01 X55.1990 Y29.0490 F150.00
G01 X55.2418 Y29.0101 F150.00
G01 X55.2418 Y28.8312 F150.00
G01 X53.5688 Y27.1583 F150.00
G01 X49.6988 Y27.1583 F150.00
G01 X49.6453 Y27.1556 F150.00
G01 X49.5911 Y27.1475 F150.00
G01 X49.5380 Y27.1342 F150.00
G01 X49.4887 Y27.1167 F150.00
G01 X49.4347 Y27.0911 F150.00
G01 X49.3899 Y27.0642 F150.00
G01 X49.3459 Y27.0315 F150.00
G01 X49.3053 Y26.9948 F150.00
G01 X47.0553 Y24.7448 F150.00
G01 X47.0185 Y24.7042 F150.00
G01 X46.9873 Y24.6622 F150.00
G01 X46.9577 Y24.6132 F150.00
G01 X46.9343 Y24.5636 F150.00
G01 X46.9151 Y24.5097 F150.00
G01 X46.9025 Y24.4589 F150.00
G01 X46.8947 Y24.4072 F150.00
G01 X46.8918 Y24.3512 F150.00
G01 X46.8918 Y22.3812 F150.00
G01 X44.3188 Y19.8083 F150.00
G01 X41.1583 Y19.8083 F150.00
G01 X41.1583 Y23.2000 F150.00
G01 X41.1556 Y23.2547 F150.00
G01 X41.1480 Y23.3065 F150.00
G01 X41.1339 Y23.3632 F150.00
G01 X41.1148 Y23.4159 F150.00
G01 X41.0923 Y23.4632 F150.00
G01 X41.0655 Y23.5081 F150.00
G01 X41.0315 Y23.5542 F150.00
G01 X40.9956 Y23.5939 F150.00
G01 X39.4583 Y25.1312 F150.00
G01 X39.4583 Y27.4619 F150.00
G01 X39.4844 Y27.4777 F150.00
G01 X39.5671 Y27.5391 F150.00
G01 X39.6425 Y27.6076 F150.00
G01 X39.7109 Y27.6830 F150.00
G01 X39.7744 Y27.7687 F150.00
G01 X39.8260 Y27.8550 F150.00
G01 X39.8696 Y27.9471 F150.00
G01 X39.9055 Y28.0476 F150.00
G01 X39.9298 Y28.1452 F150.00
G01 X39.9450 Y28.2471 F150.00
G01 X39.9500 Y28.3500 F150.00
G01 X39.9451 Y28.4505 F150.00
G01 X39.9296 Y28.5561 F150.00
G01 X39.9048 Y28.6548 F150.00
G01 X39.8701 Y28.7518 F150.00
G01 X39.8260 Y28.8450 F150.00
G01 X39.7744 Y28.9313 F150.00
G01 X39.7101 Y29.0180 F150.00
G01 X39.6425 Y29.0925 F150.00
G01 X39.5661 Y29.1617 F150.00
G01 X39.4834 Y29.2231 F150.00
G01 X39.3971 Y29.2748 F150.00
G01 X39.2995 Y29.3210 F150.00
G01 X39.2048 Y29.3548 F150.00
G01 X39.1049 Y29.3798 F150.00
G01 X39.0029 Y29.3950 F150.00
G01 X38.9000 Y29.4000 F150.00
G01 X38.7971 Y29.3950 F150.00
G01 X38.6952 Y29.3798 F150.00
G01 X38.5952 Y29.3548 F150.00
G01 X38.4960 Y29.3191 F150.00
G01 X38.4050 Y29.2760 F150.00
G01 X38.3147 Y29.2216 F150.00
G01 X38.2339 Y29.1617 F150.00
G01 X38.1593 Y29.0942 F150.00
G01 X38.0900 Y29.0180 F150.00
G01 X38.0270 Y28.9334 F150.00
G01 X37.9740 Y28.8450 F150.00
G01 X37.9299 Y28.7518 F150.00
G01 X37.8952 Y28.6548 F150.00
G01 X37.8702 Y28.5549 F150.00
G01 X37.8551 Y28.4529 F150.00
G01 X37.8500 Y28.3500 F150.00
G01 X37.8552 Y28.2459 F150.00
G01 X37.8707 Y28.1428 F150.00
G01 X37.8952 Y28.0452 F150.00
G01 X37.9291 Y27.9505 F150.00
G01 X37.9740 Y27.8550 F150.00
G01 X38.0263 Y27.7677 F150.00
G01 X38.0884 Y27.6839 F150.00
G01 X38.1584 Y27.6067 F150.00
G01 X38.2349 Y27.5376 F150.00
G01 X38.3157 Y27.4777 F150.00
G01 X38.3418 Y27.4619 F150.00
G01 X38.3418 Y24.8988 F150.00
G01 X38.3444 Y24.8453 F150.00
G01 X38.3525 Y24.7911 F150.00
G01 X38.3658 Y24.7380 F150.00
G01 X38.3843 Y24.6864 F150.00
G01 X38.4077 Y24.6369 F150.00
G01 X38.4358 Y24.5899 F150.00
G01 X38.4685 Y24.5459 F150.00
G01 X38.5044 Y24.5061 F150.00
G01 X40.0418 Y22.9688 F150.00
G01 X40.0418 Y19.8083 F150.00
G01 X25.3812 Y19.8083 F150.00
G01 X24.4883 Y20.7012 F150.00
G01 X24.4883 Y21.3551 F150.00
G01 X24.5311 Y21.3940 F150.00
G01 X24.5878 Y21.4567 F150.00
G01 X24.6368 Y21.5228 F150.00
G01 X24.6802 Y21.5954 F150.00
G01 X24.7153 Y21.6697 F150.00
G01 X24.7434 Y21.7483 F150.00
G01 X24.7637 Y21.8292 F150.00
G01 X24.7758 Y21.9105 F150.00
G01 X24.7800 Y21.9975 F150.00
G01 X24.7759 Y22.0783 F150.00
G01 X24.7637 Y22.1608 F150.00
G01 X24.7426 Y22.2441 F150.00
G01 X24.7153 Y22.3203 F150.00
G01 X24.6807 Y22.3935 F150.00
G01 X24.6353 Y22.4693 F150.00
G01 X24.5871 Y22.5342 F150.00
G01 X24.5327 Y22.5943 F150.00
G01 X24.4692 Y22.6521 F150.00
G01 X24.4002 Y22.7031 F150.00
G01 X24.3307 Y22.7446 F150.00
G01 X24.2575 Y22.7793 F150.00
G01 X24.1768 Y22.8084 F150.00
G01 X24.0934 Y22.8291 F150.00
G01 X24.0133 Y22.8409 F150.00
G01 X23.9300 Y22.8450 F150.00
G01 X23.8467 Y22.8409 F150.00
G01 X23.7666 Y22.8291 F150.00
G01 X23.6809 Y22.8076 F150.00
G01 X23.6047 Y22.7803 F150.00
G01 X23.5293 Y22.7446 F150.00
G01 X23.4578 Y22.7018 F150.00
G01 X23.3908 Y22.6521 F150.00
G01 X23.3290 Y22.5961 F150.00
G01 X23.2746 Y22.5361 F150.00
G01 X23.2220 Y22.4652 F150.00
G01 X23.1804 Y22.3957 F150.00
G01 X23.1447 Y22.3203 F150.00
G01 X23.1166 Y22.2418 F150.00
G01 X23.0963 Y22.1608 F150.00
G01 X23.0839 Y22.0759 F150.00
G01 X23.0800 Y21.9950 F150.00
G01 X23.0839 Y21.9141 F150.00
G01 X23.0963 Y21.8292 F150.00
G01 X23.1170 Y21.7471 F150.00
G01 X23.1457 Y21.6675 F150.00
G01 X23.1804 Y21.5943 F150.00
G01 X23.2226 Y21.5238 F150.00
G01 X23.2737 Y21.4548 F150.00
G01 X23.3290 Y21.3940 F150.00
G01 X23.3718 Y21.3551 F150.00
G01 X23.3718 Y20.4676 F150.00
G01 X23.3744 Y20.4153 F150.00
G01 X23.3825 Y20.3611 F150.00
G01 X23.3958 Y20.3080 F150.00
G01 X23.4135 Y20.2583 F150.00
G01 X14.9499 Y20.2583 F150.00
G01 X14.9111 Y20.3011 F150.00
G01 X14.8511 Y20.3555 F150.00
G01 X14.7833 Y20.4061 F150.00
G01 X14.7107 Y20.4496 F150.00
G01 X14.6364 Y20.4848 F150.00
G01 X14.5568 Y20.5134 F150.00
G01 X14.4758 Y20.5337 F150.00
G01 X14.3933 Y20.5459 F150.00
G01 X14.3076 Y20.5500 F150.00
G01 X14.2267 Y20.5459 F150.00
G01 X14.1442 Y20.5337 F150.00
G01 X14.0633 Y20.5134 F150.00
G01 X13.9847 Y20.4853 F150.00
G01 X13.9093 Y20.4496 F150.00
G01 X13.8378 Y20.4068 F150.00
G01 X13.7708 Y20.3571 F150.00
G01 X13.7107 Y20.3027 F150.00
G01 X13.6514 Y20.2373 F150.00
G01 X13.6033 Y20.1722 F150.00
G01 X13.5593 Y20.0985 F150.00
G01 X13.5247 Y20.0253 F150.00
G01 X13.4966 Y19.9468 F150.00
G01 X13.4763 Y19.8658 F150.00
G01 X13.4644 Y19.7858 F150.00
G00 Z2.0000
G00 X9.9361 Y31.3987
G01 F80.00
G01 Z-0.0400
G01 F150.00
G01 X10.0009 Y31.3657 F150.00
G01 X10.1760 Y31.3088 F150.00
G01 X10.3579 Y31.2800 F150.00
G01 X10.5421 Y31.2800 F150.00
G01 X10.7240 Y31.3088 F150.00
G01 X10.8991 Y31.3657 F150.00
G01 X10.9639 Y31.3987 F150.00
G01 X10.7809 Y31.5817 F150.00
G01 X10.7200 Y31.5601 F150.00
G01 X10.6314 Y31.5379 F150.00
G01 X10.5412 Y31.5245 F150.00
G01 X10.4500 Y31.5200 F150.00
G01 X10.3589 Y31.5245 F150.00
G01 X10.2686 Y31.5379 F150.00
G01 X10.1800 Y31.5601 F150.00
G01 X10.1191 Y31.5817 F150.00
G01 X9.9361 Y31.3987 F150.00
G00 Z2.0000
G00 X9.8017 Y31.3774
G01 F80.00
G01 Z-0.0400
G01 F150.00
G01 X9.9702 Y31.2916 F150.00
G01 X10.1573 Y31.2308 F150.00
G01 X10.3516 Y31.2000 F150.00
G01 X10.5484 Y31.2000 F150.00
G01 X10.7427 Y31.2308 F150.00
G01 X10.9298 Y31.2916 F150.00
G01 X11.0983 Y31.3774 F150.00
G01 X10.7996 Y31.6761 F150.00
G01 X10.7742 Y31.6643 F150.00
G01 X10.6979 Y31.6370 F150.00
G01 X10.6170 Y31.6166 F150.00
G01 X10.5333 Y31.6041 F150.00
G01 X10.4500 Y31.6000 F150.00
G01 X10.3667 Y31.6041 F150.00
G01 X10.2830 Y31.6166 F150.00
G01 X10.2021 Y31.6370 F150.00
G01 X10.1259 Y31.6643 F150.00
G01 X10.1004 Y31.6761 F150.00
G01 X9.8017 Y31.3774 F150.00
G00 Z2.0000
G00 X9.3987 Y32.9639
G01 F80.00
G01 Z-0.0400
G01 F150.00
G01 X9.3657 Y32.8991 F150.00
G01 X9.3088 Y32.7240 F150.00
G01 X9.2800 Y32.5421 F150.00
G01 X9.2800 Y32.3579 F150.00
G01 X9.3088 Y32.1760 F150.00
G01 X9.3657 Y32.0009 F150.00
G01 X9.3987 Y31.9361 F150.00
G01 X9.5817 Y32.1191 F150.00
G01 X9.5601 Y32.1800 F150.00
G01 X9.5379 Y32.2686 F150.00
G01 X9.5245 Y32.3589 F150.00
G01 X9.5200 Y32.4500 F150.00
G01 X9.5245 Y32.5412 F150.00
G01 X9.5379 Y32.6314 F150.00
G01 X9.5601 Y32.7200 F150.00
G01 X9.5817 Y32.7809 F150.00
G01 X9.3987 Y32.9639 F150.00
G00 Z2.0000
G00 X9.3774 Y33.0983
G01 F80.00
G01 Z-0.0400
G01 F150.00
G01 X9.2916 Y32.9298 F150.00
G01 X9.2308 Y32.7427 F150.00
G01 X9.2000 Y32.5484 F150.00
G01 X9.2000 Y32.3516 F150.00
G01 X9.2308 Y32.1573 F150.00
G01 X9.2916 Y31.9702 F150.00
G01 X9.3774 Y31.8017 F150.00
G01 X9.6761 Y32.1004 F150.00
G01 X9.6643 Y32.1259 F150.00
G01 X9.6370 Y32.2021 F150.00
G01 X9.6166 Y32.2830 F150.00
G01 X9.6041 Y32.3667 F150.00
G01 X9.6000 Y32.4500 F150.00
G01 X9.6041 Y32.5333 F150.00
G01 X9.6166 Y32.6170 F150.00
G01 X9.6370 Y32.6979 F150.00
G01 X9.6643 Y32.7742 F150.00
G01 X9.6761 Y32.7996 F150.00
G01 X9.3774 Y33.0983 F150.00
G00 Z2.0000
G00 X9.8017 Y33.5226
G01 F80.00
G01 Z-0.0400
G01 F150.00
G01 X10.1004 Y33.2239 F150.00
G01 X10.1259 Y33.2358 F150.00
G01 X10.2021 Y33.2630 F150.00
G01 X10.2830 Y33.2834 F150.00
G01 X10.3667 Y33.2959 F150.00
G01 X10.4500 Y33.3000 F150.00
G01 X10.5333 Y33.2959 F150.00
G01 X10.6170 Y33.2834 F150.00
G01 X10.6979 Y33.2630 F150.00
G01 X10.7742 Y33.2358 F150.00
G01 X10.7996 Y33.2239 F150.00
G01 X11.0983 Y33.5226 F150.00
G01 X10.9298 Y33.6084 F150.00
G01 X10.7427 Y33.6692 F150.00
G01 X10.5484 Y33.7000 F150.00
G01 X10.3516 Y33.7000 F150.00
G01 X10.1573 Y33.6692 F150.00
G01 X9.9702 Y33.6084 F150.00
G01 X9.8017 Y33.5226 F150.00
G00 Z2.0000
G00 X9.9361 Y33.5013
G01 F80.00
G01 Z-0.0400
G01 F150.00
G01 X10.1191 Y33.3183 F150.00
G01 X10.1800 Y33.3400 F150.00
G01 X10.2686 Y33.3621 F150.00
G01 X10.3589 Y33.3755 F150.00
G01 X10.4500 Y33.3800 F150.00
G01 X10.5412 Y33.3755 F150.00
G01 X10.6314 Y33.3621 F150.00
G01 X10.7200 Y33.3400 F150.00
G01 X10.7809 Y33.3183 F150.00
G01 X10.9639 Y33.5013 F150.00
G01 X10.8991 Y33.5343 F150.00
G01 X10.7240 Y33.5912 F150.00
G01 X10.5421 Y33.6200 F150.00
G01 X10.3579 Y33.6200 F150.00
G01 X10.1760 Y33.5912 F150.00
G01 X10.0009 Y33.5343 F150.00
G01 X9.9361 Y33.5013 F150.00
G00 Z2.0000
G00 X11.5253 Y32.5475
G01 F80.00
G01 Z-0.0400
G01 F150.00
G01 X11.5240 Y32.5348 F150.00
G01 X11.5200 Y32.4500 F150.00
G01 X11.5245 Y32.3589 F150.00
G01 X11.5379 Y32.2686 F150.00
G01 X11.5601 Y32.1800 F150.00
G01 X11.5908 Y32.0941 F150.00
G01 X11.6298 Y32.0116 F150.00
G01 X11.6767 Y31.9333 F150.00
G01 X11.7311 Y31.8600 F150.00
G01 X11.7924 Y31.7924 F150.00
G01 X11.8600 Y31.7311 F150.00
G01 X11.9333 Y31.6767 F150.00
G01 X12.0116 Y31.6298 F150.00
G01 X12.0941 Y31.5908 F150.00
G01 X12.1800 Y31.5601 F150.00
G01 X12.2686 Y31.5379 F150.00
G01 X12.3525 Y31.5253 F150.00
G01 X12.3620 Y31.5242 F150.00
G01 X12.4436 Y31.5202 F150.00
G01 X12.4564 Y31.5202 F150.00
G01 X12.5412 Y31.5245 F150.00
G01 X12.6252 Y31.5368 F150.00
G01 X12.6377 Y31.5393 F150.00
G01 X12.7200 Y31.5601 F150.00
G01 X12.8029 Y31.5896 F150.00
G01 X12.8117 Y31.5934 F150.00
G01 X12.8884 Y31.6298 F150.00
G01 X12.9613 Y31.6733 F150.00
G01 X12.9693 Y31.6786 F150.00
G01 X13.0350 Y31.7272 F150.00
G01 X13.0424 Y31.7332 F150.00
G01 X13.1053 Y31.7902 F150.00
G01 X13.1254 Y31.8118 F150.00
G01 X20.1356 Y31.8118 F150.00
G01 X20.8118 Y31.1356 F150.00
G01 X20.8118 Y30.3428 F150.00
G01 X20.8025 Y30.3359 F150.00
G01 X20.7952 Y30.3297 F150.00
G01 X20.7324 Y30.2726 F150.00
G01 X20.6711 Y30.2050 F150.00
G01 X20.6167 Y30.1317 F150.00
G01 X20.5698 Y30.0534 F150.00
G01 X20.5308 Y29.9709 F150.00
G01 X20.5001 Y29.8850 F150.00
G01 X20.4779 Y29.7964 F150.00
G01 X20.4653 Y29.7125 F150.00
G01 X20.4642 Y29.7030 F150.00
G01 X20.4600 Y29.6150 F150.00
G01 X20.4645 Y29.5239 F150.00
G01 X20.4779 Y29.4336 F150.00
G01 X20.5001 Y29.3450 F150.00
G01 X20.5308 Y29.2591 F150.00
G01 X20.5698 Y29.1766 F150.00
G01 X20.6167 Y29.0983 F150.00
G01 X20.6672 Y29.0301 F150.00
G01 X20.6732 Y29.0226 F150.00
G01 X20.7324 Y28.9574 F150.00
G01 X20.7952 Y28.9003 F150.00
G01 X20.8051 Y28.8922 F150.00
G01 X20.8733 Y28.8417 F150.00
G01 X20.9461 Y28.7980 F150.00
G01 X20.9573 Y28.7920 F150.00
G01 X21.0341 Y28.7558 F150.00
G01 X21.1140 Y28.7271 F150.00
G01 X21.1262 Y28.7234 F150.00
G01 X21.2086 Y28.7029 F150.00
G01 X21.2925 Y28.6903 F150.00
G01 X21.3052 Y28.6890 F150.00
G01 X21.3900 Y28.6850 F150.00
G01 X21.4748 Y28.6890 F150.00
G01 X21.4875 Y28.6903 F150.00
G01 X21.5714 Y28.7029 F150.00
G01 X21.6538 Y28.7234 F150.00
G01 X21.6660 Y28.7271 F150.00
G01 X21.7459 Y28.7558 F150.00
G01 X21.8284 Y28.7948 F150.00
G01 X21.9013 Y28.8383 F150.00
G01 X21.9119 Y28.8454 F150.00
G01 X21.9800 Y28.8961 F150.00
G01 X22.0430 Y28.9530 F150.00
G01 X22.0520 Y28.9620 F150.00
G01 X22.1089 Y29.0250 F150.00
G01 X22.1596 Y29.0931 F150.00
G01 X22.1667 Y29.1037 F150.00
G01 X22.2102 Y29.1766 F150.00
G01 X22.2466 Y29.2533 F150.00
G01 X22.2515 Y29.2651 F150.00
G01 X22.2800 Y29.3450 F150.00
G01 X22.3007 Y29.4274 F150.00
G01 X22.3032 Y29.4399 F150.00
G01 X22.3155 Y29.5239 F150.00
G01 X22.3199 Y29.6086 F150.00
G01 X22.3199 Y29.6214 F150.00
G01 X22.3155 Y29.7062 F150.00
G01 X22.3032 Y29.7902 F150.00
G01 X22.3015 Y29.7996 F150.00
G01 X22.2817 Y29.8788 F150.00
G01 X22.2780 Y29.8910 F150.00
G01 X22.2492 Y29.9709 F150.00
G01 X22.2117 Y30.0506 F150.00
G01 X22.2071 Y30.0590 F150.00
G01 X22.1667 Y30.1263 F150.00
G01 X22.1615 Y30.1343 F150.00
G01 X22.1109 Y30.2025 F150.00
G01 X22.1047 Y30.2098 F150.00
G01 X22.0883 Y30.2280 F150.00
G01 X22.0882 Y31.4032 F150.00
G01 X22.0852 Y31.4626 F150.00
G01 X22.0760 Y31.5245 F150.00
G01 X22.0608 Y31.5853 F150.00
G01 X22.0420 Y31.6383 F150.00
G01 X22.0384 Y31.6472 F150.00
G01 X22.0129 Y31.7009 F150.00
G01 X21.9807 Y31.7546 F150.00
G01 X21.9434 Y31.8049 F150.00
G01 X21.9036 Y31.8490 F150.00
G01 X20.8490 Y32.9036 F150.00
G01 X20.8097 Y32.9392 F150.00
G01 X20.7999 Y32.9473 F150.00
G01 X20.7546 Y32.9807 F150.00
G01 X20.7064 Y33.0098 F150.00
G01 X20.6952 Y33.0158 F150.00
G01 X20.6443 Y33.0397 F150.00
G01 X20.5853 Y33.0608 F150.00
G01 X20.5308 Y33.0746 F150.00
G01 X20.5182 Y33.0771 F150.00
G01 X20.4626 Y33.0852 F150.00
G01 X20.4000 Y33.0883 F150.00
G01 X13.1254 Y33.0883 F150.00
G01 X13.1053 Y33.1098 F150.00
G01 X13.0424 Y33.1669 F150.00
G01 X13.0350 Y33.1728 F150.00
G01 X12.9693 Y33.2215 F150.00
G01 X12.9613 Y33.2267 F150.00
G01 X12.8884 Y33.2702 F150.00
G01 X12.8117 Y33.3066 F150.00
G01 X12.8029 Y33.3104 F150.00
G01 X12.7200 Y33.3400 F150.00
G01 X12.6377 Y33.3607 F150.00
G01 X12.6252 Y33.3632 F150.00
G01 X12.5412 Y33.3755 F150.00
G01 X12.4564 Y33.3799 F150.00
G01 X12.4436 Y33.3799 F150.00
G01 X12.3652 Y33.3760 F150.00
G01 X12.3525 Y33.3748 F150.00
G01 X12.2686 Y33.3621 F150.00
G01 X12.1862 Y33.3417 F150.00
G01 X12.1740 Y33.3380 F150.00
G01 X12.1001 Y33.3115 F150.00
G01 X12.0883 Y33.3066 F150.00
G01 X12.0116 Y33.2702 F150.00
G01 X11.9333 Y33.2233 F150.00
G01 X11.8600 Y33.1689 F150.00
G01 X11.7924 Y33.1076 F150.00
G01 X11.7311 Y33.0400 F150.00
G01 X11.6804 Y32.9719 F150.00
G01 X11.6733 Y32.9613 F150.00
G01 X11.6330 Y32.8940 F150.00
G01 X11.6270 Y32.8827 F150.00
G01 X11.5908 Y32.8059 F150.00
G01 X11.5601 Y32.7200 F150.00
G01 X11.5379 Y32.6314 F150.00
G01 X11.5253 Y32.5475 F150.00
G00 Z2.0000
G00 X11.6044 Y32.5358
G01 F80.00
G01 Z-0.0400
G01 F150.00
G01 X11.6000 Y32.4500 F150.00
G01 X11.6041 Y32.3667 F150.00
G01 X11.6163 Y32.2842 F150.00
G01 X11.6366 Y32.2033 F150.00
G01 X11.6647 Y32.1247 F150.00
G01 X11.7004 Y32.0493 F150.00
G01 X11.7433 Y31.9778 F150.00
G01 X11.7930 Y31.9108 F150.00
G01 X11.8490 Y31.8490 F150.00
G01 X11.9108 Y31.7930 F150.00
G01 X11.9778 Y31.7433 F150.00
G01 X12.0493 Y31.7004 F150.00
G01 X12.1247 Y31.6647 F150.00
G01 X12.2033 Y31.6366 F150.00
G01 X12.2842 Y31.6163 F150.00
G01 X12.3679 Y31.6040 F150.00
G01 X12.4525 Y31.6001 F150.00
G01 X12.5333 Y31.6041 F150.00
G01 X12.6134 Y31.6159 F150.00
G01 X12.6968 Y31.6366 F150.00
G01 X12.7742 Y31.6643 F150.00
G01 X12.8507 Y31.7004 F150.00
G01 X12.9233 Y31.7440 F150.00
G01 X12.9911 Y31.7946 F150.00
G01 X13.0511 Y31.8490 F150.00
G01 X13.0899 Y31.8918 F150.00
G01 X20.1688 Y31.8918 F150.00
G01 X20.8918 Y31.1688 F150.00
G01 X20.8918 Y30.3025 F150.00
G01 X20.8508 Y30.2721 F150.00
G01 X20.7899 Y30.2169 F150.00
G01 X20.7337 Y30.1552 F150.00
G01 X20.6833 Y30.0872 F150.00
G01 X20.6410 Y30.0168 F150.00
G01 X20.6047 Y29.9403 F150.00
G01 X20.5766 Y29.8618 F150.00
G01 X20.5563 Y29.7808 F150.00
G01 X20.5440 Y29.6971 F150.00
G01 X20.5400 Y29.6150 F150.00
G01 X20.5441 Y29.5317 F150.00
G01 X20.5563 Y29.4492 F150.00
G01 X20.5766 Y29.3683 F150.00
G01 X20.6047 Y29.2897 F150.00
G01 X20.6404 Y29.2143 F150.00
G01 X20.6833 Y29.1428 F150.00
G01 X20.7330 Y29.0758 F150.00
G01 X20.7907 Y29.0123 F150.00
G01 X20.8508 Y28.9580 F150.00
G01 X20.9178 Y28.9083 F150.00
G01 X20.9915 Y28.8643 F150.00
G01 X21.0647 Y28.8297 F150.00
G01 X21.1409 Y28.8024 F150.00
G01 X21.2242 Y28.7813 F150.00
G01 X21.3091 Y28.7689 F150.00
G01 X21.3900 Y28.7650 F150.00
G01 X21.4709 Y28.7689 F150.00
G01 X21.5558 Y28.7813 F150.00
G01 X21.6391 Y28.8024 F150.00
G01 X21.7153 Y28.8297 F150.00
G01 X21.7907 Y28.8654 F150.00
G01 X21.8643 Y28.9097 F150.00
G01 X21.9292 Y28.9580 F150.00
G01 X21.9893 Y29.0123 F150.00
G01 X22.0471 Y29.0758 F150.00
G01 X22.0981 Y29.1449 F150.00
G01 X22.1396 Y29.2143 F150.00
G01 X22.1743 Y29.2875 F150.00
G01 X22.2034 Y29.3683 F150.00
G01 X22.2241 Y29.4516 F150.00
G01 X22.2359 Y29.5317 F150.00
G01 X22.2400 Y29.6126 F150.00
G01 X22.2359 Y29.6983 F150.00
G01 X22.2234 Y29.7820 F150.00
G01 X22.2026 Y29.8641 F150.00
G01 X22.1753 Y29.9403 F150.00
G01 X22.1402 Y30.0146 F150.00
G01 X22.0953 Y30.0893 F150.00
G01 X22.0471 Y30.1542 F150.00
G01 X22.0083 Y30.1972 F150.00
G01 X22.0083 Y31.4012 F150.00
G01 X22.0056 Y31.4547 F150.00
G01 X21.9975 Y31.5089 F150.00
G01 X21.9842 Y31.5621 F150.00
G01 X21.9653 Y31.6148 F150.00
G01 X21.9423 Y31.6632 F150.00
G01 X21.9142 Y31.7102 F150.00
G01 X21.8815 Y31.7542 F150.00
G01 X21.8456 Y31.7939 F150.00
G01 X20.7948 Y32.8448 F150.00
G01 X20.7542 Y32.8815 F150.00
G01 X20.7081 Y32.9155 F150.00
G01 X20.6632 Y32.9423 F150.00
G01 X20.6159 Y32.9648 F150.00
G01 X20.5621 Y32.9842 F150.00
G01 X20.5065 Y32.9980 F150.00
G01 X20.4547 Y33.0056 F150.00
G01 X20.4000 Y33.0083 F150.00
G01 X13.0899 Y33.0083 F150.00
G01 X13.0511 Y33.0511 F150.00
G01 X12.9911 Y33.1055 F150.00
G01 X12.9233 Y33.1561 F150.00
G01 X12.8507 Y33.1996 F150.00
G01 X12.7742 Y33.2358 F150.00
G01 X12.6968 Y33.2634 F150.00
G01 X12.6134 Y33.2841 F150.00
G01 X12.5333 Y33.2959 F150.00
G01 X12.4525 Y33.3000 F150.00
G01 X12.3691 Y33.2961 F150.00
G01 X12.2842 Y33.2837 F150.00
G01 X12.2056 Y33.2641 F150.00
G01 X12.1225 Y33.2343 F150.00
G01 X12.0493 Y33.1996 F150.00
G01 X11.9778 Y33.1568 F150.00
G01 X11.9108 Y33.1071 F150.00
G01 X11.8490 Y33.0511 F150.00
G01 X11.7930 Y32.9892 F150.00
G01 X11.7447 Y32.9243 F150.00
G01 X11.6993 Y32.8485 F150.00
G01 X11.6647 Y32.7753 F150.00
G01 X11.6366 Y32.6968 F150.00
G01 X11.6163 Y32.6158 F150.00
G01 X11.6044 Y32.5358 F150.00
G00 Z2.0000
G00 X8.6861 Y39.7987
G01 F80.00
G01 Z-0.0400
G01 F150.00
G01 X8.7509 Y39.7657 F150.00
G01 X8.9260 Y39.7088 F150.00
G01 X9.1079 Y39.6800 F150.00
G01 X9.2921 Y39.6800 F150.00
G01 X9.4740 Y39.7088 F150.00
G01 X9.6491 Y39.7657 F150.00
G01 X9.7139 Y39.7987 F150.00
G01 X9.5309 Y39.9817 F150.00
G01 X9.4700 Y39.9601 F150.00
G01 X9.3814 Y39.9379 F150.00
G01 X9.2912 Y39.9245 F150.00
G01 X9.2000 Y39.9200 F150.00
G01 X9.1089 Y39.9245 F150.00
G01 X9.0186 Y39.9379 F150.00
G01 X8.9300 Y39.9601 F150.00
G01 X8.8691 Y39.9817 F150.00
G01 X8.6861 Y39.7987 F150.00
G00 Z2.0000
G00 X8.5517 Y39.7774
G01 F80.00
G01 Z-0.0400
G01 F150.00
G01 X8.7202 Y39.6916 F150.00
G01 X8.9073 Y39.6308 F150.00
G01 X9.1016 Y39.6000 F150.00
G01 X9.2984 Y39.6000 F150.00
G01 X9.4927 Y39.6308 F150.00
G01 X9.6798 Y39.6916 F150.00
G01 X9.8483 Y39.7774 F150.00
G01 X9.5496 Y40.0761 F150.00
G01 X9.5242 Y40.0643 F150.00
G01 X9.4479 Y40.0370 F150.00
G01 X9.3670 Y40.0166 F150.00
G01 X9.2833 Y40.0041 F150.00
