(G-CODE GENERATED BY FLATCAM v8.993 - www.flatcam.org - Version Date: 2020/06/05)

(Name: tornillos)
(Type: G-code from Excellon)
(Units: MM)

(Created on Sunday, 09 November 2025 at 14:27)

(This preprocessor is used with a motion controller loaded with GRBL firmware.)
(It is configured to be compatible with almost any version of GRBL firmware.)


(TOOLS DIAMETER: )
(Tool: 1 -> Dia: 2.2)

(FEEDRATE Z: )
(Tool: 1 -> Feedrate: 300)

(FEEDRATE RAPIDS: )
(Tool: 1 -> Feedrate Rapids: 1500)

(Z_CUT: )
(Tool: 1 -> Z_Cut: -1.7)

(Tools Offset: )
(Tool: 1 -> Offset Z: -0.0)

(Z_MOVE: )
(Tool: 1 -> Z_Move: 2)

(Z Start: None mm)
(Z End: 2.0 mm)
(Steps per circle: 64)
(Preprocessor Excellon: grbl_11)

(X range:    2.4250 ...   81.7500  mm)
(Y range:    3.9000 ...   55.0500  mm)

(Spindle Speed: 10000.0 RPM)
G21
G90
G17
G94




G00 Z2.0000

G01 F300.00
M03 S10000
G00 X3.5250 Y53.8500
G01 Z-1.7000
G01 Z0
G00 Z2.0000
G00 X3.5750 Y5.0250
G01 Z-1.7000
G01 Z0
G00 Z2.0000
G00 X80.6500 Y5.0000
G01 Z-1.7000
G01 Z0
G00 Z2.0000
G00 X80.6500 Y53.9500
G01 Z-1.7000
G01 Z0
G00 Z2.0000
M05
G00 Z2.00
G00 X0.0 Y0.0

